;FLAVOR:Marlin
;TIME:2625
;Filament used: 3.06014m
;Layer height: 0.24
;Generated with Cura_SteamEngine 3.6.0
M140 S85
M105
M190 S85
M104 S245
M105
M109 S245
M82 ;absolute extrusion mode
; Ender 3 Custom Start G-code
G28 ; Home all axes
G92 E0 ; Reset Extruder
G1 Z2.0 F3000 ; Move Z Axis up little to prevent scratching of Heat Bed
G1 X0.1 Y20 Z0.3 F5000.0 ; Move to start position
G1 X0.1 Y200.0 Z0.3 F1500.0 E15 ; Draw the first line
G1 X0.4 Y200.0 Z0.3 F5000.0 ; Move to side a little
G1 X0.4 Y20 Z0.3 F1500.0 E30 ; Draw the second line
G92 E0 ; Reset Extruder
G1 Z2.0 F3000 ; Move Z Axis up little to prevent scratching of Heat Bed
; End of custom start GCode
G92 E0
G1 F2400 E-7
;LAYER_COUNT:38
;LAYER:0
M107
M204 S5000
M205 X30 Y30
G0 F1800 X88.446 Y100.2 Z0.24
M204 S500
M205 X20 Y20
;TYPE:SKIRT
G1 F2400 E0
G1 F900 X89.013 Y99.745 E0.0367
G1 X89.627 Y99.356 E0.0734
G1 X90.575 Y98.919 E0.12611
G1 X92.125 Y98.349 E0.20949
G1 X92.82 Y98.136 E0.24619
G1 X93.534 Y98.001 E0.28288
G1 X94.252 Y97.945 E0.31924
G1 X101.848 Y97.768 E0.70286
G1 X101.983 Y97.766 E0.70967
G1 X112.727 Y97.735 E1.25213
G1 X112.941 Y97.738 E1.26293
G1 X115.835 Y97.823 E1.40911
G1 X122.032 Y97.782 E1.722
G1 X125.566 Y97.671 E1.90051
G1 X125.754 Y97.668 E1.91001
G1 X136.502 Y97.637 E2.45266
G1 X136.765 Y97.642 E2.46594
G1 X138.902 Y97.721 E2.57391
G1 X139.57 Y97.779 E2.60777
G1 X142.519 Y98.19 E2.7581
G1 X143.233 Y98.33 E2.79483
G1 X143.848 Y98.519 E2.82732
G1 X144.278 Y98.674 E2.85039
G1 X144.948 Y98.957 E2.88712
G1 X145.582 Y99.313 E2.92383
G1 X146.173 Y99.736 E2.96052
G1 X146.674 Y100.182 E2.99439
G1 X146.998 Y100.501 E3.01734
G1 X147.488 Y101.039 E3.05408
G1 X147.915 Y101.627 E3.09077
G1 X148.275 Y102.258 E3.12745
G1 X148.657 Y103.197 E3.17863
G1 X149.343 Y105.341 E3.29229
G1 X149.526 Y106.044 E3.32896
G1 X149.63 Y106.763 E3.36564
G1 X149.639 Y107.843 E3.42017
G1 X149.312 Y112.26 E3.64379
G1 X149.017 Y119.267 E3.99788
G1 X149.099 Y124.597 E4.26702
G1 X149.267 Y127.546 E4.41615
G1 X149.252 Y128.502 E4.46443
G1 X148.97 Y131.699 E4.62647
G1 X148.741 Y137.038 E4.89627
G1 X148.812 Y142.336 E5.16379
G1 X149.098 Y147.094 E5.40445
G1 X149.11 Y147.52 E5.42596
G1 X149.05 Y161.244 E6.11888
G1 X149.007 Y161.97 E6.1556
G1 X148.884 Y162.686 E6.19228
G1 X148.684 Y163.385 E6.22899
G1 X148.408 Y164.057 E6.26567
G1 X148.055 Y164.703 E6.30283
G1 X147.768 Y165.165 E6.33029
G1 X147.351 Y165.76 E6.36698
G1 X146.871 Y166.306 E6.40368
G1 X146.334 Y166.797 E6.44042
G1 X145.747 Y167.225 E6.4771
G1 X145.198 Y167.544 E6.50916
G1 X144.803 Y167.749 E6.53163
G1 X144.14 Y168.048 E6.56835
G1 X143.449 Y168.272 E6.60502
G1 X142.737 Y168.419 E6.64173
G1 X142.018 Y168.487 E6.67819
G1 X140.721 Y168.538 E6.74373
G1 X140.458 Y168.543 E6.75701
G1 X93.421 Y168.524 E9.13185
G1 X92.696 Y168.484 E9.16851
G1 X91.908 Y168.348 E9.20889
G1 X91.611 Y168.278 E9.22429
G1 X90.913 Y168.072 E9.26104
G1 X90.243 Y167.792 E9.2977
G1 X89.329 Y167.254 E9.35125
G1 X88.953 Y166.99 E9.37444
G1 X88.382 Y166.54 E9.41115
G1 X87.863 Y166.03 E9.44789
G1 X87.404 Y165.467 E9.48456
G1 X87.01 Y164.856 E9.52127
G1 X86.777 Y164.409 E9.54672
G1 X86.554 Y163.938 E9.57303
G1 X86.279 Y163.264 E9.60978
G1 X86.08 Y162.565 E9.64648
G1 X85.959 Y161.849 E9.68314
G1 X85.918 Y161.118 E9.7201
G1 X85.899 Y147.729 E10.3961
G1 X85.91 Y147.341 E10.4157
G1 X86.208 Y142.152 E10.67812
G1 X86.28 Y136.841 E10.94629
G1 X86.051 Y131.495 E11.21645
G1 X85.796 Y128.481 E11.36917
G1 X85.776 Y127.701 E11.40856
G1 X85.959 Y122.252 E11.68383
G1 X85.772 Y115.697 E12.01492
G1 X85.769 Y115.501 E12.02482
G1 X85.778 Y106.577 E12.47538
G1 X85.797 Y106.087 E12.50014
G1 X85.865 Y105.186 E12.54576
G1 X85.959 Y104.465 E12.58247
G1 X86.132 Y103.759 E12.61917
G1 X86.382 Y103.076 E12.65589
G1 X86.705 Y102.425 E12.69258
G1 X87.077 Y101.841 E12.72754
G1 X87.477 Y101.281 E12.76229
G1 X87.932 Y100.714 E12.79899
G1 X88.037 Y100.609 E12.80649
G0 F810 X88.446 Y100.2
M204 S5000
M205 X30 Y30
G0 F1800 X88.79 Y100.509
M204 S500
M205 X20 Y20
G1 F2400 E12.83567
G1 F900 X89.341 Y100.076 E12.87105
G1 X89.938 Y99.709 E12.90643
G1 X90.733 Y99.351 E12.95045
G1 X92.283 Y98.781 E13.03384
G1 X92.954 Y98.577 E13.06924
G1 X93.644 Y98.45 E13.10467
G1 X94.263 Y98.405 E13.136
G1 X101.859 Y98.228 E13.51962
G1 X101.984 Y98.226 E13.52593
G1 X112.728 Y98.195 E14.06839
G1 X112.927 Y98.198 E14.07844
G1 X115.824 Y98.283 E14.22476
G1 X122.05 Y98.241 E14.53912
G1 X125.581 Y98.131 E14.71748
G1 X125.755 Y98.128 E14.72626
G1 X136.503 Y98.097 E15.26892
G1 X136.748 Y98.101 E15.28129
G1 X138.885 Y98.18 E15.38926
G1 X139.507 Y98.235 E15.42079
G1 X142.456 Y98.646 E15.57112
G1 X143.144 Y98.782 E15.60653
G1 X143.693 Y98.951 E15.63553
G1 X144.123 Y99.106 E15.65861
G1 X144.767 Y99.381 E15.69396
G1 X145.377 Y99.728 E15.72939
G1 X145.943 Y100.142 E15.7648
G1 X146.352 Y100.51 E15.79258
G1 X146.676 Y100.829 E15.81553
G1 X147.147 Y101.348 E15.85092
G1 X147.555 Y101.918 E15.88631
G1 X147.896 Y102.531 E15.92173
G1 X148.218 Y103.337 E15.96555
G1 X148.904 Y105.481 E16.0792
G1 X149.08 Y106.16 E16.11462
G1 X149.177 Y106.854 E16.15
G1 X149.18 Y107.809 E16.19821
G1 X148.855 Y112.206 E16.42082
G1 X148.557 Y119.273 E16.77794
G1 X148.639 Y124.606 E17.04723
G1 X148.808 Y127.572 E17.19722
G1 X148.794 Y128.462 E17.24216
G1 X148.51 Y131.684 E17.40547
G1 X148.28 Y137.024 E17.67533
G1 X148.352 Y142.349 E17.94421
G1 X148.639 Y147.122 E18.18563
G1 X148.65 Y147.518 E18.20563
G1 X148.59 Y161.242 E18.89855
G1 X148.547 Y161.942 E18.93395
G1 X148.425 Y162.632 E18.96933
G1 X148.224 Y163.304 E19.00475
G1 X147.949 Y163.949 E19.04015
G1 X147.664 Y164.46 E19.06969
G1 X147.377 Y164.922 E19.09715
G1 X146.974 Y165.496 E19.13256
G1 X146.508 Y166.02 E19.16796
G1 X145.985 Y166.487 E19.20336
G1 X145.413 Y166.892 E19.23875
G1 X144.986 Y167.136 E19.26358
G1 X144.591 Y167.341 E19.28605
G1 X143.951 Y167.628 E19.32146
G1 X143.283 Y167.84 E19.35685
G1 X142.595 Y167.975 E19.39225
G1 X142 Y168.027 E19.4224
G1 X140.703 Y168.078 E19.48794
G1 X140.459 Y168.083 E19.50026
G1 X93.422 Y168.064 E21.8751
G1 X92.722 Y168.024 E21.9105
G1 X92.013 Y167.9 E21.94684
G1 X91.716 Y167.83 E21.96225
G1 X91.044 Y167.631 E21.99763
G1 X90.399 Y167.356 E22.03304
G1 X89.593 Y166.877 E22.08037
G1 X89.217 Y166.613 E22.10357
G1 X88.667 Y166.178 E22.13897
G1 X88.17 Y165.684 E22.17435
G1 X87.733 Y165.136 E22.20974
G1 X87.361 Y164.541 E22.24517
G1 X87.193 Y164.212 E22.26382
G1 X86.97 Y163.741 E22.29013
G1 X86.706 Y163.091 E22.32555
G1 X86.518 Y162.415 E22.36098
G1 X86.409 Y161.723 E22.39635
G1 X86.378 Y161.118 E22.42693
G1 X86.359 Y147.729 E23.10293
G1 X86.369 Y147.367 E23.12122
G1 X86.668 Y142.162 E23.38444
G1 X86.741 Y136.828 E23.65378
G1 X86.512 Y131.485 E23.92379
G1 X86.254 Y128.442 E24.07797
G1 X86.235 Y127.716 E24.11464
G1 X86.419 Y122.237 E24.39143
G1 X86.232 Y115.683 E24.72247
G1 X86.229 Y115.502 E24.73161
G1 X86.238 Y106.578 E25.18217
G1 X86.255 Y106.121 E25.20526
G1 X86.323 Y105.22 E25.25088
G1 X86.416 Y104.525 E25.28628
G1 X86.587 Y103.845 E25.32168
G1 X86.834 Y103.189 E25.35707
G1 X87.155 Y102.565 E25.3925
G1 X87.452 Y102.108 E25.42002
G1 X87.852 Y101.548 E25.45477
G1 X88.291 Y101.002 E25.49014
G1 X88.379 Y100.915 E25.49639
G0 F810 X88.79 Y100.509
M204 S5000
M205 X30 Y30
G0 F1800 X89.133 Y100.82
M204 S500
M205 X20 Y20
G1 F2400 E25.52557
G1 F900 X89.668 Y100.41 E25.5596
G1 X90.248 Y100.066 E25.59365
G1 X90.892 Y99.783 E25.62916
G1 X92.442 Y99.213 E25.71254
G1 X93.088 Y99.018 E25.74661
G1 X93.752 Y98.901 E25.78065
G1 X94.273 Y98.865 E25.80702
G1 X101.869 Y98.688 E26.19064
G1 X101.986 Y98.686 E26.19655
G1 X112.73 Y98.655 E26.739
G1 X112.914 Y98.657 E26.74829
G1 X115.841 Y98.743 E26.89614
G1 X122.067 Y98.701 E27.21049
G1 X125.595 Y98.591 E27.3887
G1 X125.757 Y98.588 E27.39688
G1 X136.505 Y98.557 E27.93954
G1 X136.731 Y98.561 E27.95095
G1 X138.868 Y98.64 E28.05892
G1 X139.443 Y98.69 E28.08806
G1 X142.392 Y99.101 E28.23839
G1 X143.054 Y99.234 E28.27248
G1 X143.537 Y99.384 E28.29802
G1 X143.967 Y99.539 E28.32109
G1 X144.586 Y99.805 E28.35511
G1 X145.17 Y100.142 E28.38915
G1 X145.71 Y100.546 E28.4232
G1 X146.029 Y100.837 E28.445
G1 X146.353 Y101.156 E28.46796
G1 X146.805 Y101.657 E28.50203
G1 X147.194 Y102.208 E28.53608
G1 X147.515 Y102.801 E28.57013
G1 X147.78 Y103.477 E28.60678
G1 X148.466 Y105.621 E28.72044
G1 X148.633 Y106.274 E28.75447
G1 X148.722 Y106.943 E28.78854
G1 X148.722 Y107.775 E28.83055
G1 X148.394 Y112.215 E29.05533
G1 X148.097 Y119.261 E29.41139
G1 X148.179 Y124.615 E29.68174
G1 X148.349 Y127.598 E29.83259
G1 X148.336 Y128.422 E29.8742
G1 X148.052 Y131.647 E30.03766
G1 X147.82 Y137.028 E30.30959
G1 X147.892 Y142.36 E30.57882
G1 X148.18 Y147.149 E30.82105
G1 X148.19 Y147.516 E30.83959
G1 X148.13 Y161.24 E31.5325
G1 X148.087 Y161.913 E31.56655
G1 X147.965 Y162.576 E31.60059
G1 X147.765 Y163.22 E31.63464
G1 X147.49 Y163.836 E31.66869
G1 X147.273 Y164.218 E31.69088
G1 X146.986 Y164.68 E31.71834
G1 X146.597 Y165.23 E31.75235
G1 X146.146 Y165.731 E31.78638
G1 X145.638 Y166.175 E31.82045
G1 X145.081 Y166.556 E31.85452
G1 X144.774 Y166.727 E31.87226
G1 X144.379 Y166.932 E31.89473
G1 X143.763 Y167.207 E31.92879
G1 X143.119 Y167.407 E31.96284
G1 X142.456 Y167.529 E31.99687
G1 X141.982 Y167.568 E32.02089
G1 X140.685 Y167.619 E32.08642
G1 X140.459 Y167.623 E32.09783
G1 X93.422 Y167.604 E34.47268
G1 X92.749 Y167.564 E34.50672
G1 X92.119 Y167.452 E34.53902
G1 X91.822 Y167.382 E34.55443
G1 X91.176 Y167.189 E34.58847
G1 X90.557 Y166.921 E34.62253
G1 X89.857 Y166.501 E34.66374
G1 X89.481 Y166.237 E34.68694
G1 X88.953 Y165.817 E34.721
G1 X88.479 Y165.338 E34.75503
G1 X88.064 Y164.806 E34.78909
G1 X87.608 Y164.015 E34.83519
G1 X87.385 Y163.544 E34.8615
G1 X87.133 Y162.918 E34.89557
G1 X86.957 Y162.267 E34.92962
G1 X86.859 Y161.6 E34.96366
G1 X86.838 Y161.117 E34.98807
G1 X86.819 Y147.728 E35.66406
G1 X86.828 Y147.394 E35.68093
G1 X87.128 Y142.172 E35.94502
G1 X87.201 Y136.832 E36.21466
G1 X86.97 Y131.45 E36.48664
G1 X86.712 Y128.403 E36.64103
G1 X86.695 Y127.732 E36.67492
G1 X86.879 Y122.256 E36.95155
G1 X86.691 Y115.67 E37.2842
G1 X86.689 Y115.502 E37.29269
G1 X86.698 Y106.578 E37.74325
G1 X86.714 Y106.156 E37.76457
G1 X86.782 Y105.255 E37.81019
G1 X86.873 Y104.586 E37.84428
G1 X87.042 Y103.934 E37.87829
G1 X87.287 Y103.305 E37.91237
G1 X87.604 Y102.71 E37.94641
G1 X87.826 Y102.376 E37.96665
G1 X88.226 Y101.816 E38.0014
G1 X88.65 Y101.291 E38.03547
G1 X88.719 Y101.223 E38.04036
G0 F810 X89.133 Y100.82
M204 S5000
M205 X30 Y30
G0 F1800 X89.474 Y101.134
M204 S500
M205 X20 Y20
G1 F2400 E38.06955
G1 F900 X89.992 Y100.747 E38.10219
G1 X90.554 Y100.427 E38.13484
G1 X91.051 Y100.214 E38.16214
G1 X92.601 Y99.644 E38.24553
G1 X93.22 Y99.459 E38.27814
G1 X93.858 Y99.352 E38.31081
G1 X94.284 Y99.324 E38.33236
G1 X101.88 Y99.147 E38.71598
G1 X101.987 Y99.146 E38.72138
G1 X112.731 Y99.115 E39.26384
G1 X112.9 Y99.117 E39.27237
G1 X115.831 Y99.203 E39.42042
G1 X122.084 Y99.161 E39.73613
G1 X125.609 Y99.051 E39.91419
G1 X125.758 Y99.048 E39.92171
G1 X136.506 Y99.017 E40.46437
G1 X136.714 Y99.021 E40.47487
G1 X138.851 Y99.1 E40.58284
G1 X139.38 Y99.146 E40.60965
G1 X142.329 Y99.557 E40.75998
G1 X142.963 Y99.686 E40.79265
G1 X143.381 Y99.817 E40.81477
G1 X143.811 Y99.972 E40.83784
G1 X144.404 Y100.228 E40.87045
G1 X144.961 Y100.556 E40.90309
G1 X145.706 Y101.165 E40.95167
G1 X146.03 Y101.484 E40.97463
G1 X146.462 Y101.965 E41.00727
G1 X146.831 Y102.496 E41.03992
G1 X147.132 Y103.068 E41.07255
G1 X147.342 Y103.617 E41.10223
G1 X148.028 Y105.761 E41.21588
G1 X148.187 Y106.388 E41.24854
G1 X148.267 Y107.03 E41.28121
G1 X148.263 Y107.741 E41.3171
G1 X147.934 Y112.194 E41.54254
G1 X147.636 Y119.248 E41.89901
G1 X147.719 Y124.624 E42.17047
G1 X147.89 Y127.624 E42.32218
G1 X147.878 Y128.381 E42.36041
G1 X147.592 Y131.63 E42.52508
G1 X147.361 Y136.997 E42.79631
G1 X147.433 Y142.393 E43.06877
G1 X147.721 Y147.177 E43.31074
G1 X147.73 Y147.514 E43.32777
G1 X147.67 Y161.238 E44.02068
G1 X147.627 Y161.883 E44.05332
G1 X147.505 Y162.518 E44.08597
G1 X147.306 Y163.133 E44.1186
G1 X146.883 Y163.975 E44.16618
G1 X146.596 Y164.437 E44.19364
G1 X146.221 Y164.964 E44.22629
G1 X145.784 Y165.441 E44.25895
G1 X145.292 Y165.86 E44.29158
G1 X144.562 Y166.319 E44.33512
G1 X144.167 Y166.524 E44.35759
G1 X143.576 Y166.786 E44.39023
G1 X142.957 Y166.973 E44.42288
G1 X142.32 Y167.082 E44.4555
G1 X141.963 Y167.108 E44.47358
G1 X140.666 Y167.159 E44.53911
G1 X140.459 Y167.163 E44.54957
G1 X93.422 Y167.144 E46.92441
G1 X92.777 Y167.104 E46.95704
G1 X92.224 Y167.005 E46.9854
G1 X91.927 Y166.935 E47.00081
G1 X91.308 Y166.748 E47.03346
G1 X90.717 Y166.486 E47.0661
G1 X90.122 Y166.124 E47.10126
G1 X89.746 Y165.86 E47.12446
G1 X89.241 Y165.457 E47.15708
G1 X88.789 Y164.994 E47.18975
G1 X88.398 Y164.479 E47.22239
G1 X88.024 Y163.818 E47.26074
G1 X87.801 Y163.347 E47.28705
G1 X87.561 Y162.747 E47.31967
G1 X87.397 Y162.121 E47.35235
G1 X87.311 Y161.481 E47.38495
G1 X87.298 Y161.116 E47.40339
G1 X87.279 Y147.727 E48.07939
G1 X87.288 Y147.42 E48.09489
G1 X87.586 Y142.227 E48.35751
G1 X87.66 Y136.801 E48.63149
G1 X87.43 Y131.417 E48.90357
G1 X87.171 Y128.365 E49.05822
G1 X87.155 Y127.747 E49.08943
G1 X87.339 Y122.258 E49.36672
G1 X87.151 Y115.657 E49.70013
G1 X87.149 Y115.503 E49.70791
G1 X87.158 Y106.579 E50.15847
G1 X87.173 Y106.19 E50.17813
G1 X87.241 Y105.289 E50.22375
G1 X87.329 Y104.649 E50.25636
G1 X87.496 Y104.024 E50.28903
G1 X87.739 Y103.425 E50.32166
G1 X88.2 Y102.643 E50.36749
G1 X88.6 Y102.083 E50.40224
G1 X89.008 Y101.581 E50.4349
G1 X89.057 Y101.534 E50.43833
G0 F810 X89.474 Y101.134
M204 S5000
M205 X30 Y30
G1 F2400 E43.43833
G0 F1800 X98.925 Y122.631
G0 X99.398 Y124.105
M204 S500
M205 X20 Y20
;TYPE:SUPPORT
G1 F2400 E50.46751
G1 F900 X110.617 Y124.053 E51.03395
G1 X110.548 Y125.616 E51.11294
G1 X110.586 Y126.062 E51.13554
G1 X110.645 Y126.309 E51.14836
G1 X110.648 Y127.145 E51.19057
G1 X110.33 Y126.981 E51.20864
G1 X99.896 Y127.005 E51.73544
G1 X99.443 Y127.216 E51.76067
G1 X99.41 Y127.255 E51.76325
G1 X99.406 Y126.291 E51.81192
G1 X99.414 Y126.267 E51.8132
G1 X99.462 Y125.942 E51.82979
G1 X99.479 Y125.435 E51.8554
G1 X99.433 Y124.682 E51.89349
G0 F810 X99.398 Y124.105
M204 S5000
M205 X30 Y30
G0 F1800 X99.663 Y125.349
M204 S500
M205 X20 Y20
G1 F2400 E51.92267
G1 F900 X110.368 Y125.349 E52.46315
M204 S5000
M205 X30 Y30
G0 F1800 X109.347 Y124.248
M204 S500
M205 X20 Y20
G1 F900 X109.347 Y126.794 E52.5917
M204 S5000
M205 X30 Y30
G0 F1800 X106.68 Y126.8
M204 S500
M205 X20 Y20
G1 F900 X106.68 Y124.261 E52.71989
M204 S5000
M205 X30 Y30
G0 F1800 X104.013 Y124.273
M204 S500
M205 X20 Y20
G1 F900 X104.013 Y126.806 E52.84778
M204 S5000
M205 X30 Y30
G0 F1800 X101.346 Y126.812
M204 S500
M205 X20 Y20
G1 F900 X101.346 Y124.285 E52.97536
M204 S5000
M205 X30 Y30
G0 F1800 X101.684 Y124.091
M204 S500
M205 X20 Y20
G1 F900 X102.434 Y124.186 E53.01353
G1 X103.328 Y124.016 E53.05948
G1 X103.556 Y123.851 E53.07369
G1 X104.08 Y123.851 E53.10015
G1 X104.507 Y124.162 E53.12682
G1 X104.622 Y124.517 E53.14566
G1 X104.993 Y124.765 E53.16819
G1 X105.715 Y124.765 E53.20464
G1 X105.969 Y124.58 E53.22051
G1 X106.64 Y124.591 E53.25439
G1 X107.141 Y124.227 E53.28565
G1 X108.746 Y124.242 E53.36669
G1 X109.636 Y124.779 E53.41917
G1 X109.924 Y125.367 E53.45223
G1 X109.612 Y126.055 E53.49037
G1 X109.905 Y126.752 E53.52855
G1 X109.745 Y127.242 E53.55457
G1 X109.318 Y127.553 E53.58124
G1 X108.794 Y127.553 E53.6077
G1 X108.407 Y127.272 E53.63184
G1 X108.131 Y127.272 E53.64578
G1 X107.055 Y126.425 E53.71492
G1 X105.919 Y126.185 E53.77354
G1 X105.639 Y126.389 E53.79103
G1 X105.143 Y126.421 E53.81612
G1 X103.99 Y127.424 E53.89328
G1 X103.434 Y127.416 E53.92136
G1 X102.862 Y127.092 E53.95455
G1 X102.703 Y126.605 E53.98041
G1 X102.981 Y125.752 E54.02571
G1 X101.68 Y125.97 E54.09231
G1 X101.467 Y126.43 E54.11791
G1 X101.017 Y126.757 E54.14599
G1 X100.481 Y126.757 E54.17305
G1 X100.043 Y126.439 E54.20038
G1 X99.876 Y125.927 E54.22757
G1 X100.043 Y125.415 E54.25476
G1 X100.436 Y125.13 E54.27927
G1 X100.529 Y124.843 E54.2945
G1 X101.2 Y124.406 E54.33493
G0 F810 X101.684 Y124.091
M204 S5000
M205 X30 Y30
G0 F1800 X101.346 Y124.501
M204 S500
M205 X20 Y20
