;FLAVOR:Marlin
;TIME:2962
;Filament used: 1.87222m
;Layer height: 0.15
;Generated with Cura_SteamEngine 3.6.0
M140 S70
M105
M190 S70
M104 S250
M105
M109 S250
M82 ;absolute extrusion mode
; Ender 3 Custom Start G-code
G28 ; Home all axes
G92 E0 ; Reset Extruder
G1 Z2.0 F3000 ; Move Z Axis up little to prevent scratching of Heat Bed
G1 X0.1 Y20 Z0.3 F5000.0 ; Move to start position
G1 X0.1 Y200.0 Z0.3 F1500.0 E15 ; Draw the first line
G1 X0.4 Y200.0 Z0.3 F5000.0 ; Move to side a little
G1 X0.4 Y20 Z0.3 F1500.0 E30 ; Draw the second line
G92 E0 ; Reset Extruder
G1 Z2.0 F3000 ; Move Z Axis up little to prevent scratching of Heat Bed
; End of custom start GCode
G92 E0
G1 F2400 E-6
;LAYER_COUNT:108
;LAYER:0
M107
M204 S5000
M205 X30 Y30
G0 F1800 X82.503 Y100.409 Z0.3
M204 S500
M205 X20 Y20
;TYPE:SKIRT
G1 F2400 E0
G1 F1200 X83.085 Y99.993 E0.03569
G1 X83.71 Y99.645 E0.07138
G1 X84.37 Y99.368 E0.10709
G1 X85.056 Y99.167 E0.14275
G1 X85.761 Y99.044 E0.17846
G1 X86.509 Y99 E0.21584
G1 X126.491 Y99.001 E2.21055
G1 X127.205 Y99.041 E2.24623
G1 X127.911 Y99.16 E2.28195
G1 X128.598 Y99.358 E2.31762
G1 X129.259 Y99.631 E2.3533
G1 X129.886 Y99.976 E2.389
G1 X130.47 Y100.388 E2.42466
G1 X131.004 Y100.864 E2.46035
G1 X131.483 Y101.396 E2.49606
G1 X131.898 Y101.978 E2.53172
G1 X132.247 Y102.602 E2.56739
G1 X132.523 Y103.262 E2.60308
G1 X132.724 Y103.948 E2.63875
G1 X132.847 Y104.653 E2.67445
G1 X132.891 Y105.401 E2.71183
G1 X132.891 Y129.65 E3.92162
G1 X132.851 Y130.364 E3.9573
G1 X132.732 Y131.069 E3.99297
G1 X132.534 Y131.757 E4.02869
G1 X132.261 Y132.418 E4.06436
G1 X131.917 Y133.045 E4.10004
G1 X131.504 Y133.629 E4.13573
G1 X131.029 Y134.163 E4.17139
G1 X130.497 Y134.642 E4.2071
G1 X129.915 Y135.057 E4.24276
G1 X129.29 Y135.406 E4.27848
G1 X128.63 Y135.682 E4.31417
G1 X127.944 Y135.883 E4.34983
G1 X127.239 Y136.006 E4.38553
G1 X126.491 Y136.05 E4.42292
G1 X86.51 Y136.051 E6.41758
G1 X85.796 Y136.011 E6.45325
G1 X85.091 Y135.892 E6.48892
G1 X84.403 Y135.694 E6.52464
G1 X83.742 Y135.422 E6.5603
G1 X83.115 Y135.077 E6.59601
G1 X82.531 Y134.664 E6.63169
G1 X81.997 Y134.189 E6.66735
G1 X81.519 Y133.657 E6.70303
G1 X81.103 Y133.075 E6.73872
G1 X80.755 Y132.45 E6.77441
G1 X80.478 Y131.79 E6.81012
G1 X80.277 Y131.104 E6.84578
G1 X80.154 Y130.399 E6.88149
G1 X80.11 Y129.651 E6.91887
G1 X80.109 Y105.4 E8.12876
G1 X80.149 Y104.686 E8.16443
G1 X80.268 Y103.981 E8.2001
G1 X80.466 Y103.293 E8.23582
G1 X80.738 Y102.632 E8.27148
G1 X81.083 Y102.006 E8.30714
G1 X81.496 Y101.421 E8.34287
G1 X81.971 Y100.887 E8.37852
G1 X82.503 Y100.409 E8.4142
M204 S5000
M205 X30 Y30
G0 F1800 X82.892 Y100.612
M204 S500
M205 X20 Y20
G1 F1200 X83.468 Y100.228 E8.44874
G1 X84.084 Y99.912 E8.48328
G1 X84.733 Y99.669 E8.51786
G1 X85.405 Y99.502 E8.5524
G1 X86.092 Y99.414 E8.58696
G1 X86.509 Y99.4 E8.60777
G1 X126.491 Y99.401 E10.60248
G1 X127.183 Y99.441 E10.63706
G1 X127.865 Y99.56 E10.6716
G1 X128.529 Y99.758 E10.70617
G1 X129.165 Y100.03 E10.74068
G1 X129.766 Y100.374 E10.77523
G1 X130.324 Y100.785 E10.80981
G1 X130.83 Y101.257 E10.84433
G1 X131.279 Y101.785 E10.87891
G1 X131.664 Y102.361 E10.91347
G1 X131.979 Y102.977 E10.94799
G1 X132.222 Y103.625 E10.98252
G1 X132.389 Y104.298 E11.01711
G1 X132.477 Y104.985 E11.05167
G1 X132.491 Y105.401 E11.07243
G1 X132.491 Y129.65 E12.28222
G1 X132.451 Y130.341 E12.31675
G1 X132.332 Y131.024 E12.35134
G1 X132.134 Y131.687 E12.38586
G1 X131.862 Y132.324 E12.42042
G1 X131.518 Y132.925 E12.45496
G1 X131.107 Y133.483 E12.48954
G1 X130.635 Y133.989 E12.52406
G1 X130.107 Y134.438 E12.55864
G1 X129.532 Y134.823 E12.59316
G1 X128.915 Y135.138 E12.62773
G1 X128.267 Y135.381 E12.66225
G1 X127.594 Y135.548 E12.69685
G1 X126.908 Y135.636 E12.73135
G1 X126.491 Y135.65 E12.75217
G1 X86.51 Y135.651 E14.74683
G1 X85.819 Y135.611 E14.78136
G1 X85.137 Y135.492 E14.8159
G1 X84.473 Y135.295 E14.85045
G1 X83.836 Y135.022 E14.88503
G1 X83.235 Y134.678 E14.91958
G1 X82.677 Y134.267 E14.95415
G1 X82.171 Y133.795 E14.98868
G1 X81.722 Y133.267 E15.02326
G1 X81.338 Y132.692 E15.05775
G1 X81.022 Y132.075 E15.09234
G1 X80.779 Y131.427 E15.12686
G1 X80.612 Y130.755 E15.16141
G1 X80.524 Y130.068 E15.19596
G1 X80.51 Y129.651 E15.21678
G1 X80.509 Y105.4 E16.42667
G1 X80.549 Y104.709 E16.4612
G1 X80.668 Y104.027 E16.49574
G1 X80.865 Y103.363 E16.53029
G1 X81.138 Y102.726 E16.56487
G1 X81.482 Y102.125 E16.59942
G1 X81.893 Y101.567 E16.63399
G1 X82.365 Y101.061 E16.66851
G1 X82.892 Y100.612 E16.70305
M204 S5000
M205 X30 Y30
G0 F1800 X82.758 Y101.242
M204 S500
M205 X20 Y20
G1 F1200 X83.28 Y100.824 E16.73642
G1 X83.849 Y100.472 E16.7698
G1 X84.456 Y100.19 E16.80319
G1 X85.092 Y99.982 E16.83657
G1 X85.748 Y99.852 E16.86994
G1 X86.509 Y99.8 E16.90799
G1 X126.491 Y99.801 E18.9027
G1 X127.159 Y99.841 E18.93609
G1 X127.817 Y99.96 E18.96945
G1 X128.457 Y100.157 E19.00286
G1 X129.068 Y100.429 E19.03623
G1 X129.642 Y100.772 E19.06959
G1 X130.172 Y101.181 E19.10299
G1 X130.649 Y101.65 E19.13636
G1 X131.067 Y102.173 E19.16976
G1 X131.419 Y102.741 E19.2031
G1 X131.701 Y103.348 E19.23649
G1 X131.909 Y103.984 E19.26988
G1 X132.039 Y104.64 E19.30324
G1 X132.091 Y105.401 E19.34129
G1 X132.091 Y129.65 E20.55108
G1 X132.051 Y130.318 E20.58447
G1 X131.932 Y130.976 E20.61783
G1 X131.735 Y131.616 E20.65124
G1 X131.463 Y132.227 E20.6846
G1 X131.12 Y132.801 E20.71796
G1 X130.711 Y133.331 E20.75136
G1 X130.242 Y133.808 E20.78474
G1 X129.72 Y134.226 E20.8181
G1 X129.151 Y134.578 E20.85148
G1 X128.544 Y134.86 E20.88487
G1 X127.908 Y135.068 E20.91826
G1 X127.252 Y135.198 E20.95162
G1 X126.491 Y135.25 E20.98968
G1 X86.51 Y135.251 E22.98434
G1 X85.842 Y135.211 E23.01772
G1 X85.184 Y135.092 E23.05108
G1 X84.545 Y134.895 E23.08444
G1 X83.933 Y134.623 E23.11786
G1 X83.359 Y134.28 E23.15122
G1 X82.829 Y133.871 E23.18462
G1 X82.352 Y133.402 E23.21799
G1 X81.934 Y132.88 E23.25135
G1 X81.582 Y132.311 E23.28473
G1 X81.3 Y131.704 E23.31813
G1 X81.092 Y131.068 E23.35151
G1 X80.962 Y130.412 E23.38487
G1 X80.91 Y129.651 E23.42293
G1 X80.909 Y105.4 E24.63282
G1 X80.949 Y104.732 E24.6662
G1 X81.068 Y104.074 E24.69956
G1 X81.265 Y103.435 E24.73292
G1 X81.537 Y102.823 E24.76634
G1 X81.88 Y102.249 E24.7997
G1 X82.289 Y101.719 E24.8331
G1 X82.758 Y101.242 E24.86647
M204 S5000
M205 X30 Y30
G0 F1800 X83.149 Y101.431
M204 S500
M205 X20 Y20
G1 F1200 X83.666 Y101.046 E24.89863
G1 X84.227 Y100.728 E24.9308
G1 X84.823 Y100.481 E24.96299
G1 X85.444 Y100.31 E24.99512
G1 X86.082 Y100.218 E25.02728
G1 X86.509 Y100.2 E25.04861
G1 X126.491 Y100.201 E27.04332
G1 X127.135 Y100.241 E27.07551
G1 X127.768 Y100.36 E27.10764
G1 X128.382 Y100.557 E27.13981
G1 X128.967 Y100.828 E27.17198
G1 X129.514 Y101.17 E27.20416
G1 X130.014 Y101.576 E27.23629
G1 X130.46 Y102.042 E27.26848
G1 X130.845 Y102.559 E27.30063
G1 X131.164 Y103.119 E27.33279
G1 X131.41 Y103.715 E27.36496
G1 X131.581 Y104.336 E27.39709
G1 X131.673 Y104.974 E27.42925
G1 X131.691 Y105.401 E27.45057
G1 X131.691 Y129.65 E28.66036
G1 X131.651 Y130.293 E28.6925
G1 X131.532 Y130.927 E28.72468
G1 X131.335 Y131.541 E28.75685
G1 X131.064 Y132.126 E28.78902
G1 X130.722 Y132.673 E28.8212
G1 X130.316 Y133.173 E28.85334
G1 X129.851 Y133.619 E28.88548
G1 X129.334 Y134.004 E28.91764
G1 X128.773 Y134.323 E28.94984
G1 X128.177 Y134.569 E28.98201
G1 X127.556 Y134.74 E29.01414
G1 X126.918 Y134.832 E29.0463
G1 X126.491 Y134.85 E29.06762
G1 X86.51 Y134.851 E31.06228
G1 X85.867 Y134.811 E31.09442
G1 X85.233 Y134.692 E31.12661
G1 X84.619 Y134.495 E31.15878
G1 X84.034 Y134.224 E31.19094
G1 X83.488 Y133.882 E31.22309
G1 X82.987 Y133.476 E31.25526
G1 X82.541 Y133.011 E31.2874
G1 X82.156 Y132.494 E31.31956
G1 X81.838 Y131.933 E31.35173
G1 X81.591 Y131.337 E31.38392
G1 X81.42 Y130.716 E31.41606
G1 X81.328 Y130.078 E31.44822
G1 X81.31 Y129.651 E31.46954
G1 X81.309 Y105.4 E32.67942
G1 X81.349 Y104.757 E32.71157
G1 X81.468 Y104.123 E32.74375
G1 X81.665 Y103.509 E32.77592
G1 X81.936 Y102.924 E32.80809
G1 X82.278 Y102.378 E32.84023
G1 X82.684 Y101.877 E32.8724
G1 X83.149 Y101.431 E32.90454
M204 S5000
M205 X30 Y30
G1 F2400 E26.90454
;MESH:e9067568-f14c-4a8f-b552-33027f8b0736.stl
G0 F1800 X87.114 Y104.726
G0 X87.114 Y106.005
G0 X89.074 Y121.803
G0 X89.516 Y123.461
G0 X90.195 Y124.998
G0 X90.938 Y126.139
G0 X91.679 Y126.971
G0 X92.66 Y127.751
G0 X93.179 Y128.024
G0 X94.314 Y128.539
G0 X94.337 Y128.442
M204 S500
M205 X20 Y20
;TYPE:WALL-INNER
G1 F2400 E32.90454
G1 F1200 X94.718 Y128.518 E32.92393
G1 X95.1 Y128.564 E32.94312
G1 X95.48 Y128.581 E32.9621
G1 X95.709 Y128.578 E32.97353
G1 X96.089 Y128.546 E32.99255
G1 X96.475 Y128.484 E33.01206
G1 X96.853 Y128.39 E33.03149
G1 X97.225 Y128.268 E33.05102
G1 X97.59 Y128.116 E33.07075
G1 X97.94 Y127.942 E33.09025
G1 X98.147 Y127.826 E33.10208
G1 X98.487 Y127.605 E33.12232
G1 X98.82 Y127.358 E33.143
G1 X99.137 Y127.087 E33.16381
G1 X99.443 Y126.793 E33.18498
G1 X99.731 Y126.48 E33.2062
G1 X99.895 Y126.287 E33.21883
G1 X100.157 Y125.95 E33.24013
G1 X100.404 Y125.586 E33.26208
G1 X100.661 Y125.174 E33.2863
G1 X100.789 Y124.944 E33.29943
G1 X100.99 Y124.554 E33.32132
G1 X101.272 Y123.914 E33.35622
G1 X101.443 Y123.461 E33.38037
G1 X101.633 Y122.861 E33.41177
G1 X101.723 Y122.535 E33.42864
G1 X101.789 Y122.262 E33.44266
G1 X101.89 Y121.781 E33.46718
G1 X101.972 Y121.291 E33.49196
G1 X102.033 Y120.795 E33.5169
G1 X102.074 Y120.295 E33.54192
G1 X102.096 Y119.794 E33.56694
G1 X102.099 Y119.292 E33.59199
G1 X102.081 Y118.784 E33.61735
G1 X102.041 Y118.278 E33.64267
G1 X101.982 Y117.78 E33.66769
G1 X101.942 Y117.522 E33.68072
G1 X102.004 Y117.093 E33.70234
G1 X102.059 Y116.555 E33.72932
G1 X102.09 Y116.038 E33.75516
G1 X102.1 Y115.525 E33.78076
G1 X102.09 Y115.022 E33.80586
G1 X102.058 Y114.516 E33.83116
G1 X101.969 Y113.748 E33.86973
G1 X101.887 Y113.254 E33.89471
G1 X101.786 Y112.772 E33.91928
G1 X101.681 Y112.356 E33.94069
G1 X101.497 Y111.746 E33.97247
G1 X101.27 Y111.129 E34.00527
G1 X101.088 Y110.705 E34.02829
G1 X100.896 Y110.308 E34.05029
G1 X100.65 Y109.857 E34.07592
G1 X100.287 Y109.286 E34.10968
G1 X100.033 Y108.938 E34.13117
G1 X99.883 Y108.748 E34.14325
G1 X99.601 Y108.424 E34.16468
G1 X99.303 Y108.117 E34.18603
G1 X98.994 Y107.837 E34.20683
G1 X98.806 Y107.681 E34.21902
G1 X98.477 Y107.436 E34.23948
G1 X98.135 Y107.218 E34.25972
G1 X97.783 Y107.023 E34.27979
G1 X97.421 Y106.859 E34.29962
G1 X97.053 Y106.721 E34.31923
G1 X96.682 Y106.614 E34.33849
G1 X96.458 Y106.564 E34.34994
G1 X96.079 Y106.503 E34.36909
G1 X95.692 Y106.472 E34.38846
G1 X95.308 Y106.473 E34.40762
G1 X94.923 Y106.504 E34.42689
G1 X94.546 Y106.564 E34.44594
G1 X94.321 Y106.613 E34.45742
G1 X93.948 Y106.72 E34.47678
G1 X93.58 Y106.858 E34.49639
G1 X93.217 Y107.024 E34.51631
G1 X92.865 Y107.219 E34.53638
G1 X92.524 Y107.438 E34.5566
G1 X92.196 Y107.681 E34.57697
G1 X92.009 Y107.834 E34.58902
G1 X91.698 Y108.116 E34.60997
G1 X91.4 Y108.423 E34.63131
G1 X91.117 Y108.748 E34.65281
G1 X90.968 Y108.937 E34.66482
G1 X90.714 Y109.284 E34.68627
G1 X90.477 Y109.652 E34.70811
G1 X90.228 Y110.074 E34.73256
G1 X90.103 Y110.31 E34.74588
G1 X89.91 Y110.708 E34.76795
G1 X89.64 Y111.36 E34.80315
G1 X89.504 Y111.749 E34.82371
G1 X89.321 Y112.357 E34.85539
G1 X89.214 Y112.772 E34.87677
G1 X89.114 Y113.255 E34.90138
G1 X89.032 Y113.746 E34.92622
G1 X88.97 Y114.238 E34.95096
G1 X88.943 Y114.521 E34.96514
G1 X88.911 Y115.02 E34.99009
G1 X88.9 Y115.522 E35.01514
G1 X88.908 Y116.037 E35.04083
G1 X88.94 Y116.555 E35.06673
G1 X88.995 Y117.093 E35.09371
G1 X89.058 Y117.525 E35.11549
G1 X88.996 Y117.957 E35.13726
G1 X88.941 Y118.494 E35.16419
G1 X88.909 Y119.012 E35.19008
G1 X88.9 Y119.525 E35.21568
G1 X88.91 Y120.029 E35.24083
G1 X88.942 Y120.534 E35.26608
G1 X89.031 Y121.303 E35.3047
G1 X89.113 Y121.796 E35.32963
G1 X89.215 Y122.283 E35.35445
G1 X89.406 Y123 E35.39147
G1 X89.553 Y123.448 E35.415
G1 X89.699 Y123.845 E35.4361
G1 X89.916 Y124.353 E35.46366
G1 X90.03 Y124.592 E35.47687
G1 X90.23 Y124.98 E35.49865
G1 X90.355 Y125.202 E35.51136
G1 X90.713 Y125.766 E35.54469
G1 X90.969 Y126.115 E35.56628
G1 X91.243 Y126.452 E35.58795
G1 X91.412 Y126.64 E35.60056
G1 X91.706 Y126.943 E35.62162
G1 X92.02 Y127.227 E35.64275
G1 X92.345 Y127.485 E35.66345
G1 X92.681 Y127.718 E35.68385
G1 X93.023 Y127.922 E35.70372
G1 X93.232 Y128.034 E35.71555
G1 X93.592 Y128.197 E35.73526
G1 X93.96 Y128.333 E35.75484
G1 X94.337 Y128.442 E35.77441
M204 S5000
M205 X30 Y30
G0 F1800 X94.314 Y128.539
G0 X103.83 Y128.989
G0 X103.9 Y129.059
M204 S500
M205 X20 Y20
G1 F1200 X87.3 Y129.06 E36.60259
G1 X87.1 Y129.06 E36.61257
G1 X87.1 Y128.86 E36.61903
G1 X87.1 Y105.991 E37.75997
G1 X103.9 Y105.991 E38.59812
G1 X103.9 Y129.059 E39.74899
M204 S5000
M205 X30 Y30
G0 F1800 X104.3 Y129.459
M204 S500
M205 X20 Y20
;TYPE:WALL-OUTER
G1 F1200 X86.9 Y129.46 E40.61708
G1 X86.7 Y129.46 E40.62706
G1 X86.7 Y129.26 E40.63352
G1 X86.7 Y105.591 E41.81437
G1 X104.3 Y105.591 E42.69244
G1 X104.3 Y129.459 E43.88322
M204 S5000
M205 X30 Y30
G0 F1800 X104.1 Y129.459
G0 X103.83 Y128.989
G0 X96.474 Y128.585
G0 X96.394 Y128.092
M204 S500
M205 X20 Y20
G1 F1200 X96.742 Y128.005 E43.90111
G1 X97.086 Y127.893 E43.91916
G1 X97.424 Y127.752 E43.93743
G1 X97.753 Y127.588 E43.95577
G1 X97.94 Y127.483 E43.96647
G1 X98.259 Y127.276 E43.98545
G1 X98.57 Y127.045 E44.00477
G1 X98.868 Y126.79 E44.02434
G1 X99.157 Y126.513 E44.04431
G1 X99.431 Y126.215 E44.06451
G1 X99.584 Y126.035 E44.0763
G1 X99.833 Y125.714 E44.09656
G1 X100.069 Y125.368 E44.11746
G1 X100.316 Y124.971 E44.14079
G1 X100.436 Y124.755 E44.15311
G1 X100.629 Y124.381 E44.17411
G1 X100.902 Y123.763 E44.20782
G1 X101.065 Y123.33 E44.2309
G1 X101.249 Y122.747 E44.2614
G1 X101.336 Y122.434 E44.27761
G1 X101.399 Y122.174 E44.29095
G1 X101.497 Y121.707 E44.31476
G1 X101.576 Y121.234 E44.33869
G1 X101.635 Y120.754 E44.36281
G1 X101.675 Y120.27 E44.38704
G1 X101.696 Y119.784 E44.41131
G1 X101.699 Y119.298 E44.43556
G1 X101.682 Y118.807 E44.46007
G1 X101.643 Y118.317 E44.48459
G1 X101.586 Y117.834 E44.50886
G1 X101.538 Y117.523 E44.52456
G1 X101.607 Y117.044 E44.5487
G1 X101.66 Y116.523 E44.57483
G1 X101.69 Y116.022 E44.59987
G1 X101.7 Y115.525 E44.62467
G1 X101.69 Y115.039 E44.64892
G1 X101.659 Y114.552 E44.67327
G1 X101.573 Y113.804 E44.71083
G1 X101.494 Y113.328 E44.7349
G1 X101.396 Y112.862 E44.75866
G1 X101.295 Y112.463 E44.77919
G1 X101.117 Y111.873 E44.80994
G1 X100.898 Y111.277 E44.84162
G1 X100.724 Y110.871 E44.86365
G1 X100.54 Y110.491 E44.88472
G1 X100.305 Y110.06 E44.90921
G1 X99.956 Y109.511 E44.94166
G1 X99.715 Y109.18 E44.96209
G1 X99.575 Y109.004 E44.97331
G1 X99.306 Y108.695 E44.99375
G1 X99.025 Y108.405 E45.0139
G1 X98.732 Y108.139 E45.03364
G1 X98.559 Y107.996 E45.04484
G1 X98.25 Y107.766 E45.06406
G1 X97.93 Y107.562 E45.08299
G1 X97.603 Y107.381 E45.10164
G1 X97.268 Y107.229 E45.11999
G1 X96.927 Y107.101 E45.13816
G1 X96.583 Y107.002 E45.15602
G1 X96.382 Y106.957 E45.1663
G1 X96.031 Y106.9 E45.18404
G1 X95.677 Y106.872 E45.20175
G1 X95.324 Y106.873 E45.21936
G1 X94.97 Y106.901 E45.23708
G1 X94.62 Y106.957 E45.25476
G1 X94.419 Y107.001 E45.26503
G1 X94.074 Y107.1 E45.28294
G1 X93.733 Y107.228 E45.30111
G1 X93.397 Y107.381 E45.31953
G1 X93.07 Y107.563 E45.3382
G1 X92.751 Y107.767 E45.35709
G1 X92.442 Y107.997 E45.37631
G1 X92.27 Y108.137 E45.38737
G1 X91.976 Y108.404 E45.40718
G1 X91.695 Y108.694 E45.42733
G1 X91.425 Y109.004 E45.44784
G1 X91.286 Y109.179 E45.45899
G1 X91.044 Y109.511 E45.47949
G1 X90.817 Y109.862 E45.50034
G1 X90.577 Y110.269 E45.52391
G1 X90.46 Y110.491 E45.53643
G1 X90.275 Y110.872 E45.55756
G1 X90.014 Y111.503 E45.59163
G1 X89.884 Y111.873 E45.6112
G1 X89.706 Y112.464 E45.64199
G1 X89.604 Y112.862 E45.66249
G1 X89.507 Y113.329 E45.68628
G1 X89.428 Y113.804 E45.71031
G1 X89.368 Y114.282 E45.73434
G1 X89.342 Y114.553 E45.74792
G1 X89.311 Y115.037 E45.77212
G1 X89.3 Y115.523 E45.79637
G1 X89.308 Y116.021 E45.82122
G1 X89.339 Y116.522 E45.84627
G1 X89.392 Y117.044 E45.87244
G1 X89.462 Y117.525 E45.89669
G1 X89.393 Y118.006 E45.92093
G1 X89.34 Y118.527 E45.94706
G1 X89.309 Y119.028 E45.9721
G1 X89.3 Y119.525 E45.9969
G1 X89.31 Y120.012 E46.02121
G1 X89.341 Y120.498 E46.0455
