;FLAVOR:Marlin
;TIME:6264
;Filament used: 5.31918m
;Layer height: 0.15
;Generated with Cura_SteamEngine 3.6.0
M140 S85
M105
M190 S85
M104 S250
M105
M109 S250
M82 ;absolute extrusion mode
; Ender 3 Custom Start G-code
G28 ; Home all axes
G92 E0 ; Reset Extruder
G1 Z2.0 F3000 ; Move Z Axis up little to prevent scratching of Heat Bed
G1 X0.1 Y20 Z0.3 F5000.0 ; Move to start position
G1 X0.1 Y200.0 Z0.3 F1500.0 E15 ; Draw the first line
G1 X0.4 Y200.0 Z0.3 F5000.0 ; Move to side a little
G1 X0.4 Y20 Z0.3 F1500.0 E30 ; Draw the second line
G92 E0 ; Reset Extruder
G1 Z2.0 F3000 ; Move Z Axis up little to prevent scratching of Heat Bed
; End of custom start GCode
G92 E0
G1 F2400 E-7
;LAYER_COUNT:20
;LAYER:0
M107
M204 S5000
M205 X30 Y30
G0 F1800 X68.017 Y84.657 Z0.2
M204 S500
M205 X20 Y20
;TYPE:SKIRT
G1 F2400 E0
G1 F900 X84.732 Y67.962 E1.08041
G1 X85.279 Y67.472 E1.11399
G1 X85.876 Y67.044 E1.14759
G1 X86.581 Y66.653 E1.18446
G1 X86.881 Y66.509 E1.19967
G1 X87.56 Y66.227 E1.2333
G1 X88.265 Y66.021 E1.26689
G1 X89.234 Y65.868 E1.31175
G1 X90.241 Y65.783 E1.35797
G1 X90.809 Y65.759 E1.38397
G1 X110.887 Y65.758 E2.30219
G1 X111.072 Y65.761 E2.31065
G1 X118.297 Y65.959 E2.64119
G1 X124.609 Y65.754 E2.93001
G1 X124.838 Y65.75 E2.94048
G1 X144.924 Y65.777 E3.85907
G1 X145.658 Y65.818 E3.89269
G1 X146.382 Y65.938 E3.92625
G1 X146.953 Y66.092 E3.9533
G1 X147.392 Y66.231 E3.97436
G1 X148.079 Y66.49 E4.00794
G1 X148.734 Y66.823 E4.04154
G1 X149.177 Y67.103 E4.06551
G1 X149.58 Y67.38 E4.08787
G1 X150.162 Y67.829 E4.12149
G1 X150.534 Y68.174 E4.14469
G1 X166.959 Y84.627 E5.2079
G1 X167.449 Y85.174 E5.24148
G1 X167.877 Y85.772 E5.27511
G1 X168.279 Y86.499 E5.31311
G1 X168.537 Y87.042 E5.3406
G1 X168.815 Y87.722 E5.3742
G1 X169.019 Y88.428 E5.4078
G1 X169.144 Y89.152 E5.4414
G1 X169.19 Y89.922 E5.47668
G1 X169.242 Y110.87 E6.43469
G1 X169.239 Y111.072 E6.44393
G1 X169.041 Y118.297 E6.77447
G1 X169.246 Y124.608 E7.06325
G1 X169.25 Y124.837 E7.07372
G1 X169.223 Y144.923 E7.99231
G1 X169.182 Y145.657 E8.02593
G1 X169.062 Y146.381 E8.05949
G1 X168.744 Y147.411 E8.10879
G1 X168.484 Y148.064 E8.14093
G1 X168.176 Y148.731 E8.17453
G1 X167.797 Y149.36 E8.20811
G1 X167.351 Y149.944 E8.24172
G1 X166.983 Y150.343 E8.26654
G1 X150.268 Y167.038 E9.34695
G1 X149.721 Y167.528 E9.38054
G1 X149.124 Y167.956 E9.41413
G1 X148.484 Y168.316 E9.44771
G1 X147.73 Y168.632 E9.4851
G1 X147.105 Y168.851 E9.51539
G1 X146.4 Y169.056 E9.54897
G1 X145.676 Y169.183 E9.58258
G1 X144.877 Y169.231 E9.61919
G1 X124.117 Y169.242 E10.5686
G1 X123.928 Y169.239 E10.57724
G1 X116.703 Y169.041 E10.90779
G1 X110.391 Y169.246 E11.1966
G1 X110.163 Y169.25 E11.20703
G1 X90.091 Y169.226 E12.12498
G1 X89.357 Y169.185 E12.1586
G1 X88.633 Y169.065 E12.19216
G1 X87.837 Y168.836 E12.23004
G1 X87.238 Y168.623 E12.25911
G1 X86.561 Y168.339 E12.29269
G1 X85.918 Y167.984 E12.32628
G1 X85.317 Y167.561 E12.35989
G1 X84.727 Y167.036 E12.39601
G1 X67.968 Y150.277 E13.47991
G1 X67.478 Y149.73 E13.51349
G1 X67.05 Y149.133 E13.54709
G1 X66.689 Y148.493 E13.58069
G1 X66.373 Y147.742 E13.61795
G1 X66.152 Y147.113 E13.64844
G1 X65.946 Y146.407 E13.68208
G1 X65.819 Y145.684 E13.71565
G1 X65.77 Y144.882 E13.75239
G1 X65.75 Y124.683 E14.67615
G1 X65.755 Y124.421 E14.68813
G1 X65.944 Y119.422 E14.91691
G1 X65.9 Y114.044 E15.16287
G1 X65.773 Y111.436 E15.28229
G1 X65.765 Y111.105 E15.29743
G1 X65.77 Y90.122 E16.25704
G1 X65.81 Y89.389 E16.29061
G1 X65.93 Y88.664 E16.32422
G1 X66.224 Y87.691 E16.3707
G1 X66.491 Y87 E16.40458
G1 X66.792 Y86.33 E16.43817
G1 X67.165 Y85.697 E16.47177
G1 X67.604 Y85.109 E16.50533
G1 X68.017 Y84.657 E16.53333
M204 S5000
M205 X30 Y30
G0 F1800 X68.37 Y85.011
M204 S500
M205 X20 Y20
G1 F900 X85.085 Y68.316 E17.61374
G1 X85.613 Y67.846 E17.64607
G1 X86.19 Y67.438 E17.67839
G1 X86.797 Y67.103 E17.71009
G1 X87.097 Y66.959 E17.72531
G1 X87.751 Y66.69 E17.75765
G1 X88.431 Y66.496 E17.78999
G1 X89.276 Y66.366 E17.82909
G1 X90.283 Y66.281 E17.87531
G1 X90.809 Y66.259 E17.89938
G1 X110.887 Y66.258 E18.8176
G1 X111.059 Y66.26 E18.82547
G1 X118.3 Y66.459 E19.15674
G1 X124.626 Y66.253 E19.4462
G1 X124.837 Y66.25 E19.45585
G1 X144.923 Y66.277 E20.37444
G1 X145.629 Y66.318 E20.40678
G1 X146.326 Y66.438 E20.43913
G1 X146.802 Y66.569 E20.46171
G1 X147.241 Y66.708 E20.48276
G1 X147.901 Y66.959 E20.51506
G1 X148.529 Y67.283 E20.54737
G1 X148.894 Y67.515 E20.56715
G1 X149.297 Y67.792 E20.58952
G1 X149.856 Y68.225 E20.62185
G1 X150.18 Y68.527 E20.64211
G1 X166.605 Y84.98 E21.70532
G1 X167.075 Y85.508 E21.73764
G1 X167.483 Y86.085 E21.76996
G1 X167.827 Y86.714 E21.80275
G1 X168.085 Y87.257 E21.83024
G1 X168.352 Y87.911 E21.86255
G1 X168.543 Y88.592 E21.89489
G1 X168.656 Y89.29 E21.92723
G1 X168.69 Y89.923 E21.95622
G1 X168.742 Y110.871 E22.91423
G1 X168.74 Y111.059 E22.92283
G1 X168.541 Y118.3 E23.25411
G1 X168.747 Y124.625 E23.54352
G1 X168.75 Y124.836 E23.55317
G1 X168.723 Y144.922 E24.47176
G1 X168.682 Y145.628 E24.5041
G1 X168.562 Y146.325 E24.53644
G1 X168.28 Y147.226 E24.57962
G1 X168.02 Y147.879 E24.61176
G1 X167.721 Y148.52 E24.64411
G1 X167.353 Y149.123 E24.67642
G1 X166.918 Y149.681 E24.70877
G1 X166.63 Y149.989 E24.72806
G1 X149.915 Y166.684 E25.80847
G1 X149.387 Y167.154 E25.84079
G1 X148.81 Y167.562 E25.87311
G1 X148.19 Y167.902 E25.90545
G1 X147.565 Y168.16 E25.93637
G1 X146.94 Y168.379 E25.96666
G1 X146.261 Y168.575 E25.99898
G1 X145.564 Y168.693 E26.03131
G1 X144.876 Y168.731 E26.06282
G1 X124.116 Y168.742 E27.01223
G1 X123.941 Y168.74 E27.02024
G1 X116.7 Y168.541 E27.35151
G1 X110.374 Y168.747 E27.64097
G1 X110.164 Y168.75 E27.65057
G1 X90.092 Y168.726 E28.56852
G1 X89.386 Y168.685 E28.60086
G1 X88.689 Y168.565 E28.63321
G1 X88.005 Y168.365 E28.6658
G1 X87.406 Y168.152 E28.69487
G1 X86.754 Y167.878 E28.72722
G1 X86.138 Y167.532 E28.75953
G1 X85.565 Y167.118 E28.79186
G1 X85.081 Y166.682 E28.82165
G1 X68.322 Y149.923 E29.90555
G1 X67.851 Y149.396 E29.93787
G1 X67.443 Y148.819 E29.97019
G1 X67.102 Y148.2 E30.00251
G1 X66.844 Y147.576 E30.03339
G1 X66.623 Y146.947 E30.06388
G1 X66.427 Y146.268 E30.0962
G1 X66.309 Y145.571 E30.12853
G1 X66.27 Y144.881 E30.16014
G1 X66.25 Y124.682 E31.08389
G1 X66.254 Y124.44 E31.09496
G1 X66.444 Y119.415 E31.32493
G1 X66.4 Y114.039 E31.5708
G1 X66.272 Y111.411 E31.69113
G1 X66.265 Y111.106 E31.70508
G1 X66.27 Y90.123 E32.66469
G1 X66.31 Y89.417 E32.69703
G1 X66.43 Y88.72 E32.72937
G1 X66.69 Y87.871 E32.76998
G1 X66.957 Y87.18 E32.80386
G1 X67.249 Y86.536 E32.8362
G1 X67.611 Y85.93 E32.86848
G1 X68.04 Y85.368 E32.90081
G1 X68.37 Y85.011 E32.92304
M204 S5000
M205 X30 Y30
G0 F1800 X68.724 Y85.365
M204 S500
M205 X20 Y20
G1 F900 X85.439 Y68.67 E34.00345
G1 X85.946 Y68.22 E34.03446
G1 X86.502 Y67.833 E34.06544
G1 X87.014 Y67.554 E34.0921
G1 X87.314 Y67.41 E34.10732
G1 X87.941 Y67.153 E34.13831
G1 X88.594 Y66.972 E34.1693
G1 X89.318 Y66.864 E34.20278
G1 X90.325 Y66.779 E34.24899
G1 X90.809 Y66.759 E34.27115
G1 X110.887 Y66.758 E35.18937
G1 X111.045 Y66.76 E35.19659
G1 X118.303 Y66.959 E35.52865
G1 X124.642 Y66.753 E35.8187
G1 X124.837 Y66.75 E35.82762
G1 X144.923 Y66.777 E36.74621
G1 X145.599 Y66.818 E36.77718
G1 X146.267 Y66.938 E36.80822
G1 X146.651 Y67.045 E36.82645
G1 X147.09 Y67.184 E36.84751
G1 X147.723 Y67.427 E36.87851
G1 X148.323 Y67.742 E36.90951
G1 X148.611 Y67.927 E36.92516
G1 X149.014 Y68.204 E36.94752
G1 X149.549 Y68.621 E36.97855
G1 X149.826 Y68.881 E36.99592
G1 X166.251 Y85.334 E38.05913
G1 X166.701 Y85.841 E38.09013
G1 X167.088 Y86.397 E38.12111
G1 X167.376 Y86.928 E38.14873
G1 X167.634 Y87.471 E38.17623
G1 X167.888 Y88.1 E38.20725
G1 X168.067 Y88.754 E38.23826
G1 X168.167 Y89.424 E38.26924
G1 X168.19 Y89.925 E38.29218
G1 X168.242 Y110.873 E39.25019
G1 X168.24 Y111.045 E39.25805
G1 X168.041 Y118.303 E39.59011
G1 X168.247 Y124.641 E39.88011
G1 X168.25 Y124.836 E39.88903
G1 X168.223 Y144.922 E40.80762
G1 X168.182 Y145.598 E40.83859
G1 X168.062 Y146.266 E40.86963
G1 X167.815 Y147.041 E40.90683
G1 X167.555 Y147.694 E40.93897
G1 X167.268 Y148.308 E40.96997
G1 X166.91 Y148.884 E41.00098
G1 X166.276 Y149.635 E41.04593
G1 X149.561 Y166.33 E42.12634
G1 X149.054 Y166.78 E42.15734
G1 X148.498 Y167.167 E42.18832
G1 X147.9 Y167.486 E42.21932
G1 X147.399 Y167.689 E42.24404
G1 X146.774 Y167.908 E42.27433
G1 X146.123 Y168.094 E42.30529
G1 X145.453 Y168.202 E42.33633
G1 X144.876 Y168.231 E42.36275
G1 X124.116 Y168.242 E43.31216
G1 X123.955 Y168.24 E43.31952
G1 X116.697 Y168.041 E43.65158
G1 X110.358 Y168.247 E43.94163
G1 X110.164 Y168.25 E43.9505
G1 X90.092 Y168.226 E44.86845
G1 X89.415 Y168.185 E44.89947
G1 X88.748 Y168.065 E44.93046
G1 X88.173 Y167.894 E44.95789
G1 X87.574 Y167.681 E44.98697
G1 X86.949 Y167.416 E45.01801
G1 X86.36 Y167.08 E45.04903
G1 X85.815 Y166.677 E45.08002
G1 X85.434 Y166.329 E45.10362
G1 X68.675 Y149.57 E46.18752
G1 X68.225 Y149.063 E46.21853
G1 X67.837 Y148.507 E46.24953
G1 X67.518 Y147.909 E46.28053
G1 X67.316 Y147.41 E46.30515
G1 X67.095 Y146.781 E46.33564
G1 X66.908 Y146.129 E46.36666
G1 X66.8 Y145.46 E46.39765
G1 X66.77 Y144.881 E46.42416
G1 X66.75 Y124.682 E47.34792
G1 X66.754 Y124.459 E47.35812
G1 X66.944 Y119.43 E47.58827
G1 X66.9 Y114.011 E47.83611
G1 X66.772 Y111.387 E47.95625
G1 X66.765 Y111.106 E47.96911
G1 X66.77 Y90.123 E48.92872
G1 X66.81 Y89.446 E48.95973
G1 X66.93 Y88.779 E48.99072
G1 X67.156 Y88.052 E49.02554
G1 X67.423 Y87.361 E49.05942
G1 X67.705 Y86.744 E49.09044
G1 X68.057 Y86.164 E49.12147
G1 X68.474 Y85.63 E49.15246
G1 X68.724 Y85.365 E49.16912
M204 S5000
M205 X30 Y30
G0 F1800 X69.077 Y85.718
M204 S500
M205 X20 Y20
G1 F900 X85.792 Y69.023 E50.24953
G1 X86.278 Y68.595 E50.27914
G1 X86.812 Y68.229 E50.30875
G1 X87.23 Y68.005 E50.33044
G1 X87.53 Y67.861 E50.34566
G1 X88.13 Y67.617 E50.37528
G1 X88.756 Y67.449 E50.40492
G1 X89.36 Y67.363 E50.43282
G1 X90.367 Y67.278 E50.47904
G1 X90.809 Y67.259 E50.49927
G1 X110.887 Y67.258 E51.41749
G1 X111.031 Y67.26 E51.42408
G1 X118.305 Y67.46 E51.75686
G1 X124.658 Y67.253 E52.04756
G1 X124.836 Y67.25 E52.0557
G1 X144.922 Y67.277 E52.97429
G1 X145.569 Y67.318 E53.00393
G1 X146.5 Y67.522 E53.04752
G1 X146.939 Y67.661 E53.06858
G1 X147.543 Y67.894 E53.09819
G1 X148.328 Y68.339 E53.13945
G1 X148.731 Y68.616 E53.16182
G1 X149.472 Y69.234 E53.20595
G1 X165.897 Y85.687 E54.26915
G1 X166.326 Y86.173 E54.2988
G1 X166.691 Y86.708 E54.32842
G1 X166.924 Y87.143 E54.35098
G1 X167.182 Y87.686 E54.37848
G1 X167.423 Y88.287 E54.40809
G1 X167.589 Y88.913 E54.43771
G1 X167.676 Y89.555 E54.46734
G1 X167.69 Y89.926 E54.48432
G1 X167.742 Y110.874 E55.44233
G1 X167.74 Y111.031 E55.44951
G1 X167.54 Y118.305 E55.78229
G1 X167.747 Y124.657 E56.07294
G1 X167.75 Y124.835 E56.08108
G1 X167.723 Y144.921 E56.99967
G1 X167.682 Y145.568 E57.02932
G1 X167.562 Y146.204 E57.05892
G1 X167.351 Y146.856 E57.09026
G1 X167.091 Y147.509 E57.1224
G1 X166.814 Y148.095 E57.15204
G1 X166.468 Y148.642 E57.18164
G1 X165.923 Y149.282 E57.22009
G1 X149.208 Y165.977 E58.3005
G1 X148.722 Y166.405 E58.33011
G1 X148.188 Y166.771 E58.35972
G1 X147.612 Y167.068 E58.38936
G1 X147.234 Y167.217 E58.40794
G1 X146.609 Y167.436 E58.43823
G1 X145.986 Y167.612 E58.46783
G1 X145.345 Y167.71 E58.49749
G1 X144.876 Y167.731 E58.51896
G1 X124.116 Y167.742 E59.46837
G1 X123.969 Y167.74 E59.47509
G1 X116.695 Y167.54 E59.80788
G1 X110.342 Y167.747 E60.09857
G1 X110.165 Y167.75 E60.10667
G1 X90.093 Y167.726 E61.02461
G1 X89.446 Y167.685 E61.05426
G1 X88.81 Y167.565 E61.08386
G1 X88.34 Y167.423 E61.10632
G1 X87.741 Y167.21 E61.13539
G1 X87.145 Y166.955 E61.16504
G1 X86.585 Y166.63 E61.19465
G1 X86.07 Y166.237 E61.22427
G1 X85.788 Y165.975 E61.24188
G1 X69.029 Y149.216 E62.32578
G1 X68.6 Y148.731 E62.35539
G1 X68.234 Y148.196 E62.38504
G1 X67.937 Y147.621 E62.41463
G1 X67.788 Y147.244 E62.43317
G1 X67.567 Y146.615 E62.46366
G1 X67.39 Y145.992 E62.49328
G1 X67.292 Y145.352 E62.52289
G1 X67.27 Y144.88 E62.5445
G1 X67.25 Y124.681 E63.46826
G1 X67.254 Y124.478 E63.47754
G1 X67.444 Y119.445 E63.70788
G1 X67.4 Y114.008 E63.95653
G1 X67.271 Y111.363 E64.07764
G1 X67.265 Y111.106 E64.0894
G1 X67.27 Y90.123 E65.04901
G1 X67.31 Y89.476 E65.07865
G1 X67.43 Y88.84 E65.10825
G1 X67.623 Y88.232 E65.13742
G1 X67.89 Y87.541 E65.1713
G1 X68.16 Y86.952 E65.20093
G1 X68.501 Y86.401 E65.23057
G1 X69.077 Y85.718 E65.27143
M204 S5000
M205 X30 Y30
G1 F2400 E58.27143
;MESH:caa30d17-e88a-409e-b33f-d6eb70e28e37.stl(1)(1)(1)
G0 F1800 X72.364 Y88.888
G0 X73.484 Y89.776
G0 X80.247 Y99.691
G0 X80.309 Y99.769
M204 S500
M205 X20 Y20
;TYPE:WALL-INNER
G1 F2400 E65.27143
G1 F900 X80.073 Y99.978 E65.28584
G1 X79.857 Y100.205 E65.30017
G1 X79.661 Y100.451 E65.31456
G1 X79.489 Y100.715 E65.32897
G1 X79.341 Y100.991 E65.34329
G1 X79.219 Y101.281 E65.35768
G1 X79.123 Y101.578 E65.37195
G1 X79.054 Y101.885 E65.38634
G1 X79.013 Y102.195 E65.40065
G1 X78.999 Y102.51 E65.41507
G1 X79.015 Y102.824 E65.42944
G1 X79.058 Y103.136 E65.44385
G1 X79.129 Y103.441 E65.45817
G1 X79.226 Y103.74 E65.47254
G1 X79.351 Y104.03 E65.48699
G1 X79.501 Y104.304 E65.50127
G1 X79.674 Y104.565 E65.51559
G1 X79.871 Y104.81 E65.52997
G1 X80.088 Y105.037 E65.54433
G1 X80.326 Y105.243 E65.55873
G1 X80.578 Y105.426 E65.57297
G1 X80.85 Y105.588 E65.58745
G1 X81.137 Y105.725 E65.60199
G1 X81.43 Y105.832 E65.61626
G1 X81.73 Y105.914 E65.63048
G1 X82.04 Y105.97 E65.64489
G1 X82.355 Y105.997 E65.65935
G1 X82.666 Y105.996 E65.67357
G1 X82.979 Y105.968 E65.68794
G1 X83.29 Y105.911 E65.7024
G1 X83.593 Y105.825 E65.7168
G1 X83.885 Y105.715 E65.73107
G1 X84.168 Y105.578 E65.74545
G1 X84.437 Y105.415 E65.75984
G1 X84.691 Y105.231 E65.77418
G1 X84.927 Y105.022 E65.7886
G1 X85.143 Y104.795 E65.80293
G1 X85.339 Y104.549 E65.81731
G1 X85.511 Y104.285 E65.83172
G1 X85.659 Y104.009 E65.84605
G1 X85.781 Y103.719 E65.86043
G1 X85.877 Y103.422 E65.87471
G1 X85.946 Y103.115 E65.8891
G1 X85.987 Y102.805 E65.9034
G1 X86.001 Y102.49 E65.91782
G1 X85.985 Y102.176 E65.9322
G1 X85.942 Y101.864 E65.9466
G1 X85.871 Y101.559 E65.96092
G1 X85.774 Y101.26 E65.9753
G1 X85.649 Y100.97 E65.98974
G1 X85.499 Y100.696 E66.00403
G1 X85.326 Y100.435 E66.01835
G1 X85.129 Y100.19 E66.03272
G1 X84.912 Y99.963 E66.04708
G1 X84.674 Y99.757 E66.06148
G1 X84.422 Y99.574 E66.07572
G1 X84.15 Y99.412 E66.0902
G1 X83.863 Y99.275 E66.10475
G1 X83.57 Y99.168 E66.11901
G1 X83.27 Y99.086 E66.13323
G1 X82.96 Y99.03 E66.14764
G1 X82.645 Y99.003 E66.1621
G1 X82.334 Y99.004 E66.17632
G1 X82.021 Y99.032 E66.19069
G1 X81.71 Y99.089 E66.20515
G1 X81.407 Y99.175 E66.21956
G1 X81.115 Y99.285 E66.23383
G1 X80.832 Y99.422 E66.24821
G1 X80.563 Y99.585 E66.26259
G1 X80.309 Y99.769 E66.27693
M204 S5000
M205 X30 Y30
G0 F1800 X80.247 Y99.691
G0 X81.395 Y99.138
G0 X82.239 Y98.983
G0 X100.247 Y99.691
G0 X100.309 Y99.769
M204 S500
M205 X20 Y20
G1 F900 X100.073 Y99.978 E66.29135
G1 X99.857 Y100.205 E66.30568
G1 X99.661 Y100.451 E66.32007
G1 X99.489 Y100.715 E66.33448
G1 X99.341 Y100.991 E66.3488
G1 X99.219 Y101.281 E66.36319
G1 X99.123 Y101.578 E66.37746
G1 X99.054 Y101.885 E66.39185
G1 X99.013 Y102.195 E66.40615
G1 X98.999 Y102.51 E66.42057
G1 X99.015 Y102.824 E66.43495
G1 X99.058 Y103.136 E66.44935
G1 X99.129 Y103.441 E66.46368
G1 X99.226 Y103.74 E66.47805
G1 X99.351 Y104.03 E66.49249
G1 X99.501 Y104.304 E66.50678
G1 X99.674 Y104.565 E66.5211
G1 X99.871 Y104.81 E66.53548
G1 X100.088 Y105.037 E66.54984
G1 X100.326 Y105.243 E66.56423
G1 X100.578 Y105.426 E66.57848
G1 X100.85 Y105.588 E66.59295
G1 X101.137 Y105.725 E66.6075
G1 X101.43 Y105.832 E66.62176
G1 X101.73 Y105.914 E66.63599
G1 X102.04 Y105.97 E66.65039
G1 X102.355 Y105.997 E66.66485
G1 X102.666 Y105.996 E66.67908
G1 X102.979 Y105.968 E66.69345
G1 X103.29 Y105.911 E66.70791
G1 X103.593 Y105.825 E66.72231
G1 X103.885 Y105.715 E66.73658
G1 X104.168 Y105.578 E66.75096
G1 X104.437 Y105.415 E66.76534
G1 X104.691 Y105.231 E66.77969
G1 X104.927 Y105.022 E66.7941
G1 X105.143 Y104.795 E66.80843
G1 X105.339 Y104.549 E66.82282
G1 X105.511 Y104.285 E66.83723
G1 X105.659 Y104.009 E66.85155
G1 X105.781 Y103.719 E66.86594
G1 X105.877 Y103.422 E66.88021
G1 X105.946 Y103.115 E66.8946
G1 X105.987 Y102.805 E66.90891
