;FLAVOR:Marlin
;TIME:3434
;Filament used: 2.73975m
;Layer height: 0.15
;Generated with Cura_SteamEngine 3.6.0
M140 S85
M105
M190 S85
M104 S250
M105
M109 S250
M82 ;absolute extrusion mode
; Ender 3 Custom Start G-code
G28 ; Home all axes
G92 E0 ; Reset Extruder
G1 Z2.0 F3000 ; Move Z Axis up little to prevent scratching of Heat Bed
G1 X0.1 Y20 Z0.3 F5000.0 ; Move to start position
G1 X0.1 Y200.0 Z0.3 F1500.0 E15 ; Draw the first line
G1 X0.4 Y200.0 Z0.3 F5000.0 ; Move to side a little
G1 X0.4 Y20 Z0.3 F1500.0 E30 ; Draw the second line
G92 E0 ; Reset Extruder
G1 Z2.0 F3000 ; Move Z Axis up little to prevent scratching of Heat Bed
; End of custom start GCode
G92 E0
G1 F2400 E-7
;LAYER_COUNT:60
;LAYER:0
M107
M204 S5000
M205 X30 Y30
G0 F1800 X88.014 Y85.61 Z0.2
M204 S500
M205 X20 Y20
;TYPE:SKIRT
G1 F2400 E0
G1 F900 X88.555 Y85.113 E0.0336
G1 X89.147 Y84.678 E0.06719
G1 X90.024 Y84.192 E0.11305
G1 X90.528 Y83.96 E0.13842
G1 X91.211 Y83.69 E0.17201
G1 X91.919 Y83.495 E0.20559
G1 X92.644 Y83.379 E0.23917
G1 X93.348 Y83.342 E0.27141
G1 X140.96 Y83.327 E2.44884
G1 X141.795 Y83.379 E2.4871
G1 X142.808 Y83.505 E2.53378
G1 X143.531 Y83.635 E2.56738
G1 X144.236 Y83.843 E2.60099
G1 X144.913 Y84.126 E2.63455
G1 X145.556 Y84.481 E2.66814
G1 X146.157 Y84.904 E2.70175
G1 X146.506 Y85.2 E2.72268
G1 X146.835 Y85.498 E2.74298
G1 X147.352 Y86.02 E2.77658
G1 X147.809 Y86.595 E2.81017
G1 X148.201 Y87.217 E2.84379
G1 X148.498 Y87.819 E2.87449
G1 X148.666 Y88.207 E2.89383
G1 X148.921 Y88.896 E2.92743
G1 X149.099 Y89.609 E2.96103
G1 X149.199 Y90.336 E2.9946
G1 X149.222 Y90.885 E3.01972
G1 X149.23 Y104.976 E3.66414
G1 X149.211 Y105.483 E3.68735
G1 X148.749 Y111.663 E3.97076
G1 X148.67 Y116.977 E4.21381
G1 X148.741 Y119.553 E4.33167
G1 X149.038 Y125.017 E4.58192
G1 X149.048 Y125.389 E4.59894
G1 X149.031 Y144.096 E5.45446
G1 X148.99 Y144.83 E5.48808
G1 X148.87 Y145.554 E5.52164
G1 X148.672 Y146.262 E5.55526
G1 X148.369 Y147.006 E5.592
G1 X148.152 Y147.459 E5.61497
G1 X147.799 Y148.103 E5.64856
G1 X147.378 Y148.705 E5.68215
G1 X146.894 Y149.258 E5.71576
G1 X146.353 Y149.755 E5.74936
G1 X145.761 Y150.19 E5.78296
G1 X145.392 Y150.416 E5.80274
G1 X145.002 Y150.637 E5.82324
G1 X144.344 Y150.963 E5.85683
G1 X143.655 Y151.217 E5.89041
G1 X142.942 Y151.394 E5.92401
G1 X142.214 Y151.492 E5.9576
G1 X141.667 Y151.514 E5.98264
G1 X93.165 Y151.465 E8.20077
G1 X92.432 Y151.424 E8.23434
G1 X91.707 Y151.304 E8.26795
G1 X91 Y151.106 E8.30152
G1 X90.318 Y150.832 E8.33514
G1 X89.67 Y150.486 E8.36873
G1 X88.792 Y149.851 E8.41829
G1 X88.473 Y149.579 E8.43746
G1 X87.941 Y149.073 E8.47104
G1 X87.467 Y148.512 E8.50462
G1 X87.057 Y147.903 E8.5382
G1 X86.715 Y147.252 E8.57183
G1 X86.452 Y146.587 E8.60453
G1 X86.312 Y146.169 E8.62469
G1 X86.117 Y145.461 E8.65828
G1 X86 Y144.735 E8.69191
G1 X85.963 Y144.026 E8.72438
G1 X85.961 Y124.942 E9.59714
G1 X85.972 Y124.552 E9.61498
G1 X86.225 Y120.162 E9.81608
G1 X86.331 Y114.812 E10.0608
G1 X86.135 Y109.524 E10.3028
G1 X85.772 Y105.055 E10.50785
G1 X85.75 Y104.479 E10.53421
G1 X85.81 Y90.755 E11.16185
G1 X85.853 Y90.022 E11.19543
G1 X85.976 Y89.298 E11.22902
G1 X86.176 Y88.591 E11.26262
G1 X86.453 Y87.911 E11.2962
G1 X86.824 Y87.227 E11.33179
G1 X87.11 Y86.766 E11.3566
G1 X87.531 Y86.163 E11.39023
G1 X88.014 Y85.61 E11.42381
M204 S5000
M205 X30 Y30
G0 F1800 X88.41 Y85.921
M204 S500
M205 X20 Y20
G1 F900 X88.935 Y85.449 E11.45609
G1 X89.511 Y85.038 E11.48845
G1 X90.233 Y84.647 E11.526
G1 X90.737 Y84.415 E11.55138
G1 X91.394 Y84.156 E11.58368
G1 X92.077 Y83.973 E11.61601
G1 X92.776 Y83.868 E11.64834
G1 X93.348 Y83.842 E11.67452
G1 X140.96 Y83.827 E13.85195
G1 X141.733 Y83.875 E13.88737
G1 X142.746 Y84.001 E13.93405
G1 X143.442 Y84.128 E13.96641
G1 X144.118 Y84.332 E13.9987
G1 X144.768 Y84.612 E14.03107
G1 X145.381 Y84.963 E14.06337
G1 X146.171 Y85.571 E14.10896
G1 X146.5 Y85.869 E14.12926
G1 X146.996 Y86.372 E14.16157
G1 X147.432 Y86.928 E14.19388
G1 X147.803 Y87.53 E14.22622
G1 X148.039 Y88.018 E14.25101
G1 X148.207 Y88.406 E14.27035
G1 X148.451 Y89.069 E14.30266
G1 X148.618 Y89.756 E14.33499
G1 X148.707 Y90.457 E14.36731
G1 X148.722 Y90.885 E14.38689
G1 X148.73 Y104.976 E15.03131
G1 X148.713 Y105.446 E15.05282
G1 X148.249 Y111.652 E15.33743
G1 X148.17 Y116.96 E15.5802
G1 X148.243 Y119.593 E15.70067
G1 X148.539 Y125.044 E15.95032
G1 X148.548 Y125.389 E15.9661
G1 X148.531 Y144.096 E16.82163
G1 X148.49 Y144.801 E16.85392
G1 X148.37 Y145.498 E16.88627
G1 X148.172 Y146.176 E16.91857
G1 X147.918 Y146.79 E16.94896
G1 X147.701 Y147.243 E16.97193
G1 X147.36 Y147.862 E17.00425
G1 X146.951 Y148.439 E17.03659
G1 X146.48 Y148.966 E17.06892
G1 X145.952 Y149.436 E17.10124
G1 X145.145 Y149.981 E17.14578
G1 X144.755 Y150.202 E17.16628
G1 X144.122 Y150.515 E17.19857
G1 X143.457 Y150.754 E17.23089
G1 X142.769 Y150.917 E17.26322
G1 X142.067 Y151.002 E17.29556
G1 X141.668 Y151.014 E17.31382
G1 X93.166 Y150.965 E19.53195
G1 X92.46 Y150.924 E19.56429
G1 X91.763 Y150.804 E19.59663
G1 X91.085 Y150.606 E19.62894
G1 X90.433 Y150.333 E19.66126
G1 X89.816 Y149.988 E19.69359
G1 X89.117 Y149.471 E19.73335
G1 X88.798 Y149.199 E19.75252
G1 X88.287 Y148.711 E19.78484
G1 X87.834 Y148.168 E19.81718
G1 X87.446 Y147.577 E19.84951
G1 X87.126 Y146.947 E19.88182
G1 X86.927 Y146.428 E19.90724
G1 X86.787 Y146.01 E19.9274
G1 X86.6 Y145.328 E19.95975
G1 X86.492 Y144.63 E19.99205
G1 X86.463 Y144.026 E20.0197
G1 X86.461 Y124.942 E20.89246
G1 X86.471 Y124.581 E20.90898
G1 X86.725 Y120.175 E21.11081
G1 X86.831 Y114.821 E21.35571
G1 X86.632 Y109.466 E21.60078
G1 X86.271 Y105.015 E21.80501
G1 X86.25 Y104.482 E21.8294
G1 X86.31 Y90.758 E22.45704
G1 X86.353 Y90.052 E22.48939
G1 X86.476 Y89.356 E22.52171
G1 X86.676 Y88.678 E22.55404
G1 X86.951 Y88.027 E22.58636
G1 X87.249 Y87.49 E22.61444
G1 X87.535 Y87.029 E22.63926
G1 X87.941 Y86.451 E22.67156
G1 X88.41 Y85.921 E22.70392
M204 S5000
M205 X30 Y30
G0 F1800 X88.804 Y86.235
M204 S500
M205 X20 Y20
G1 F900 X89.313 Y85.787 E22.73493
G1 X89.872 Y85.403 E22.76595
G1 X90.442 Y85.101 E22.79545
G1 X90.946 Y84.869 E22.82082
G1 X91.577 Y84.622 E22.85181
G1 X92.233 Y84.451 E22.88282
G1 X92.905 Y84.359 E22.91384
G1 X93.348 Y84.342 E22.93411
G1 X140.96 Y84.327 E25.11153
G1 X141.672 Y84.371 E25.14416
G1 X142.685 Y84.497 E25.19084
G1 X143.351 Y84.62 E25.22182
G1 X143.999 Y84.821 E25.25284
G1 X144.618 Y85.097 E25.28384
G1 X145.201 Y85.443 E25.31484
G1 X145.835 Y85.941 E25.35171
G1 X146.164 Y86.239 E25.37201
G1 X146.639 Y86.723 E25.40303
G1 X147.053 Y87.26 E25.43404
G1 X147.402 Y87.841 E25.46503
G1 X147.581 Y88.216 E25.48403
G1 X147.749 Y88.604 E25.50337
G1 X147.981 Y89.241 E25.53437
G1 X148.136 Y89.901 E25.56538
G1 X148.222 Y90.886 E25.6106
G1 X148.23 Y104.977 E26.25502
G1 X148.214 Y105.409 E26.27479
G1 X147.749 Y111.625 E26.55986
G1 X147.67 Y116.966 E26.80414
G1 X147.743 Y119.598 E26.92456
G1 X148.04 Y125.071 E27.17522
G1 X148.048 Y125.388 E27.18972
G1 X148.031 Y144.095 E28.04524
G1 X147.99 Y144.772 E28.07626
G1 X147.87 Y145.439 E28.10725
G1 X147.673 Y146.088 E28.13827
G1 X147.467 Y146.574 E28.16241
G1 X147.25 Y147.027 E28.18538
G1 X146.921 Y147.62 E28.2164
G1 X146.525 Y148.17 E28.24739
G1 X146.067 Y148.67 E28.2784
G1 X145.554 Y149.113 E28.3094
G1 X144.899 Y149.546 E28.34531
G1 X144.509 Y149.767 E28.36581
G1 X143.9 Y150.066 E28.39683
G1 X143.261 Y150.291 E28.42782
G1 X142.599 Y150.439 E28.45884
G1 X141.668 Y150.514 E28.50155
G1 X93.166 Y150.465 E30.71968
G1 X92.489 Y150.424 E30.7507
G1 X91.822 Y150.304 E30.78169
G1 X91.174 Y150.107 E30.81267
G1 X90.553 Y149.834 E30.84369
G1 X89.969 Y149.49 E30.87469
G1 X89.441 Y149.09 E30.90498
G1 X89.122 Y148.818 E30.92415
G1 X88.633 Y148.349 E30.95514
G1 X88.203 Y147.825 E30.98614
G1 X87.837 Y147.254 E31.01716
G1 X87.541 Y146.644 E31.04816
G1 X87.401 Y146.269 E31.06647
G1 X87.261 Y145.851 E31.08663
G1 X87.084 Y145.197 E31.11761
G1 X86.985 Y144.526 E31.14863
G1 X86.963 Y144.026 E31.17152
G1 X86.961 Y124.942 E32.04428
G1 X86.971 Y124.61 E32.05947
G1 X87.225 Y120.214 E32.26085
G1 X87.331 Y114.812 E32.50795
G1 X87.133 Y109.451 E32.75329
G1 X86.769 Y104.974 E32.95871
G1 X86.75 Y104.484 E32.98113
G1 X86.81 Y90.76 E33.60877
G1 X86.853 Y90.083 E33.6398
G1 X86.975 Y89.416 E33.67081
G1 X87.175 Y88.769 E33.70178
G1 X87.45 Y88.149 E33.7328
G1 X87.674 Y87.754 E33.75356
G1 X87.96 Y87.293 E33.77837
G1 X88.351 Y86.739 E33.80938
G1 X88.804 Y86.235 E33.84038
M204 S5000
M205 X30 Y30
G0 F1800 X89.197 Y86.55
M204 S500
M205 X20 Y20
G1 F900 X89.689 Y86.129 E33.86999
G1 X90.23 Y85.772 E33.89963
G1 X90.651 Y85.555 E33.92129
G1 X91.155 Y85.323 E33.94667
G1 X91.759 Y85.089 E33.97629
G1 X92.387 Y84.931 E34.0059
G1 X93.348 Y84.842 E34.05004
G1 X140.96 Y84.827 E36.22747
G1 X141.61 Y84.867 E36.25725
G1 X142.623 Y84.993 E36.30393
G1 X143.26 Y85.113 E36.33358
G1 X143.877 Y85.31 E36.3632
G1 X144.465 Y85.581 E36.39281
G1 X145.015 Y85.923 E36.42243
G1 X145.499 Y86.312 E36.45082
G1 X145.828 Y86.61 E36.47112
G1 X146.281 Y87.074 E36.50078
G1 X146.673 Y87.589 E36.53038
G1 X147.122 Y88.415 E36.57338
G1 X147.29 Y88.803 E36.59271
G1 X147.51 Y89.412 E36.62232
G1 X147.654 Y90.044 E36.65197
G1 X147.722 Y90.886 E36.6906
G1 X147.73 Y104.977 E37.33502
G1 X147.715 Y105.371 E37.35305
G1 X147.25 Y111.596 E37.63853
G1 X147.17 Y116.973 E37.88446
G1 X147.243 Y119.638 E38.00639
G1 X147.54 Y125.098 E38.25646
G1 X147.548 Y125.388 E38.26972
G1 X147.531 Y144.095 E39.12524
G1 X147.49 Y144.741 E39.15485
G1 X147.371 Y145.378 E39.18448
G1 X147.173 Y145.995 E39.21412
G1 X147.016 Y146.358 E39.2322
G1 X146.799 Y146.811 E39.25518
G1 X146.483 Y147.377 E39.28482
G1 X146.101 Y147.9 E39.31444
G1 X145.657 Y148.371 E39.34404
G1 X145.158 Y148.784 E39.37367
G1 X144.652 Y149.111 E39.40122
G1 X144.262 Y149.332 E39.42172
G1 X143.68 Y149.616 E39.45133
G1 X143.067 Y149.826 E39.48097
G1 X142.433 Y149.959 E39.51059
G1 X141.669 Y150.014 E39.54562
G1 X93.167 Y149.965 E41.76375
G1 X92.52 Y149.924 E41.7934
G1 X91.884 Y149.804 E41.823
G1 X91.267 Y149.607 E41.85262
G1 X90.679 Y149.335 E41.88225
G1 X90.129 Y148.993 E41.91187
G1 X89.766 Y148.71 E41.93292
G1 X89.447 Y148.438 E41.95209
G1 X88.981 Y147.988 E41.98172
G1 X88.574 Y147.484 E42.01134
G1 X88.232 Y146.934 E42.04096
G1 X87.875 Y146.11 E42.08203
G1 X87.735 Y145.692 E42.10219
G1 X87.567 Y145.067 E42.13179
G1 X87.478 Y144.425 E42.16143
G1 X87.463 Y144.026 E42.17969
G1 X87.461 Y124.942 E43.05245
G1 X87.47 Y124.638 E43.06636
G1 X87.725 Y120.225 E43.26851
G1 X87.831 Y114.804 E43.51648
G1 X87.633 Y109.438 E43.76205
G1 X87.267 Y104.934 E43.96871
G1 X87.25 Y104.486 E43.98921
G1 X87.31 Y90.762 E44.61685
G1 X87.353 Y90.116 E44.64646
G1 X87.475 Y89.48 E44.67608
G1 X87.674 Y88.863 E44.70572
G1 X88.099 Y88.017 E44.74902
G1 X88.385 Y87.556 E44.77383
G1 X88.76 Y87.028 E44.80345
G1 X89.197 Y86.55 E44.83307
M204 S5000
M205 X30 Y30
G1 F2400 E37.83307
;MESH:a5b693d5-665b-451d-b108-f589b8f2fa97.stl
G0 F1800 X92.31 Y89.906
G0 X93.325 Y90.92
G0 X97.178 Y94.481
G0 X97.186 Y94.58
M204 S500
M205 X20 Y20
;TYPE:WALL-INNER
G1 F2400 E44.83307
G1 F900 X96.875 Y94.623 E44.84743
G1 X96.568 Y94.693 E44.86183
G1 X96.27 Y94.789 E44.87614
G1 X95.981 Y94.913 E44.89053
G1 X95.705 Y95.062 E44.90487
G1 X95.443 Y95.235 E44.91923
G1 X95.199 Y95.429 E44.93349
G1 X94.97 Y95.647 E44.94794
G1 X94.762 Y95.884 E44.96237
G1 X94.578 Y96.139 E44.97675
G1 X94.417 Y96.408 E44.99108
G1 X94.281 Y96.692 E45.00548
G1 X94.171 Y96.985 E45.0198
G1 X94.087 Y97.287 E45.03413
G1 X94.031 Y97.597 E45.04854
G1 X94.003 Y97.91 E45.06291
G1 X94.003 Y98.223 E45.07723
G1 X94.031 Y98.536 E45.0916
G1 X94.087 Y98.847 E45.10605
G1 X94.171 Y99.149 E45.12038
G1 X94.281 Y99.442 E45.1347
G1 X94.417 Y99.726 E45.1491
G1 X94.578 Y99.996 E45.16347
G1 X94.763 Y100.249 E45.17781
G1 X94.969 Y100.486 E45.19217
G1 X95.197 Y100.703 E45.20656
G1 X95.443 Y100.899 E45.22095
G1 X95.705 Y101.072 E45.23531
G1 X95.981 Y101.221 E45.24965
G1 X96.27 Y101.345 E45.26403
G1 X96.568 Y101.441 E45.27835
G1 X96.875 Y101.511 E45.29275
G1 X97.186 Y101.554 E45.30711
G1 X97.5 Y101.567 E45.32148
G1 X97.814 Y101.554 E45.33585
G1 X98.125 Y101.511 E45.35021
G1 X98.432 Y101.441 E45.36461
G1 X98.73 Y101.345 E45.37893
G1 X99.019 Y101.221 E45.39331
G1 X99.295 Y101.072 E45.40766
G1 X99.557 Y100.899 E45.42201
G1 X99.803 Y100.703 E45.4364
G1 X100.031 Y100.486 E45.45079
G1 X100.237 Y100.249 E45.46515
G1 X100.422 Y99.996 E45.47949
G1 X100.583 Y99.726 E45.49386
G1 X100.719 Y99.442 E45.50826
G1 X100.829 Y99.149 E45.52258
G1 X100.913 Y98.847 E45.53691
G1 X100.969 Y98.536 E45.55136
G1 X100.997 Y98.223 E45.56574
G1 X100.997 Y97.91 E45.58005
G1 X100.969 Y97.597 E45.59442
G1 X100.913 Y97.287 E45.60883
G1 X100.829 Y96.985 E45.62316
G1 X100.719 Y96.692 E45.63748
G1 X100.583 Y96.408 E45.65188
G1 X100.422 Y96.139 E45.66621
G1 X100.238 Y95.884 E45.6806
G1 X100.03 Y95.647 E45.69502
G1 X99.801 Y95.429 E45.70948
G1 X99.557 Y95.235 E45.72373
G1 X99.295 Y95.062 E45.73809
G1 X99.019 Y94.913 E45.75243
G1 X98.73 Y94.789 E45.76682
G1 X98.432 Y94.693 E45.78113
G1 X98.125 Y94.623 E45.79553
G1 X97.814 Y94.58 E45.80989
G1 X97.5 Y94.567 E45.82426
G1 X97.186 Y94.58 E45.83864
M204 S5000
M205 X30 Y30
G0 F1800 X97.178 Y94.481
G0 X98.442 Y94.655
G0 X124.398 Y105.306
G0 X124.753 Y105.692
G0 X125.01 Y106.009
G0 X124.915 Y106.038
M204 S500
M205 X20 Y20
G1 F900 X124.803 Y105.802 E45.85058
G1 X124.691 Y105.628 E45.86005
G1 X124.537 Y105.467 E45.87024
G1 X124.376 Y105.339 E45.87964
G1 X124.195 Y105.237 E45.88914
G1 X124.005 Y105.159 E45.89854
G1 X123.796 Y105.108 E45.90838
G1 X123.61 Y105.095 E45.9169
G1 X111.389 Y105.095 E46.4758
G1 X111.176 Y105.111 E46.48557
G1 X110.827 Y105.222 E46.50232
G1 X110.626 Y105.339 E46.51296
G1 X110.463 Y105.467 E46.52243
G1 X110.311 Y105.627 E46.53253
G1 X110.189 Y105.812 E46.54266
G1 X110.085 Y106.045 E46.55433
G1 X110.048 Y106.288 E46.56557
G1 X110.048 Y110.401 E46.75367
G1 X110.048 Y110.554 E46.76067
G1 X110.038 Y110.747 E46.7695
G1 X109.885 Y110.747 E46.7765
G1 X105.5 Y110.741 E46.97704
G1 X100.117 Y110.747 E47.22322
G1 X99.964 Y110.747 E47.23022
G1 X99.953 Y110.554 E47.23906
G1 X99.953 Y110.401 E47.24605
G1 X99.952 Y106.289 E47.43411
G1 X99.915 Y106.038 E47.44571
G1 X99.803 Y105.802 E47.45766
G1 X99.691 Y105.628 E47.46712
G1 X99.537 Y105.467 E47.47731
G1 X99.376 Y105.339 E47.48672
G1 X99.195 Y105.237 E47.49622
G1 X99.005 Y105.159 E47.50561
G1 X98.796 Y105.108 E47.51545
G1 X98.61 Y105.095 E47.52398
G1 X93.468 Y105.091 E47.75913
G1 X93.398 Y105.07 E47.76247
G1 X93.336 Y105.03 E47.76585
G1 X93.292 Y104.979 E47.76893
G1 X93.261 Y104.909 E47.77243
G1 X93.25 Y104.82 E47.77653
G1 X93.255 Y91.027 E48.40732
G1 X93.275 Y90.962 E48.41043
G1 X93.31 Y90.908 E48.41338
G1 X93.358 Y90.863 E48.41639
G1 X93.434 Y90.827 E48.42023
G1 X93.526 Y90.817 E48.42446
G1 X141.463 Y90.822 E50.61675
G1 X141.543 Y90.822 E50.62041
G1 X141.6 Y90.839 E50.62313
G1 X141.653 Y90.871 E50.62596
G1 X141.708 Y90.932 E50.62972
G1 X141.739 Y91.001 E50.63318
G1 X141.75 Y91.092 E50.63737
G1 X141.75 Y91.172 E50.64103
G1 X141.745 Y104.88 E51.26793
G1 X141.725 Y104.949 E51.27122
G1 X141.686 Y105.008 E51.27445
G1 X141.634 Y105.053 E51.2776
G1 X141.571 Y105.082 E51.28077
G1 X141.472 Y105.095 E51.28533
G1 X136.308 Y105.097 E51.5215
G1 X136.016 Y105.151 E51.53508
G1 X135.804 Y105.236 E51.54552
G1 X135.626 Y105.339 E51.55493
G1 X135.463 Y105.467 E51.56441
G1 X135.311 Y105.627 E51.5745
G1 X135.189 Y105.812 E51.58463
G1 X135.085 Y106.045 E51.5963
G1 X135.048 Y106.288 E51.60754
G1 X135.048 Y110.401 E51.79564
G1 X135.048 Y110.554 E51.80264
G1 X135.038 Y110.747 E51.81148
G1 X134.885 Y110.747 E51.81848
G1 X129.908 Y110.741 E52.04609
G1 X125.117 Y110.747 E52.26519
G1 X124.964 Y110.747 E52.27219
G1 X124.953 Y110.554 E52.28103
G1 X124.953 Y110.401 E52.28803
G1 X124.952 Y106.289 E52.47608
G1 X124.915 Y106.038 E52.48768
M204 S5000
M205 X30 Y30
G0 F1800 X125.01 Y106.009
G0 X135.173 Y95.399
G0 X135.964 Y94.877
G0 X137.178 Y94.481
G0 X137.186 Y94.58
M204 S500
M205 X20 Y20
G1 F900 X136.875 Y94.623 E52.50204
G1 X136.568 Y94.693 E52.51644
G1 X136.27 Y94.789 E52.53076
G1 X135.981 Y94.913 E52.54514
G1 X135.705 Y95.062 E52.55949
G1 X135.443 Y95.235 E52.57384
G1 X135.199 Y95.429 E52.5881
G1 X134.97 Y95.647 E52.60256
