;FLAVOR:Marlin
;TIME:6793
;Filament used: 4.81327m
;Layer height: 0.16
;MINX:87.47
;MINY:87.47
;MINZ:0.2
;MAXX:132.53
;MAXY:132.53
;MAXZ:23
;Generated with Cura_SteamEngine 4.2.1
M140 S80
M105
M190 S80
M104 S240
M105
M109 S240
M82 ;absolute extrusion mode
M201 X500.00 Y500.00 Z100.00 E5000.00 ;Setup machine max acceleration
M203 X500.00 Y500.00 Z10.00 E50.00 ;Setup machine max feedrate
M204 P500.00 R1000.00 T500.00 ;Setup Print/Retract/Travel acceleration
M205 X8.00 Y8.00 Z0.40 E5.00 ;Setup Jerk
M220 S100 ;Reset Feedrate
M221 S100 ;Reset Flowrate

G28 ;Home

G92 E0 ;Reset Extruder
G1 Z2.0 F3000 ;Move Z Axis up
G1 X10.1 Y20 Z0.28 F5000.0 ;Move to start position
G1 X10.1 Y200.0 Z0.28 F1500.0 E15 ;Draw the first line
G1 X10.4 Y200.0 Z0.28 F5000.0 ;Move to side a little
G1 X10.4 Y20 Z0.28 F1500.0 E30 ;Draw the second line
G92 E0 ;Reset Extruder
G1 Z2.0 F3000 ;Move Z Axis up

G92 E0
G92 E0
G1 F2700 E-5
;LAYER_COUNT:124
;LAYER:0
M107
G0 F6000 X90.327 Y90.135 Z0.2
;TYPE:SUPPORT
G1 F2700 E0
G1 F900 X90.674 Y89.811 E0.01737
G1 X91.049 Y89.509 E0.03498
G1 X91.391 Y89.254 E0.05059
G1 X91.835 Y88.965 E0.06997
G1 X92.163 Y88.773 E0.08388
G1 X92.581 Y88.565 E0.10096
G1 X93.036 Y88.363 E0.11918
G1 X93.499 Y88.192 E0.13723
G1 X93.975 Y88.041 E0.1555
G1 X94.418 Y87.93 E0.17221
G1 X94.781 Y87.855 E0.18577
G1 X95.325 Y87.788 E0.20583
G1 X95.8 Y87.746 E0.22327
G1 X96.255 Y87.734 E0.23993
G1 X129.146 Y87.733 E1.44328
G1 X129.199 Y87.712 E1.44537
G1 X128.398 Y89.285 E1.50995
G1 X128.757 Y89.87 E1.53506
G1 X129.51 Y89.869 E1.56261
G1 X129.166 Y90.237 E1.58104
G1 X128.969 Y90.615 E1.59663
G1 X128.881 Y90.91 E1.6079
G1 X128.809 Y91.251 E1.62065
G1 X128.761 Y91.712 E1.63761
G1 X128.754 Y92.029 E1.64921
G1 X128.751 Y128.752 E2.99276
G1 X92.109 Y128.751 E4.33335
G1 X91.696 Y128.763 E4.34847
G1 X91.249 Y128.812 E4.36492
G1 X91.015 Y128.855 E4.37362
G1 X90.615 Y128.965 E4.3888
G1 X90.172 Y129.214 E4.40739
G1 X89.869 Y129.528 E4.42336
G1 X89.869 Y129.156 E4.43697
G1 X89.343 Y128.758 E4.4611
G1 X87.689 Y129.235 E4.52408
G1 X87.733 Y129.124 E4.52845
G1 X87.737 Y96.174 E5.73396
G1 X87.783 Y95.365 E5.76361
G1 X87.811 Y95.088 E5.77379
G1 X87.9 Y94.578 E5.79273
G1 X87.972 Y94.253 E5.80491
G1 X88.077 Y93.877 E5.81919
G1 X88.279 Y93.245 E5.84347
G1 X88.44 Y92.861 E5.8587
G1 X88.657 Y92.399 E5.87738
G1 X88.872 Y92 E5.89396
G1 X89.121 Y91.594 E5.91139
G1 X89.346 Y91.271 E5.92579
G1 X89.686 Y90.831 E5.94613
G1 X90.018 Y90.45 E5.96462
G1 X90.327 Y90.135 E5.98076
G0 F6000 X90.627 Y90.457
G1 F900 X90.961 Y90.145 E5.99749
G1 X91.325 Y89.852 E6.01458
G1 X91.643 Y89.615 E6.02909
G1 X92.068 Y89.339 E6.04763
G1 X92.373 Y89.16 E6.06057
G1 X92.769 Y88.963 E6.07675
G1 X93.201 Y88.771 E6.09405
G1 X93.651 Y88.605 E6.1116
G1 X94.086 Y88.467 E6.12829
G1 X94.519 Y88.359 E6.14462
G1 X94.85 Y88.29 E6.15699
G1 X95.379 Y88.225 E6.17649
G1 X95.818 Y88.186 E6.19262
G1 X96.267 Y88.174 E6.20905
G1 X128.47 Y88.173 E7.38723
G1 X127.894 Y89.305 E7.4337
G1 X128.511 Y90.31 E7.47685
G1 X128.632 Y90.31 E7.48127
G1 X128.559 Y90.449 E7.48702
G1 X128.454 Y90.801 E7.50046
G1 X128.374 Y91.183 E7.51474
G1 X128.322 Y91.684 E7.53316
G1 X128.314 Y92.024 E7.54561
G1 X128.311 Y128.312 E8.87324
G1 X92.103 Y128.311 E10.19796
G1 X91.666 Y128.324 E10.21395
G1 X91.185 Y128.376 E10.23165
G1 X90.917 Y128.426 E10.24163
G1 X90.446 Y128.555 E10.25949
G1 X90.078 Y128.762 E10.27494
G1 X89.433 Y128.274 E10.30453
G1 X88.173 Y128.637 E10.3525
G1 X88.177 Y96.174 E11.5402
G1 X88.221 Y95.409 E11.56824
G1 X88.248 Y95.14 E11.57813
G1 X88.33 Y94.673 E11.59547
G1 X88.402 Y94.348 E11.60765
G1 X88.501 Y93.995 E11.62107
G1 X88.691 Y93.4 E11.64392
G1 X88.846 Y93.031 E11.65856
G1 X89.049 Y92.598 E11.67606
G1 X89.253 Y92.221 E11.69174
G1 X89.491 Y91.832 E11.70842
G1 X89.694 Y91.54 E11.72144
G1 X90.023 Y91.114 E11.74113
G1 X90.345 Y90.745 E11.75905
G1 X90.627 Y90.457 E11.77379
G1 F2700 E6.77379
G1 F600 Z0.4
G0 F6000 X95.033 Y95.361 Z0.4
G1 F600 Z0.2
G1 F2700 E11.77379
G1 F900 X94.643 Y95.949 E11.79961
G1 X94.384 Y96.655 E11.82712
G1 X94.347 Y97.343 E11.85233
G1 X94.43 Y97.958 E11.87503
G1 X94.643 Y98.549 E11.89802
G1 X95.045 Y99.155 E11.92462
G1 X95.55 Y99.606 E11.94939
G1 X96.261 Y100.012 E11.97935
G1 X96.937 Y100.134 E12.00448
G1 X97.25 Y100.143 E12.01594
G1 X97.563 Y100.134 E12.02739
G1 X98.239 Y100.012 E12.05252
G1 X98.95 Y99.606 E12.08248
G1 X99.455 Y99.155 E12.10725
G1 X99.857 Y98.549 E12.13386
G1 X100.07 Y97.958 E12.15684
G1 X100.153 Y97.343 E12.17954
G1 X100.116 Y96.655 E12.20475
G1 X99.857 Y95.949 E12.23227
G1 X99.467 Y95.361 E12.25808
G1 X98.854 Y94.803 E12.28841
G1 X98.367 Y94.583 E12.30796
G1 X97.98 Y94.43 E12.32318
G1 X97.25 Y94.328 E12.35015
G1 X96.52 Y94.43 E12.37712
G1 X96.133 Y94.583 E12.39234
G1 X95.646 Y94.803 E12.4119
G1 X95.033 Y95.361 E12.44222
G0 F6000 X95.369 Y95.65
G1 F900 X95.038 Y96.149 E12.46413
G1 X94.82 Y96.744 E12.48731
G1 X94.789 Y97.325 E12.5086
G1 X94.86 Y97.853 E12.52809
G1 X95.039 Y98.35 E12.54742
G1 X95.38 Y98.865 E12.57002
G1 X95.808 Y99.247 E12.59101
G1 X96.413 Y99.592 E12.61649
G1 X96.983 Y99.695 E12.63768
G1 X97.25 Y99.703 E12.64745
G1 X97.517 Y99.695 E12.65722
G1 X98.087 Y99.592 E12.67842
G1 X98.692 Y99.247 E12.7039
G1 X99.12 Y98.865 E12.72489
G1 X99.461 Y98.35 E12.74748
G1 X99.64 Y97.853 E12.76681
G1 X99.711 Y97.325 E12.7863
G1 X99.68 Y96.744 E12.80759
G1 X99.462 Y96.149 E12.83077
G1 X99.131 Y95.65 E12.85268
G1 X98.609 Y95.175 E12.8785
G1 X98.195 Y94.988 E12.89512
G1 X97.867 Y94.858 E12.90803
G1 X97.25 Y94.772 E12.93082
G1 X96.633 Y94.858 E12.95361
G1 X96.305 Y94.988 E12.96652
G1 X95.891 Y95.175 E12.98314
G1 X95.369 Y95.65 E13.00896
G0 F6000 X94.6 Y95.854
G1 F900 X94.6 Y88.431 E13.28054
G1 F2700 E8.28054
G1 F600 Z0.4
G0 F6000 X96.8 Y88.261 Z0.4
G1 F600 Z0.2
G1 F2700 E13.28054
G1 F900 X96.8 Y94.303 E13.5016
G0 F6000 X95.88 Y94.6
G1 F900 X88.437 Y94.6 E13.77391
G1 F2700 E8.77391
G1 F600 Z0.4
G0 F6000 X88.265 Y96.8 Z0.4
G1 F600 Z0.2
G1 F2700 E13.77391
G1 F900 X94.288 Y96.8 E13.99426
G1 F2700 E8.99426
G1 F600 Z0.4
G0 F6000 X94.6 Y98.644 Z0.4
G1 F600 Z0.2
G1 F2700 E13.99426
G1 F900 X94.6 Y128.223 E15.07645
G1 F2700 E10.07645
G1 F600 Z0.4
G0 F6000 X92.4 Y128.223 Z0.4
G1 F600 Z0.2
G1 F2700 E15.07645
G1 F900 X92.4 Y89.245 E16.5025
G1 F2700 E11.5025
G1 F600 Z0.4
G0 F6000 X91.032 Y90.2 Z0.4
G1 F600 Z0.2
G1 F2700 E16.5025
G1 F900 X128.341 Y90.2 E17.86749
G1 F2700 E12.86749
G1 F600 Z0.4
G0 F6000 X127.6 Y88.261 Z0.4
G1 F600 Z0.2
G1 F2700 E17.86749
G1 F900 X127.6 Y128.223 E19.32955
G0 F6000 X128.222 Y127.6
G1 F900 X88.261 Y127.6 E20.79157
G1 F2700 E15.79157
G1 F600 Z0.4
G0 F6000 X90.2 Y128.593 Z0.4
G1 F600 Z0.2
G1 F2700 E20.79157
G1 F900 X90.2 Y91.045 E22.16531
G1 F2700 E17.16531
G1 F600 Z0.4
G0 F6000 X89.257 Y92.4 Z0.4
G1 F600 Z0.2
G1 F2700 E22.16531
G1 F900 X128.225 Y92.4 E23.59099
G1 F2700 E18.59099
G1 F600 Z0.4
G0 F6000 X128.225 Y94.6 Z0.4
G1 F600 Z0.2
G1 F2700 E23.59099
G1 F900 X98.619 Y94.6 E24.67416
G0 F6000 X99 Y94.818
G1 F900 X99 Y88.261 E24.91406
G1 F2700 E19.91406
G1 F600 Z0.4
G0 F6000 X101.2 Y88.261 Z0.4
G1 F600 Z0.2
G1 F2700 E24.91406
G1 F900 X101.2 Y128.223 E26.37611
G1 F2700 E21.37611
G1 F600 Z0.4
G0 F6000 X99 Y128.223 Z0.4
G1 F600 Z0.2
G1 F2700 E26.37611
G1 F900 X99 Y99.678 E27.42047
G0 F6000 X99.664 Y99
G1 F900 X128.225 Y99 E28.4654
G1 F2700 E23.4654
G1 F600 Z0.4
G0 F6000 X128.225 Y96.8 Z0.4
G1 F600 Z0.2
G1 F2700 E28.4654
G1 F900 X100.211 Y96.8 E29.49033
G1 F2700 E24.49033
G1 F600 Z0.4
G0 F6000 X96.8 Y100.199 Z0.4
G1 F600 Z0.2
G1 F2700 E29.49033
G1 F900 X96.8 Y128.223 E30.51562
G1 F2700 E25.51562
G1 F600 Z0.4
G0 F6000 X103.4 Y128.223 Z0.4
G1 F600 Z0.2
G1 F2700 E30.51562
G1 F900 X103.4 Y88.261 E31.97767
G1 F2700 E26.97767
G1 F600 Z0.4
G0 F6000 X105.6 Y88.261 Z0.4
G1 F600 Z0.2
G1 F2700 E31.97767
G1 F900 X105.6 Y128.223 E33.43973
G1 F2700 E28.43973
G1 F600 Z0.4
G0 F6000 X107.8 Y128.223 Z0.4
G1 F600 Z0.2
G1 F2700 E33.43973
G1 F900 X107.8 Y88.261 E34.90179
G1 F2700 E29.90179
G1 F600 Z0.4
G0 F6000 X110 Y88.261 Z0.4
G1 F600 Z0.2
G1 F2700 E34.90179
G1 F900 X110 Y128.223 E36.36384
G1 F2700 E31.36384
G1 F600 Z0.4
G0 F6000 X112.2 Y128.223 Z0.4
G1 F600 Z0.2
G1 F2700 E36.36384
G1 F900 X112.2 Y88.261 E37.8259
G1 F2700 E32.8259
G1 F600 Z0.4
G0 F6000 X114.4 Y88.261 Z0.4
G1 F600 Z0.2
G1 F2700 E37.8259
G1 F900 X114.4 Y128.223 E39.28795
G1 F2700 E34.28795
G1 F600 Z0.4
G0 F6000 X116.6 Y128.223 Z0.4
G1 F600 Z0.2
G1 F2700 E39.28795
G1 F900 X116.6 Y88.261 E40.75001
G1 F2700 E35.75001
G1 F600 Z0.4
G0 F6000 X118.8 Y88.261 Z0.4
G1 F600 Z0.2
G1 F2700 E40.75001
G1 F900 X118.8 Y128.223 E42.21206
G1 F2700 E37.21206
G1 F600 Z0.4
G0 F6000 X121 Y128.223 Z0.4
G1 F600 Z0.2
G1 F2700 E42.21206
G1 F900 X121 Y88.261 E43.67412
G1 F2700 E38.67412
G1 F600 Z0.4
G0 F6000 X123.2 Y88.261 Z0.4
G1 F600 Z0.2
G1 F2700 E43.67412
G1 F900 X123.2 Y128.223 E45.13617
G1 F2700 E40.13617
G1 F600 Z0.4
G0 F6000 X125.4 Y128.223 Z0.4
G1 F600 Z0.2
G1 F2700 E45.13617
G1 F900 X125.4 Y88.261 E46.59823
G1 F2700 E41.59823
G1 F600 Z0.4
G0 F6000 X128.225 Y101.2 Z0.4
G1 F600 Z0.2
G1 F2700 E46.59823
G1 F900 X88.265 Y101.2 E48.06021
G1 F2700 E43.06021
G1 F600 Z0.4
G0 F6000 X88.265 Y99 Z0.4
G1 F600 Z0.2
G1 F2700 E48.06021
G1 F900 X94.837 Y99 E48.30066
G1 F2700 E43.30066
G1 F600 Z0.4
G0 F6000 X88.265 Y103.4 Z0.4
G1 F600 Z0.2
G1 F2700 E48.30066
G1 F900 X128.225 Y103.4 E49.76264
G1 F2700 E44.76264
G1 F600 Z0.4
G0 F6000 X128.224 Y105.6 Z0.4
G1 F600 Z0.2
G1 F2700 E49.76264
G1 F900 X88.264 Y105.6 E51.22462
G1 F2700 E46.22462
G1 F600 Z0.4
G0 F6000 X88.264 Y107.8 Z0.4
G1 F600 Z0.2
G1 F2700 E51.22462
G1 F900 X128.224 Y107.8 E52.6866
G1 F2700 E47.6866
G1 F600 Z0.4
G0 F6000 X128.224 Y110 Z0.4
G1 F600 Z0.2
G1 F2700 E52.6866
G1 F900 X88.264 Y110 E54.14859
G1 F2700 E49.14859
G1 F600 Z0.4
G0 F6000 X88.264 Y112.2 Z0.4
G1 F600 Z0.2
G1 F2700 E54.14859
G1 F900 X128.224 Y112.2 E55.61057
G1 F2700 E50.61057
G1 F600 Z0.4
G0 F6000 X128.224 Y114.4 Z0.4
G1 F600 Z0.2
G1 F2700 E55.61057
G1 F900 X88.263 Y114.4 E57.07259
G1 F2700 E52.07259
G1 F600 Z0.4
G0 F6000 X88.263 Y116.6 Z0.4
G1 F600 Z0.2
G1 F2700 E57.07259
G1 F900 X128.223 Y116.6 E58.53457
G1 F2700 E53.53457
G1 F600 Z0.4
G0 F6000 X128.223 Y118.8 Z0.4
G1 F600 Z0.2
G1 F2700 E58.53457
G1 F900 X88.263 Y118.8 E59.99655
G1 F2700 E54.99655
G1 F600 Z0.4
G0 F6000 X88.261 Y121 Z0.4
G1 F600 Z0.2
G1 F2700 E59.99655
G1 F900 X128.222 Y121 E61.45857
G1 F2700 E56.45857
G1 F600 Z0.4
G0 F6000 X128.222 Y123.2 Z0.4
G1 F600 Z0.2
G1 F2700 E61.45857
G1 F900 X88.261 Y123.2 E62.92059
G1 F2700 E57.92059
G1 F600 Z0.4
G0 F6000 X88.261 Y125.4 Z0.4
G1 F600 Z0.2
G1 F2700 E62.92059
G1 F900 X128.222 Y125.4 E64.38261
G1 F2700 E59.38261
G1 F600 Z0.4
;MESH:935069bf-7096-4fcf-980b-7a9778da3139.stl
G0 F6000 X130.495 Y131.109 Z0.4
;TYPE:WALL-INNER
G1 F600 Z0.2
G1 F2700 E64.38261
G1 F900 X130.659 Y130.997 E64.38988
G1 X130.852 Y130.827 E64.39929
G1 X130.862 Y130.819 E64.39976
G1 X131.044 Y130.596 E64.41029
G1 X131.098 Y130.507 E64.41409
G1 X131.098 Y130.596
G1 X131.098 Y130.819 E64.41635
G1 X131.098 Y130.997 E64.41961
G1 X131.098 Y131.109 E64.42289
G1 X130.862 Y131.109 E64.42889
G1 X130.659 Y131.109 E64.43197
G1 X130.495 Y131.109 E64.43245
G1 F2700 E59.43245
G1 F600 Z0.4
G0 F6000 X91.856 Y131.541 Z0.4
G1 F600 Z0.2
G1 F2700 E64.43245
G1 F900 X91.852 Y131.54 E64.4326
G1 X91.851 Y131.027 E64.45137
G1 X91.851 Y130.96 E64.45382
G1 X92.156 Y130.951 E64.46498
G1 X92.223 Y130.951 E64.46744
G1 X129.566 Y130.952 E65.83367
G1 X129.801 Y130.923 E65.84234
G1 X130.021 Y130.858 E65.85073
G1 X130.222 Y130.763 E65.85886
G1 X130.389 Y130.649 E65.86626
G1 X130.544 Y130.513 E65.8738
G1 X130.684 Y130.341 E65.88192
G1 X130.792 Y130.164 E65.8895
G1 X130.87 Y129.981 E65.89678
G1 X130.934 Y129.759 E65.90524
G1 X130.951 Y129.543 E65.91316
G1 X130.954 Y92.065 E67.28434
G1 X130.96 Y91.852 E67.29213
G1 X131.457 Y91.851 E67.31032
G1 X131.54 Y91.851 E67.31335
G1 X131.549 Y92.125 E67.32338
G1 X131.549 Y92.208 E67.32642
G1 X131.538 Y131.319 E68.75734
G1 X131.529 Y131.35 E68.75852
G1 X131.508 Y131.393 E68.76027
G1 X131.459 Y131.46 E68.76331
G1 X131.437 Y131.479 E68.76437
G1 X131.363 Y131.522 E68.76751
G1 X131.323 Y131.537 E68.76907
G1 X131.284 Y131.545 E68.77052
G1 X131.221 Y131.549 E68.77283
G1 X91.856 Y131.541 E70.21305
G0 F6000 X92.054 Y131.986
G1 F900 X91.824 Y131.98 E70.22147
G1 X91.517 Y131.948 E70.23276
G1 X91.413 Y131.926 E70.23665
G1 X91.41 Y130.572 E70.28619
G1 X91.502 Y130.555 E70.28961
G1 X91.825 Y130.52 E70.30149
G1 X92.144 Y130.511 E70.31317
G1 X129.539 Y130.512 E71.68131
G1 X129.711 Y130.491 E71.68765
G1 X129.863 Y130.446 E71.69345
G1 X130.002 Y130.38 E71.69908
G1 X130.119 Y130.3 E71.70426
G1 X130.227 Y130.206 E71.7095
G1 X130.324 Y130.087 E71.71512
G1 X130.4 Y129.962 E71.72047
G1 X130.455 Y129.833 E71.7256
G1 X130.499 Y129.68 E71.73143
G1 X130.511 Y129.526 E71.73708
G1 X130.514 Y92.054 E73.10803
G1 X130.52 Y91.824 E73.11645
G1 X130.552 Y91.517 E73.12774
G1 X130.574 Y91.413 E73.13163
G1 X131.928 Y91.41 E73.18117
G1 X131.945 Y91.504 E73.18467
G1 X131.98 Y91.825 E73.19648
G1 X131.989 Y92.125 E73.20746
G1 X131.983 Y131.331 E74.64186
G1 X131.968 Y131.418 E74.64509
G1 X131.939 Y131.513 E74.64872
G1 X131.893 Y131.61 E74.65265
G1 X131.837 Y131.691 E74.65625
G1 X131.776 Y131.767 E74.65982
G1 X131.709 Y131.827 E74.66311
G1 X131.62 Y131.886 E74.66701
G1 X131.535 Y131.928 E74.67048
G1 X131.44 Y131.962 E74.67417
G1 X131.342 Y131.982 E74.67783
G1 X131.235 Y131.989 E74.68176
G1 X92.054 Y131.986 E76.11524
G0 F6000 X92.043 Y132.426
;TYPE:WALL-OUTER
G1 F900 X91.792 Y132.42 E76.12442
G1 X91.45 Y132.384 E76.13701
G1 X91.226 Y132.337 E76.14538
G1 X91.104 Y132.3 E76.15004
G1 X90.997 Y132.242 E76.1545
G1 X90.973 Y132.218 E76.15574
G1 X90.97 Y130.287 E76.22639
G1 X90.996 Y130.26 E76.22776
G1 X91.128 Y130.191 E76.23321
G1 X91.313 Y130.142 E76.24021
G1 X91.444 Y130.118 E76.24508
G1 X91.791 Y130.081 E76.25785
G1 X92.131 Y130.071 E76.27029
G1 X129.513 Y130.072 E77.63796
G1 X129.621 Y130.059 E77.64194
G1 X129.704 Y130.034 E77.64511
G1 X129.782 Y129.997 E77.64827
G1 X129.849 Y129.951 E77.65124
G1 X129.91 Y129.898 E77.6542
G1 X129.964 Y129.832 E77.65732
G1 X130.008 Y129.76 E77.6604
G1 X130.04 Y129.685 E77.66339
G1 X130.064 Y129.602 E77.66655
G1 X130.071 Y129.509 E77.66996
G1 X130.074 Y92.043 E79.0407
G1 X130.08 Y91.792 E79.04988
G1 X130.116 Y91.45 E79.06246
G1 X130.162 Y91.23 E79.07069
G1 X130.2 Y91.104 E79.0755
G1 X130.258 Y90.997 E79.07996
G1 X130.282 Y90.973 E79.0812
G1 X132.213 Y90.97 E79.15185
G1 X132.24 Y90.996 E79.15322
G1 X132.288 Y91.084 E79.15688
G1 X132.309 Y91.128 E79.15867
G1 X132.358 Y91.313 E79.16567
G1 X132.382 Y91.443 E79.17051
G1 X132.419 Y91.791 E79.18331
G1 X132.429 Y92.125 E79.19554
G1 X132.423 Y131.367 E80.63125
G1 X132.396 Y131.521 E80.63697
G1 X132.35 Y131.674 E80.64281
G1 X132.281 Y131.82 E80.64872
G1 X132.202 Y131.944 E80.6541
G1 X132.171 Y131.978 E80.65578
G1 X132.098 Y132.068 E80.66002
G1 X131.981 Y132.174 E80.6658
G1 X131.851 Y132.264 E80.67159
G1 X131.814 Y132.281 E80.67308
G1 X131.713 Y132.334 E80.67725
G1 X131.672 Y132.346 E80.67881
G1 X131.562 Y132.386 E80.68309
G1 X131.4 Y132.419 E80.68914
G1 X131.249 Y132.429 E80.69468
G1 X92.043 Y132.426 E82.12908
G0 F6000 X92.094 Y131.296
;TYPE:SKIN
G1 F900 X92.354 Y131.245 E82.13375
G1 X100.444 Y131.246 E82.2766
G1 X109.468 Y131.247 E82.43595
G1 X119.736 Y131.248 E82.61726
G1 X129.692 Y131.248 E82.79306
G1 X130.235 Y131.168 E82.80275
G0 F6000 X131.173 Y130.24
G1 F900 X131.224 Y129.979 E82.80743
G1 X131.244 Y125.955 E82.87825
G1 X131.246 Y116.934 E83.03701
G1 X131.247 Y107.602 E83.20124
G1 X131.248 Y99.514 E83.34358
G1 X131.25 Y92.359 E83.4695
G0 F6000 X131.244 Y92.042
G1 F900 X131.357 Y92.155 E83.47243
G1 F2700 E78.47243
G1 F600 Z0.4
;MESH:NONMESH
G0 F6000 X90.341 Y90.123 Z0.4
;TIME_ELAPSED:179.323448
;LAYER:1
M140 S80
M106 S42.5
G0 F7500 X90.341 Y90.123 Z0.52
;TYPE:SUPPORT
G1 F600 Z0.32
G1 F2700 E83.47243
G1 F1200 X90.662 Y89.821 E83.4821
G1 X91.049 Y89.509 E83.49301
G1 X91.391 Y89.254 E83.50238
G1 X91.835 Y88.965 E83.51401
G1 X92.171 Y88.769 E83.52255
G1 X92.577 Y88.567 E83.5325
G1 X93.027 Y88.367 E83.54331
G1 X93.508 Y88.19 E83.55456
G1 X93.975 Y88.041 E83.56532
G1 X94.411 Y87.932 E83.57519
