;FLAVOR:Marlin
;TIME:1486
;Filament used: 0.936546m
;Layer height: 0.15
;Generated with Cura_SteamEngine 3.6.0
M140 S90
M105
M190 S90
M104 S250
M105
M109 S250
M82 ;absolute extrusion mode
; Ender 3 Custom Start G-code
G28 ; Home all axes
G92 E0 ; Reset Extruder
G1 Z2.0 F3000 ; Move Z Axis up little to prevent scratching of Heat Bed
G1 X0.1 Y20 Z0.3 F5000.0 ; Move to start position
G1 X0.1 Y200.0 Z0.3 F1500.0 E15 ; Draw the first line
G1 X0.4 Y200.0 Z0.3 F5000.0 ; Move to side a little
G1 X0.4 Y20 Z0.3 F1500.0 E30 ; Draw the second line
G92 E0 ; Reset Extruder
G1 Z2.0 F3000 ; Move Z Axis up little to prevent scratching of Heat Bed
; End of custom start GCode
G92 E0
G1 F2400 E-6
;LAYER_COUNT:109
;LAYER:0
M107
M204 S5000
M205 X30 Y30
G0 F1800 X103.628 Y100.805 Z0.2
M204 S500
M205 X20 Y20
;TYPE:SKIRT
G1 F2400 E0
G1 F900 X104.163 Y100.302 E0.03053
G1 X104.75 Y99.86 E0.06108
G1 X105.381 Y99.485 E0.0916
G1 X106.05 Y99.18 E0.12216
G1 X106.747 Y98.95 E0.15268
G1 X107.466 Y98.797 E0.18324
G1 X108.511 Y98.716 E0.22682
G1 X126.491 Y98.718 E0.97434
G1 X127.224 Y98.758 E1.00486
G1 X127.949 Y98.878 E1.03541
G1 X128.657 Y99.075 E1.06596
G1 X129.338 Y99.348 E1.09647
G1 X129.986 Y99.694 E1.12701
G1 X130.593 Y100.108 E1.15755
G1 X131.151 Y100.586 E1.1881
G1 X131.654 Y101.121 E1.21863
G1 X132.096 Y101.708 E1.24918
G1 X132.471 Y102.34 E1.27973
G1 X132.776 Y103.008 E1.31026
G1 X133.006 Y103.706 E1.34082
G1 X133.159 Y104.424 E1.37134
G1 X133.24 Y105.468 E1.41487
G1 X133.241 Y129.533 E2.41538
G1 X133.201 Y130.266 E2.4459
G1 X133.082 Y130.991 E2.47645
G1 X132.884 Y131.699 E2.50701
G1 X132.611 Y132.38 E2.53751
G1 X132.265 Y133.029 E2.56809
G1 X131.851 Y133.635 E2.5986
G1 X131.374 Y134.194 E2.62916
G1 X130.838 Y134.697 E2.65972
G1 X130.252 Y135.138 E2.69021
G1 X129.62 Y135.514 E2.72078
G1 X128.952 Y135.818 E2.75129
G1 X128.254 Y136.049 E2.78186
G1 X127.536 Y136.202 E2.81238
G1 X126.483 Y136.283 E2.85629
G1 X108.501 Y136.261 E3.6039
G1 X107.767 Y136.22 E3.63446
G1 X107.043 Y136.1 E3.66497
G1 X106.335 Y135.901 E3.69555
G1 X105.654 Y135.627 E3.72606
G1 X105.006 Y135.281 E3.75661
G1 X104.4 Y134.866 E3.78714
G1 X103.842 Y134.388 E3.81769
G1 X103.34 Y133.852 E3.84822
G1 X102.899 Y133.265 E3.87874
G1 X102.524 Y132.633 E3.9093
G1 X102.22 Y131.964 E3.93985
G1 X101.991 Y131.266 E3.97039
G1 X101.839 Y130.547 E4.00094
G1 X101.759 Y129.511 E4.04414
G1 X101.76 Y105.466 E5.04382
G1 X101.8 Y104.732 E5.07438
G1 X101.919 Y104.007 E5.10492
G1 X102.117 Y103.3 E5.13545
G1 X102.39 Y102.618 E5.16599
G1 X102.736 Y101.97 E5.19653
G1 X103.15 Y101.363 E5.22708
G1 X103.628 Y100.805 E5.25763
M204 S5000
M205 X30 Y30
G0 F1800 X104.12 Y101.017
M204 S500
M205 X20 Y20
G1 F900 X104.651 Y100.55 E5.28702
G1 X105.231 Y100.146 E5.31641
G1 X105.852 Y99.809 E5.34579
G1 X106.508 Y99.545 E5.37519
G1 X107.189 Y99.357 E5.40456
G1 X107.887 Y99.247 E5.43393
G1 X108.511 Y99.216 E5.45991
G1 X126.491 Y99.218 E6.20743
G1 X127.196 Y99.258 E6.23679
G1 X127.893 Y99.378 E6.26619
G1 X128.572 Y99.575 E6.29559
G1 X129.224 Y99.848 E6.32497
G1 X129.841 Y100.192 E6.35434
G1 X130.415 Y100.604 E6.38372
G1 X130.939 Y101.079 E6.41312
G1 X131.406 Y101.609 E6.44249
G1 X131.811 Y102.189 E6.4719
G1 X132.147 Y102.811 E6.50129
G1 X132.411 Y103.466 E6.53065
G1 X132.599 Y104.148 E6.56007
G1 X132.709 Y104.846 E6.58944
G1 X132.74 Y105.468 E6.61533
G1 X132.741 Y129.533 E7.61584
G1 X132.701 Y130.238 E7.6452
G1 X132.582 Y130.935 E7.6746
G1 X132.384 Y131.614 E7.704
G1 X132.112 Y132.266 E7.73337
G1 X131.767 Y132.883 E7.76276
G1 X131.355 Y133.457 E7.79214
G1 X130.881 Y133.982 E7.82154
G1 X130.351 Y134.449 E7.85091
G1 X129.771 Y134.853 E7.8803
G1 X129.149 Y135.19 E7.90971
G1 X128.494 Y135.453 E7.93906
G1 X127.812 Y135.642 E7.96848
G1 X127.114 Y135.752 E7.99786
G1 X126.483 Y135.783 E8.02412
G1 X108.501 Y135.761 E8.77173
G1 X107.796 Y135.72 E8.80109
G1 X107.099 Y135.6 E8.83049
G1 X106.421 Y135.402 E8.85986
G1 X105.769 Y135.128 E8.88926
G1 X105.152 Y134.783 E8.91865
G1 X104.578 Y134.37 E8.94805
G1 X104.055 Y133.895 E8.97742
G1 X103.588 Y133.364 E9.00682
G1 X103.185 Y132.784 E9.03619
G1 X102.849 Y132.162 E9.06558
G1 X102.586 Y131.506 E9.09496
G1 X102.399 Y130.825 E9.12432
G1 X102.289 Y130.126 E9.15374
G1 X102.259 Y129.511 E9.17934
G1 X102.26 Y105.466 E10.17901
G1 X102.3 Y104.76 E10.20841
G1 X102.419 Y104.063 E10.23781
G1 X102.617 Y103.385 E10.26718
G1 X102.889 Y102.733 E10.29655
G1 X103.234 Y102.115 E10.32597
G1 X103.646 Y101.541 E10.35535
G1 X104.12 Y101.017 E10.38472
M204 S5000
M205 X30 Y30
G0 F1800 X104.141 Y101.727
M204 S500
M205 X20 Y20
G1 F900 X104.612 Y101.239 E10.41292
G1 X105.136 Y100.81 E10.44108
G1 X105.708 Y100.445 E10.46929
G1 X106.318 Y100.15 E10.49746
G1 X106.959 Y99.929 E10.52565
G1 X107.622 Y99.785 E10.55385
G1 X108.511 Y99.716 E10.59093
G1 X126.491 Y99.718 E11.33845
G1 X127.167 Y99.758 E11.3666
G1 X127.835 Y99.877 E11.39481
G1 X128.483 Y100.075 E11.42298
G1 X129.104 Y100.347 E11.45117
G1 X129.689 Y100.69 E11.47936
G1 X130.229 Y101.1 E11.50755
G1 X130.717 Y101.57 E11.53572
G1 X131.147 Y102.095 E11.56393
G1 X131.511 Y102.666 E11.59208
G1 X131.806 Y103.277 E11.62029
G1 X132.027 Y103.918 E11.64848
G1 X132.171 Y104.58 E11.67665
G1 X132.24 Y105.468 E11.71368
G1 X132.241 Y129.533 E12.71418
G1 X132.201 Y130.21 E12.74238
G1 X132.082 Y130.877 E12.77055
G1 X131.885 Y131.526 E12.79875
G1 X131.613 Y132.147 E12.82693
G1 X131.27 Y132.731 E12.85509
G1 X130.86 Y133.271 E12.88328
G1 X130.39 Y133.76 E12.91148
G1 X129.865 Y134.189 E12.93966
G1 X129.294 Y134.554 E12.96784
G1 X128.683 Y134.849 E12.99605
G1 X128.042 Y135.07 E13.02424
G1 X127.38 Y135.214 E13.0524
G1 X126.484 Y135.283 E13.08976
G1 X108.502 Y135.261 E13.83737
G1 X107.825 Y135.22 E13.86557
G1 X107.158 Y135.1 E13.89374
G1 X106.51 Y134.902 E13.92191
G1 X105.889 Y134.629 E13.95012
G1 X105.305 Y134.285 E13.9783
G1 X104.765 Y133.875 E14.00648
G1 X104.277 Y133.404 E14.03468
G1 X103.849 Y132.879 E14.06284
G1 X103.485 Y132.307 E14.09103
G1 X103.19 Y131.696 E14.11924
G1 X102.97 Y131.055 E14.14741
G1 X102.827 Y130.393 E14.17557
G1 X102.759 Y129.511 E14.21235
G1 X102.76 Y105.466 E15.21202
G1 X102.8 Y104.789 E15.24022
G1 X102.919 Y104.122 E15.26839
G1 X103.116 Y103.473 E15.29659
G1 X103.389 Y102.852 E15.32479
G1 X103.732 Y102.267 E15.35298
G1 X104.141 Y101.727 E15.38115
M204 S5000
M205 X30 Y30
G0 F1800 X104.636 Y101.923
M204 S500
M205 X20 Y20
G1 F900 X105.102 Y101.473 E15.40808
G1 X105.619 Y101.083 E15.435
G1 X106.181 Y100.761 E15.46193
G1 X106.778 Y100.51 E15.48886
G1 X107.402 Y100.334 E15.51581
G1 X108.042 Y100.237 E15.54272
G1 X108.511 Y100.216 E15.56224
G1 X126.491 Y100.218 E16.30976
G1 X127.137 Y100.258 E16.33667
G1 X127.774 Y100.377 E16.36361
G1 X128.391 Y100.574 E16.39054
G1 X128.979 Y100.846 E16.41748
G1 X129.529 Y101.187 E16.44438
G1 X130.033 Y101.594 E16.47132
G1 X130.484 Y102.06 E16.49828
G1 X130.873 Y102.578 E16.52521
G1 X131.195 Y103.14 E16.55214
G1 X131.446 Y103.737 E16.57906
G1 X131.622 Y104.36 E16.60598
G1 X131.719 Y105.001 E16.63293
G1 X131.74 Y105.468 E16.65237
G1 X131.741 Y129.533 E17.65287
G1 X131.701 Y130.179 E17.67978
G1 X131.582 Y130.816 E17.70672
G1 X131.385 Y131.433 E17.73365
G1 X131.114 Y132.021 E17.76057
G1 X130.772 Y132.572 E17.78753
G1 X130.365 Y133.076 E17.81446
G1 X129.9 Y133.526 E17.84137
G1 X129.382 Y133.915 E17.8683
G1 X128.82 Y134.238 E17.89525
G1 X128.223 Y134.489 E17.92217
G1 X127.6 Y134.665 E17.94909
G1 X126.959 Y134.762 E17.97604
G1 X126.485 Y134.783 E17.99577
G1 X108.503 Y134.761 E18.74337
G1 X107.856 Y134.72 E18.77033
G1 X107.22 Y134.6 E18.79723
G1 X106.603 Y134.403 E18.82416
G1 X106.015 Y134.131 E18.8511
G1 X105.465 Y133.788 E18.87804
G1 X104.961 Y133.381 E18.90498
G1 X104.512 Y132.915 E18.93188
G1 X104.123 Y132.396 E18.95885
G1 X103.801 Y131.834 E18.98578
G1 X103.551 Y131.237 E19.01268
G1 X103.376 Y130.613 E19.03963
G1 X103.279 Y129.973 E19.06654
G1 X103.259 Y129.511 E19.08577
G1 X103.26 Y105.466 E20.08544
G1 X103.3 Y104.819 E20.11239
G1 X103.419 Y104.183 E20.13929
G1 X103.616 Y103.565 E20.16626
G1 X103.887 Y102.977 E20.19318
G1 X104.229 Y102.427 E20.2201
G1 X104.636 Y101.923 E20.24704
M204 S5000
M205 X30 Y30
G1 F2400 E14.24704
;MESH:e9067568-f14c-4a8f-b552-33027f8b0736.stl
G0 F1800 X107.835 Y106.221
G0 X109.264 Y106.221
G0 X115.368 Y106.307
G0 X115.368 Y106.207
M204 S500
M205 X20 Y20
;TYPE:WALL-INNER
G1 F2400 E20.24704
G1 F900 X115.713 Y106.207 E20.26138
G1 X116.095 Y106.207 E20.27726
G1 X116.318 Y106.207 E20.28653
G1 X116.704 Y106.207 E20.30258
G1 X117.101 Y106.207 E20.31909
G1 X117.499 Y106.207 E20.33563
G1 X117.9 Y106.207 E20.35231
G1 X118.298 Y106.207 E20.36885
G1 X118.709 Y106.207 E20.38594
G1 X119.096 Y106.207 E20.40203
G1 X119.478 Y106.207 E20.41791
G1 X119.622 Y106.207 E20.4239
G1 X125.75 Y106.208 E20.67867
G1 X125.75 Y128.792 E21.6176
G1 X119.634 Y128.792 E21.87188
G1 X119.278 Y128.792 E21.88668
G1 X118.894 Y128.792 E21.90264
G1 X118.504 Y128.792 E21.91886
G1 X118.106 Y128.792 E21.9354
G1 X117.714 Y128.792 E21.9517
G1 X117.482 Y128.792 E21.96135
G1 X117.092 Y128.792 E21.97756
G1 X116.695 Y128.792 E21.99407
G1 X116.302 Y128.792 E22.01041
G1 X115.913 Y128.792 E22.02658
G1 X115.53 Y128.792 E22.0425
G1 X115.375 Y128.792 E22.04895
G1 X109.25 Y128.791 E22.30359
G1 X109.25 Y106.207 E23.24253
G1 X115.368 Y106.207 E23.49688
M204 S5000
M205 X30 Y30
G0 F1800 X115.368 Y106.307
G0 X113.413 Y108.059
G0 X112.543 Y109.122
G0 X111.753 Y110.526
G0 X111.294 Y111.698
G0 X110.883 Y113.397
G0 X110.714 Y115.191
G0 X110.754 Y120.578
G0 X111.031 Y122.352
G0 X111.531 Y123.959
G0 X112.182 Y125.305
G0 X113.103 Y126.604
G0 X113.897 Y127.395
G0 X114.935 Y128.115
G0 X115.901 Y128.54
G0 X117.089 Y128.779
G0 X118.524 Y128.753
G0 X118.504 Y128.656
M204 S500
M205 X20 Y20
G1 F900 X118.894 Y128.558 E23.50331
G1 X119.278 Y128.434 E23.51348
G1 X119.607 Y128.298 E23.52622
G1 X119.656 Y128.277 E23.52844
G1 X120.018 Y128.096 E23.54527
G1 X120.223 Y127.979 E23.55508
G1 X120.571 Y127.755 E23.57229
G1 X120.913 Y127.501 E23.59
G1 X121.239 Y127.221 E23.60787
G1 X121.552 Y126.921 E23.62589
G1 X121.845 Y126.602 E23.6439
G1 X122.008 Y126.411 E23.65434
G1 X122.279 Y126.06 E23.67277
G1 X122.533 Y125.689 E23.69147
G1 X122.787 Y125.279 E23.71152
G1 X122.914 Y125.053 E23.7223
G1 X123.124 Y124.647 E23.7413
G1 X123.413 Y123.991 E23.7711
G1 X123.665 Y123.298 E23.80176
G1 X123.789 Y122.886 E23.81965
G1 X123.927 Y122.353 E23.84254
G1 X123.988 Y122.081 E23.85413
G1 X124.081 Y121.589 E23.87495
G1 X124.153 Y121.086 E23.89607
G1 X124.204 Y120.581 E23.91717
G1 X124.238 Y120.073 E23.93834
G1 X124.249 Y119.563 E23.95955
G1 X124.242 Y119.053 E23.98075
G1 X124.214 Y118.539 E24.00216
G1 X124.162 Y118.025 E24.02363
G1 X124.085 Y117.5 E24.04569
G1 X124.155 Y117.021 E24.06582
G1 X124.21 Y116.486 E24.08818
G1 X124.24 Y115.966 E24.10984
G1 X124.25 Y115.45 E24.13129
G1 X124.24 Y114.939 E24.15254
G1 X124.207 Y114.425 E24.17395
G1 X124.119 Y113.654 E24.20622
G1 X124.034 Y113.153 E24.22734
G1 X123.932 Y112.663 E24.24815
G1 X123.825 Y112.238 E24.26637
G1 X123.646 Y111.648 E24.29201
G1 X123.411 Y111.003 E24.32055
G1 X123.223 Y110.565 E24.34036
G1 X123.024 Y110.154 E24.35935
G1 X122.781 Y109.709 E24.38043
G1 X122.413 Y109.127 E24.40906
G1 X122.151 Y108.769 E24.4275
G1 X121.999 Y108.577 E24.43768
G1 X121.711 Y108.247 E24.45589
G1 X121.407 Y107.932 E24.47409
G1 X121.09 Y107.645 E24.49187
G1 X120.901 Y107.49 E24.50203
G1 X120.563 Y107.24 E24.51951
G1 X120.212 Y107.014 E24.53687
G1 X119.85 Y106.815 E24.55404
G1 X119.608 Y106.704 E24.56511
G1 X119.478 Y106.644 E24.5707
G1 X119.096 Y106.503 E24.58332
G1 X118.709 Y106.391 E24.59159
G1 X118.298 Y106.306 E24.59671
G1 X117.9 Y106.259 E24.59928
G1 X117.499 Y106.243 E24.60075
G1 X117.101 Y106.26 E24.60222
G1 X116.704 Y106.307 E24.60482
G1 X116.318 Y106.386 E24.60957
G1 X116.095 Y106.444 E24.61369
G1 X115.713 Y106.568 E24.62392
G1 X115.395 Y106.701 E24.63629
G1 X115.334 Y106.727 E24.63905
G1 X114.967 Y106.912 E24.65613
G1 X114.61 Y107.126 E24.67344
G1 X114.265 Y107.364 E24.69086
G1 X113.938 Y107.624 E24.70823
G1 X113.752 Y107.784 E24.71843
G1 X113.441 Y108.086 E24.73646
G1 X113.14 Y108.413 E24.75493
G1 X112.723 Y108.937 E24.78277
G1 X112.576 Y109.144 E24.79333
G1 X112.336 Y109.514 E24.81167
G1 X112.208 Y109.73 E24.8221
G1 X111.988 Y110.13 E24.84108
G1 X111.789 Y110.542 E24.86011
G1 X111.584 Y111.014 E24.8815
G1 X111.48 Y111.286 E24.89361
G1 X111.332 Y111.71 E24.91228
G1 X111.129 Y112.416 E24.94282
G1 X111.015 Y112.908 E24.96382
G1 X110.922 Y113.403 E24.98476
G1 X110.849 Y113.899 E25.0056
G1 X110.816 Y114.177 E25.01724
G1 X110.775 Y114.682 E25.0383
G1 X110.753 Y115.191 E25.05948
G1 X110.752 Y115.706 E25.0809
G1 X110.772 Y116.223 E25.10241
G1 X110.813 Y116.748 E25.1243
G1 X110.914 Y117.503 E25.15597
G1 X110.845 Y117.979 E25.17597
G1 X110.79 Y118.514 E25.19833
G1 X110.76 Y119.034 E25.21998
G1 X110.75 Y119.55 E25.24144
G1 X110.76 Y120.061 E25.26269
G1 X110.793 Y120.575 E25.2841
G1 X110.881 Y121.346 E25.31636
G1 X110.966 Y121.847 E25.33749
G1 X111.069 Y122.343 E25.35855
G1 X111.262 Y123.064 E25.38958
G1 X111.413 Y123.525 E25.40975
G1 X111.568 Y123.945 E25.42836
G1 X111.778 Y124.439 E25.45068
G1 X111.894 Y124.68 E25.4618
G1 X112.216 Y125.286 E25.49033
G1 X112.455 Y125.674 E25.50928
G1 X112.592 Y125.879 E25.51953
G1 X112.852 Y126.236 E25.53789
G1 X113.133 Y126.579 E25.55632
G1 X113.299 Y126.765 E25.56669
G1 X113.601 Y127.075 E25.58468
G1 X113.922 Y127.365 E25.60267
G1 X114.256 Y127.632 E25.62044
G1 X114.602 Y127.871 E25.63793
G1 X114.954 Y128.081 E25.65497
G1 X115.163 Y128.191 E25.66479
G1 X115.39 Y128.296 E25.67519
G1 X115.53 Y128.36 E25.68116
G1 X115.913 Y128.502 E25.69363
G1 X116.302 Y128.612 E25.70179
G1 X116.695 Y128.692 E25.70663
G1 X117.092 Y128.74 E25.70921
G1 X117.482 Y128.756 E25.71064
G1 X117.714 Y128.753 E25.71137
G1 X118.106 Y128.72 E25.71322
G1 X118.504 Y128.656 E25.71684
M204 S5000
M205 X30 Y30
G0 F1800 X118.403 Y128.166
M204 S500
M205 X20 Y20
;TYPE:WALL-OUTER
G1 F900 X118.756 Y128.077 E25.73197
G1 X119.105 Y127.964 E25.74722
G1 X119.448 Y127.822 E25.76266
G1 X119.782 Y127.655 E25.77818
G1 X119.964 Y127.551 E25.7869
G1 X120.286 Y127.344 E25.80281
G1 X120.601 Y127.11 E25.81913
G1 X120.903 Y126.851 E25.83567
G1 X121.194 Y126.571 E25.85246
G1 X121.471 Y126.27 E25.86946
G1 X121.62 Y126.096 E25.87899
G1 X121.874 Y125.766 E25.8963
G1 X122.114 Y125.416 E25.91394
G1 X122.356 Y125.025 E25.93306
G1 X122.474 Y124.815 E25.94308
G1 X122.673 Y124.431 E25.96106
G1 X122.949 Y123.805 E25.9895
G1 X123.19 Y123.141 E26.01887
G1 X123.307 Y122.751 E26.0358
G1 X123.441 Y122.236 E26.05792
G1 X123.498 Y121.98 E26.06882
G1 X123.588 Y121.507 E26.08884
G1 X123.657 Y121.025 E26.10909
G1 X123.706 Y120.54 E26.12935
G1 X123.738 Y120.051 E26.14973
G1 X123.749 Y119.561 E26.1701
G1 X123.742 Y119.07 E26.19052
G1 X123.715 Y118.578 E26.211
G1 X123.666 Y118.087 E26.23152
G1 X123.579 Y117.5 E26.25619
G1 X123.659 Y116.959 E26.27893
G1 X123.711 Y116.446 E26.30036
G1 X123.74 Y115.946 E26.32119
G1 X123.75 Y115.45 E26.34181
G1 X123.74 Y114.96 E26.36219
G1 X123.709 Y114.469 E26.38264
G1 X123.624 Y113.724 E26.41382
G1 X123.543 Y113.246 E26.43397
G1 X123.445 Y112.775 E26.45397
G1 X123.343 Y112.372 E26.47126
G1 X123.172 Y111.806 E26.49584
G1 X122.946 Y111.188 E26.5232
G1 X122.768 Y110.773 E26.54197
G1 X122.579 Y110.383 E26.55999
G1 X122.35 Y109.962 E26.57991
G1 X122 Y109.409 E26.60712
G1 X121.753 Y109.072 E26.62449
G1 X121.614 Y108.896 E26.63382
G1 X121.343 Y108.585 E26.65097
G1 X121.059 Y108.292 E26.66793
G1 X120.763 Y108.024 E26.68453
G1 X120.593 Y107.884 E26.69369
G1 X120.279 Y107.652 E26.70992
G1 X119.956 Y107.444 E26.72589
G1 X119.625 Y107.262 E26.7416
G1 X119.286 Y107.106 E26.75711
G1 X118.94 Y106.978 E26.77245
G1 X118.589 Y106.877 E26.78764
G1 X118.218 Y106.8 E26.80339
G1 X117.86 Y106.758 E26.81837
G1 X117.5 Y106.743 E26.83335
G1 X117.141 Y106.759 E26.84829
G1 X116.783 Y106.801 E26.86328
G1 X116.431 Y106.873 E26.87822
G1 X116.235 Y106.924 E26.88664
G1 X115.887 Y107.037 E26.90185
G1 X115.543 Y107.181 E26.91735
G1 X115.208 Y107.35 E26.93295
G1 X114.881 Y107.546 E26.9488
G1 X114.563 Y107.766 E26.96488
G1 X114.256 Y108.01 E26.98118
G1 X114.089 Y108.153 E26.99033
