;FLAVOR:Marlin
;TIME:2979
;Filament used: 1.23178m
;Layer height: 0.08
;MINX:14.117
;MINY:14.117
;MINZ:0.08
;MAXX:220.883
;MAXY:220.883
;MAXZ:0.96
;Generated with Cura_SteamEngine 4.1.0
M140 S60
M105
M190 S60
M104 S200
M105
M109 S200
M82 ;absolute extrusion mode
; Ender 3 Custom Start G-code
G28 ; Home all axes
G92 E0 ; Reset Extruder
G1 Z2.0 F3000 ; Move Z Axis up little to prevent scratching of Heat Bed
G1 X0.1 Y20 Z0.3 F5000.0 ; Move to start position
G1 X0.1 Y200.0 Z0.3 F1500.0 E15 ; Draw the first line
G1 X0.4 Y200.0 Z0.3 F5000.0 ; Move to side a little
G1 X0.4 Y20 Z0.3 F1500.0 E30 ; Draw the second line
G92 E0 ; Reset Extruder
G1 Z2.0 F3000 ; Move Z Axis up little to prevent scratching of Heat Bed
; End of custom start GCode
G92 E0
G92 E0
G1 F2400 E-5
;LAYER_COUNT:12
;LAYER:0
M107
M204 S500
M205 X10 Y10
G0 F3600 X20.25 Y20.218 Z0.08
;TYPE:SKIRT
G1 F2400 E0
G1 F1800 X20.661 Y19.814 E0.00767
G1 X20.944 Y19.551 E0.01281
G1 X21.47 Y19.093 E0.02209
G1 X21.607 Y18.977 E0.02447
G1 X22.041 Y18.62 E0.03195
G1 X22.342 Y18.387 E0.03701
G1 X22.907 Y17.976 E0.04631
G1 X23.051 Y17.875 E0.04865
G1 X23.548 Y17.534 E0.05667
G1 X23.868 Y17.328 E0.06173
G1 X24.431 Y16.989 E0.07048
G1 X24.582 Y16.901 E0.0728
G1 X25.079 Y16.62 E0.0804
G1 X25.411 Y16.445 E0.08539
G1 X26.039 Y16.137 E0.09469
G1 X26.218 Y16.052 E0.09733
G1 X26.724 Y15.823 E0.10472
G1 X27.048 Y15.687 E0.1094
G1 X27.713 Y15.429 E0.11888
G1 X27.9 Y15.36 E0.12154
G1 X28.419 Y15.177 E0.12886
G1 X28.772 Y15.064 E0.13379
G1 X29.43 Y14.874 E0.1429
G1 X29.608 Y14.825 E0.14536
G1 X30.163 Y14.682 E0.15298
G1 X30.522 Y14.601 E0.15788
G1 X31.237 Y14.46 E0.16757
G1 X31.421 Y14.426 E0.17006
G1 X31.948 Y14.338 E0.17717
G1 X32.31 Y14.289 E0.18203
G1 X32.99 Y14.215 E0.19113
G1 X33.185 Y14.196 E0.19374
G1 X33.763 Y14.151 E0.20145
G1 X34.123 Y14.133 E0.20625
G1 X34.824 Y14.118 E0.21558
G1 X35.016 Y14.117 E0.21813
G1 X35.597 Y14.122 E0.22586
G1 X35.962 Y14.136 E0.23072
G1 X36.585 Y14.177 E0.23903
G1 X36.77 Y14.192 E0.24149
G1 X37.37 Y14.249 E0.24951
G1 X37.73 Y14.293 E0.25434
G1 X38.451 Y14.403 E0.26404
G1 X38.647 Y14.436 E0.26669
G1 X39.173 Y14.533 E0.2738
G1 X39.535 Y14.611 E0.27873
G1 X40.229 Y14.781 E0.28823
G1 X40.412 Y14.828 E0.29075
G1 X40.94 Y14.974 E0.29804
G1 X41.297 Y15.085 E0.30301
G1 X41.952 Y15.308 E0.31222
G1 X42.12 Y15.367 E0.31458
G1 X42.674 Y15.573 E0.32245
G1 X43.018 Y15.713 E0.32739
G1 X43.612 Y15.974 E0.33602
G1 X43.777 Y16.049 E0.33843
G1 X44.309 Y16.301 E0.34626
G1 X44.648 Y16.474 E0.35133
G1 X45.264 Y16.812 E0.36067
G1 X45.437 Y16.911 E0.36333
G1 X45.932 Y17.203 E0.37097
G1 X46.228 Y17.388 E0.37562
G1 X46.788 Y17.761 E0.38457
G1 X46.943 Y17.868 E0.38707
G1 X47.411 Y18.2 E0.39471
G1 X47.705 Y18.422 E0.39961
G1 X48.254 Y18.861 E0.40896
G1 X48.411 Y18.99 E0.41166
G1 X48.84 Y19.356 E0.41917
G1 X49.105 Y19.595 E0.42391
G1 X49.588 Y20.056 E0.4328
G1 X49.72 Y20.186 E0.43526
G1 X50.917 Y21.396 E0.45791
G1 X52.85 Y23.295 E0.49396
G1 X54.786 Y25.094 E0.52912
G1 X56.77 Y26.835 E0.56423
G1 X58.825 Y28.538 E0.59974
G1 X60.895 Y30.157 E0.6347
G1 X63.032 Y31.732 E0.67002
G1 X65.206 Y33.242 E0.70524
G1 X67.416 Y34.687 E0.74037
G1 X69.676 Y36.074 E0.77564
G1 X71.96 Y37.389 E0.81071
G1 X74.323 Y38.662 E0.84642
G1 X76.665 Y39.839 E0.88129
G1 X79.065 Y40.96 E0.91653
G1 X81.491 Y42.013 E0.95171
G1 X83.957 Y43.002 E0.98706
G1 X86.443 Y43.913 E1.02229
G1 X88.962 Y44.76 E1.05764
G1 X91.476 Y45.527 E1.09261
G1 X94.025 Y46.226 E1.12778
G1 X96.616 Y46.859 E1.16326
G1 X99.197 Y47.413 E1.19838
G1 X101.778 Y47.888 E1.23329
G1 X104.427 Y48.301 E1.26896
G1 X107.041 Y48.633 E1.30402
G1 X109.679 Y48.893 E1.33928
G1 X112.279 Y49.074 E1.37396
G1 X114.989 Y49.187 E1.41004
G1 X117.597 Y49.221 E1.44474
G1 X120.238 Y49.181 E1.47988
G1 X122.885 Y49.065 E1.51513
G1 X125.544 Y48.875 E1.5506
G1 X128.16 Y48.612 E1.58558
G1 X130.799 Y48.272 E1.62098
G1 X133.415 Y47.859 E1.65621
G1 X136.007 Y47.375 E1.69129
G1 X138.59 Y46.815 E1.72646
G1 X141.185 Y46.176 E1.76201
G1 X143.722 Y45.476 E1.79702
G1 X146.234 Y44.704 E1.83199
G1 X148.764 Y43.848 E1.86752
G1 X151.264 Y42.923 E1.90298
G1 X153.685 Y41.948 E1.93771
G1 X156.116 Y40.887 E1.973
G1 X158.524 Y39.756 E2.00839
G1 X160.88 Y38.565 E2.04351
G1 X163.211 Y37.305 E2.07876
G1 X165.514 Y35.972 E2.11416
G1 X167.763 Y34.585 E2.14932
G1 X169.958 Y33.144 E2.18425
G1 X172.135 Y31.627 E2.21955
G1 X174.275 Y30.043 E2.25497
G1 X176.357 Y28.408 E2.29019
G1 X178.379 Y26.725 E2.32519
G1 X180.385 Y24.958 E2.36076
G1 X182.295 Y23.177 E2.3955
G1 X184.643 Y20.844 E2.43954
G1 X185.217 Y20.254 E2.45049
G1 X185.344 Y20.128 E2.45287
G1 X185.749 Y19.734 E2.46039
G1 X186.034 Y19.473 E2.46553
G1 X186.511 Y19.062 E2.4739
G1 X186.645 Y18.949 E2.47624
G1 X187.132 Y18.552 E2.4846
G1 X187.431 Y18.323 E2.48961
G1 X187.988 Y17.921 E2.49875
G1 X188.135 Y17.818 E2.50113
G1 X188.591 Y17.508 E2.50847
G1 X188.905 Y17.308 E2.51342
G1 X189.524 Y16.938 E2.52302
G1 X189.687 Y16.844 E2.52552
G1 X190.165 Y16.577 E2.5328
G1 X190.499 Y16.403 E2.53781
G1 X191.111 Y16.107 E2.54686
G1 X191.273 Y16.031 E2.54924
G1 X191.8 Y15.794 E2.55693
G1 X192.137 Y15.654 E2.56178
G1 X192.79 Y15.404 E2.57108
G1 X192.971 Y15.338 E2.57365
G1 X193.496 Y15.155 E2.58104
G1 X193.845 Y15.044 E2.58592
G1 X194.503 Y14.856 E2.59502
G1 X194.688 Y14.806 E2.59757
G1 X195.244 Y14.665 E2.6052
G1 X195.606 Y14.585 E2.61013
G1 X196.317 Y14.448 E2.61977
G1 X196.511 Y14.413 E2.62239
G1 X197.058 Y14.325 E2.62976
G1 X197.407 Y14.279 E2.63444
G1 X198.064 Y14.21 E2.64323
G1 X198.252 Y14.193 E2.64574
G1 X198.863 Y14.147 E2.6539
G1 X199.245 Y14.13 E2.65898
G1 X200.027 Y14.118 E2.66939
G1 X200.224 Y14.118 E2.67201
G1 X200.741 Y14.126 E2.67889
G1 X201.114 Y14.142 E2.68385
G1 X201.763 Y14.19 E2.69251
G1 X201.948 Y14.207 E2.69498
G1 X202.539 Y14.268 E2.70289
G1 X202.904 Y14.316 E2.70779
G1 X203.516 Y14.415 E2.71603
G1 X203.684 Y14.445 E2.71831
G1 X204.26 Y14.554 E2.7261
G1 X204.613 Y14.631 E2.73091
G1 X205.277 Y14.796 E2.74001
G1 X205.458 Y14.844 E2.7425
G1 X206.037 Y15.006 E2.7505
G1 X206.405 Y15.121 E2.75563
G1 X207.041 Y15.341 E2.76459
G1 X207.212 Y15.403 E2.76701
G1 X207.741 Y15.603 E2.77453
G1 X208.081 Y15.742 E2.77942
G1 X208.719 Y16.026 E2.78871
G1 X208.88 Y16.101 E2.79107
G1 X209.4 Y16.35 E2.79874
G1 X209.74 Y16.525 E2.80383
G1 X210.335 Y16.855 E2.81288
G1 X210.501 Y16.95 E2.81543
G1 X210.994 Y17.243 E2.82306
G1 X211.293 Y17.433 E2.82777
G1 X211.869 Y17.82 E2.837
G1 X212.03 Y17.931 E2.8396
G1 X212.486 Y18.258 E2.84707
G1 X212.776 Y18.479 E2.85192
G1 X213.326 Y18.923 E2.86132
G1 X213.474 Y19.046 E2.86388
G1 X213.904 Y19.415 E2.87142
G1 X214.175 Y19.661 E2.87629
G1 X214.657 Y20.125 E2.88519
G1 X214.782 Y20.25 E2.88754
G1 X215.186 Y20.661 E2.89521
G1 X215.449 Y20.944 E2.90035
G1 X215.907 Y21.47 E2.90963
G1 X216.022 Y21.606 E2.912
G1 X216.375 Y22.035 E2.91939
G1 X216.607 Y22.335 E2.92444
G1 X217.022 Y22.905 E2.93382
G1 X217.127 Y23.053 E2.93623
G1 X217.465 Y23.546 E2.94418
G1 X217.664 Y23.856 E2.94908
G1 X218.004 Y24.419 E2.95783
G1 X218.097 Y24.577 E2.96027
G1 X218.377 Y25.072 E2.96784
G1 X218.552 Y25.404 E2.97283
G1 X218.863 Y26.038 E2.98223
G1 X218.947 Y26.216 E2.98484
G1 X219.174 Y26.717 E2.99216
G1 X219.31 Y27.043 E2.99686
G1 X219.57 Y27.713 E3.00642
G1 X219.638 Y27.896 E3.00902
G1 X219.821 Y28.414 E3.01633
G1 X219.937 Y28.773 E3.02135
G1 X220.127 Y29.432 E3.03047
G1 X220.175 Y29.608 E3.0329
G1 X220.318 Y30.163 E3.04052
G1 X220.399 Y30.522 E3.04542
G1 X220.54 Y31.237 E3.05512
G1 X220.573 Y31.417 E3.05755
G1 X220.661 Y31.942 E3.06463
G1 X220.712 Y32.31 E3.06958
G1 X220.786 Y32.992 E3.0787
G1 X220.804 Y33.184 E3.08127
G1 X220.849 Y33.76 E3.08895
G1 X220.867 Y34.121 E3.09376
G1 X220.882 Y34.824 E3.10312
G1 X220.883 Y35.016 E3.10567
G1 X220.878 Y35.597 E3.1134
G1 X220.864 Y35.962 E3.11826
G1 X220.823 Y36.585 E3.12657
G1 X220.808 Y36.771 E3.12905
G1 X220.751 Y37.37 E3.13706
G1 X220.707 Y37.728 E3.14186
G1 X220.597 Y38.45 E3.15157
G1 X220.564 Y38.647 E3.15423
G1 X220.467 Y39.173 E3.16134
G1 X220.389 Y39.535 E3.16627
G1 X220.219 Y40.229 E3.17578
G1 X220.171 Y40.414 E3.17832
G1 X220.024 Y40.945 E3.18565
G1 X219.914 Y41.3 E3.19059
G1 X219.692 Y41.952 E3.19976
G1 X219.633 Y42.118 E3.2021
G1 X219.426 Y42.675 E3.21001
G1 X219.285 Y43.023 E3.215
G1 X219.025 Y43.614 E3.22359
G1 X218.951 Y43.777 E3.22597
G1 X218.699 Y44.309 E3.23381
G1 X218.526 Y44.648 E3.23887
G1 X218.188 Y45.264 E3.24822
G1 X218.091 Y45.433 E3.25081
G1 X217.8 Y45.927 E3.25844
G1 X217.611 Y46.229 E3.26318
G1 X217.237 Y46.79 E3.27215
G1 X217.132 Y46.943 E3.27462
G1 X216.8 Y47.411 E3.28225
G1 X216.578 Y47.705 E3.28715
G1 X216.139 Y48.254 E3.2965
G1 X216.01 Y48.411 E3.29921
G1 X215.644 Y48.84 E3.30671
G1 X215.405 Y49.105 E3.31146
G1 X214.944 Y49.588 E3.32034
G1 X214.814 Y49.72 E3.3228
G1 X213.604 Y50.917 E3.34545
G1 X211.705 Y52.85 E3.3815
G1 X209.906 Y54.786 E3.41666
G1 X208.149 Y56.788 E3.4521
G1 X206.49 Y58.79 E3.48669
G1 X204.816 Y60.929 E3.52282
G1 X203.292 Y62.998 E3.55701
G1 X201.752 Y65.216 E3.59293
G1 X200.308 Y67.424 E3.62803
G1 X198.926 Y69.676 E3.66319
G1 X197.595 Y71.987 E3.69867
G1 X196.359 Y74.283 E3.73336
G1 X195.155 Y76.678 E3.76902
G1 X194.04 Y79.065 E3.80407
G1 X192.987 Y81.491 E3.83926
G1 X191.998 Y83.957 E3.8746
G1 X191.087 Y86.443 E3.90983
G1 X190.24 Y88.962 E3.94519
G1 X189.473 Y91.476 E3.98015
G1 X188.774 Y94.025 E4.01532
G1 X188.141 Y96.616 E4.0508
G1 X187.587 Y99.197 E4.08592
G1 X187.112 Y101.778 E4.12084
G1 X186.699 Y104.427 E4.15651
G1 X186.367 Y107.041 E4.19156
G1 X186.107 Y109.679 E4.22683
G1 X185.926 Y112.279 E4.2615
G1 X185.813 Y114.989 E4.29759
G1 X185.779 Y117.597 E4.33229
G1 X185.819 Y120.218 E4.36716
G1 X185.935 Y122.885 E4.40268
G1 X186.125 Y125.544 E4.43814
G1 X186.388 Y128.16 E4.47312
G1 X186.728 Y130.799 E4.50852
G1 X187.141 Y133.415 E4.54376
G1 X187.625 Y136.007 E4.57884
G1 X188.185 Y138.59 E4.614
G1 X188.824 Y141.185 E4.64955
G1 X189.522 Y143.717 E4.6845
G1 X190.296 Y146.234 E4.71953
G1 X191.152 Y148.764 E4.75506
G1 X192.077 Y151.264 E4.79053
G1 X193.058 Y153.698 E4.82544
G1 X194.106 Y156.101 E4.86032
G1 X195.244 Y158.524 E4.89593
G1 X196.435 Y160.88 E4.93105
G1 X197.703 Y163.226 E4.96653
G1 X199.027 Y165.514 E5.0017
G1 X200.4 Y167.74 E5.0365
G1 X201.854 Y169.957 E5.07177
G1 X203.379 Y172.143 E5.10723
G1 X204.957 Y174.275 E5.14252
G1 X206.575 Y176.335 E5.17737
G1 X208.292 Y178.399 E5.21309
G1 X210.042 Y180.385 E5.2483
G1 X211.822 Y182.294 E5.28303
G1 X214.156 Y184.643 E5.32708
G1 X214.746 Y185.217 E5.33803
G1 X214.873 Y185.344 E5.34042
G1 X215.266 Y185.748 E5.34792
G1 X215.526 Y186.033 E5.35305
G1 X215.938 Y186.511 E5.36145
G1 X216.047 Y186.641 E5.36371
G1 X216.443 Y187.126 E5.37204
G1 X216.678 Y187.431 E5.37716
G1 X217.081 Y187.99 E5.38633
G1 X217.18 Y188.132 E5.38863
G1 X217.489 Y188.586 E5.39594
G1 X217.692 Y188.905 E5.40097
G1 X218.063 Y189.526 E5.41059
G1 X218.155 Y189.685 E5.41303
G1 X218.42 Y190.159 E5.42026
G1 X218.595 Y190.495 E5.4253
G1 X218.893 Y191.111 E5.4344
G1 X218.97 Y191.275 E5.43681
G1 X219.205 Y191.798 E5.44444
G1 X219.343 Y192.129 E5.44921
G1 X219.595 Y192.786 E5.45857
G1 X219.662 Y192.971 E5.46119
G1 X219.845 Y193.496 E5.46859
G1 X219.956 Y193.845 E5.47346
G1 X220.144 Y194.503 E5.48257
G1 X220.194 Y194.688 E5.48511
G1 X220.335 Y195.244 E5.49275
G1 X220.415 Y195.606 E5.49768
G1 X220.552 Y196.317 E5.50731
G1 X220.587 Y196.511 E5.50993
G1 X220.675 Y197.058 E5.5173
G1 X220.721 Y197.407 E5.52199
G1 X220.79 Y198.064 E5.53078
G1 X220.807 Y198.25 E5.53326
G1 X220.853 Y198.859 E5.54139
G1 X220.87 Y199.243 E5.5465
G1 X220.882 Y200.027 E5.55693
G1 X220.882 Y200.225 E5.55957
G1 X220.874 Y200.735 E5.56635
G1 X220.858 Y201.102 E5.57124
G1 X220.81 Y201.758 E5.57999
G1 X220.793 Y201.952 E5.58258
G1 X220.733 Y202.53 E5.59031
G1 X220.687 Y202.88 E5.59501
G1 X220.587 Y203.505 E5.60343
G1 X220.555 Y203.684 E5.60585
G1 X220.446 Y204.26 E5.61365
G1 X220.369 Y204.613 E5.61845
G1 X220.204 Y205.277 E5.62756
G1 X220.153 Y205.47 E5.63021
G1 X219.991 Y206.045 E5.63816
G1 X219.884 Y206.387 E5.64293
G1 X219.664 Y207.028 E5.65194
G1 X219.598 Y207.211 E5.65453
G1 X219.399 Y207.738 E5.66203
G1 X219.257 Y208.084 E5.667
G1 X218.972 Y208.723 E5.67631
G1 X218.899 Y208.88 E5.67861
G1 X218.65 Y209.4 E5.68629
G1 X218.475 Y209.74 E5.69137
G1 X218.145 Y210.335 E5.70042
G1 X218.05 Y210.501 E5.70297
G1 X217.757 Y210.994 E5.7106
G1 X217.567 Y211.293 E5.71531
G1 X217.18 Y211.869 E5.72454
G1 X217.069 Y212.03 E5.72715
G1 X216.742 Y212.486 E5.73461
G1 X216.521 Y212.776 E5.73946
G1 X216.077 Y213.326 E5.74887
G1 X215.948 Y213.48 E5.75154
G1 X215.578 Y213.91 E5.75909
G1 X215.347 Y214.165 E5.76366
G1 X214.885 Y214.647 E5.77255
G1 X214.74 Y214.793 E5.77528
G1 X214.328 Y215.196 E5.78295
G1 X214.061 Y215.443 E5.78779
G1 X213.535 Y215.902 E5.79708
G1 X213.394 Y216.022 E5.79954
G1 X212.965 Y216.375 E5.80693
G1 X212.665 Y216.607 E5.81198
G1 X212.095 Y217.022 E5.82136
G1 X211.944 Y217.128 E5.82381
G1 X211.449 Y217.467 E5.83179
G1 X211.143 Y217.665 E5.83664
G1 X210.582 Y218.004 E5.84536
G1 X210.423 Y218.097 E5.84781
G1 X209.928 Y218.377 E5.85538
G1 X209.596 Y218.552 E5.86037
G1 X208.962 Y218.863 E5.86977
G1 X208.784 Y218.947 E5.87239
G1 X208.283 Y219.174 E5.8797
G1 X207.956 Y219.311 E5.88442
G1 X207.288 Y219.57 E5.89395
G1 X207.105 Y219.638 E5.89655
G1 X206.584 Y219.822 E5.9039
G1 X206.228 Y219.936 E5.90887
G1 X205.57 Y220.126 E5.91799
G1 X205.392 Y220.175 E5.92044
G1 X204.837 Y220.318 E5.92807
G1 X204.478 Y220.399 E5.93296
G1 X203.763 Y220.54 E5.94266
G1 X203.579 Y220.574 E5.94515
G1 X203.052 Y220.662 E5.95226
G1 X202.69 Y220.711 E5.95712
G1 X202.01 Y220.785 E5.96622
G1 X201.815 Y220.804 E5.96882
G1 X201.237 Y220.849 E5.97654
G1 X200.877 Y220.867 E5.98133
G1 X200.176 Y220.882 E5.99066
G1 X199.984 Y220.883 E5.99321
G1 X199.403 Y220.878 E6.00094
G1 X199.038 Y220.864 E6.0058
G1 X198.415 Y220.823 E6.01411
G1 X198.23 Y220.808 E6.01658
G1 X197.63 Y220.751 E6.0246
G1 X197.27 Y220.707 E6.02942
G1 X196.549 Y220.597 E6.03913
G1 X196.353 Y220.564 E6.04177
G1 X195.827 Y220.467 E6.04889
G1 X195.465 Y220.389 E6.05381
G1 X194.771 Y220.219 E6.06332
G1 X194.586 Y220.171 E6.06586
G1 X194.055 Y220.024 E6.07319
G1 X193.7 Y219.914 E6.07814
G1 X193.048 Y219.692 E6.0873
G1 X192.886 Y219.635 E6.08958
G1 X192.325 Y219.427 E6.09754
G1 X191.966 Y219.281 E6.1027
G1 X191.379 Y219.022 E6.11124
G1 X191.223 Y218.951 E6.11352
G1 X190.691 Y218.699 E6.12135
G1 X190.352 Y218.526 E6.12641
G1 X189.736 Y218.188 E6.13576
G1 X189.565 Y218.09 E6.13838
G1 X189.068 Y217.797 E6.14606
G1 X188.768 Y217.609 E6.15077
G1 X188.21 Y217.237 E6.15969
G1 X188.055 Y217.13 E6.1622
G1 X187.586 Y216.797 E6.16985
G1 X187.295 Y216.578 E6.17469
G1 X186.747 Y216.14 E6.18403
G1 X186.587 Y216.008 E6.18679
G1 X186.156 Y215.64 E6.19433
G1 X185.894 Y215.403 E6.19903
G1 X185.413 Y214.944 E6.20787
G1 X185.28 Y214.814 E6.21035
G1 X184.083 Y213.604 E6.23299
G1 X182.15 Y211.705 E6.26904
G1 X180.214 Y209.906 E6.3042
G1 X178.212 Y208.149 E6.33964
G1 X176.21 Y206.49 E6.37423
G1 X174.071 Y204.816 E6.41037
G1 X171.985 Y203.28 E6.44483
G1 X169.794 Y201.758 E6.48032
G1 X167.584 Y200.313 E6.51545
G1 X165.324 Y198.926 E6.55073
G1 X163.04 Y197.611 E6.58579
G1 X160.677 Y196.338 E6.6215
G1 X158.335 Y195.161 E6.65637
G1 X155.935 Y194.04 E6.69161
G1 X153.509 Y192.987 E6.7268
G1 X151.043 Y191.998 E6.76215
G1 X148.557 Y191.087 E6.79737
G1 X146.038 Y190.24 E6.83273
G1 X143.524 Y189.473 E6.8677
G1 X140.975 Y188.774 E6.90286
G1 X138.384 Y188.141 E6.93834
G1 X135.803 Y187.587 E6.97346
G1 X133.222 Y187.112 E7.00838
G1 X130.573 Y186.699 E7.04405
G1 X127.959 Y186.367 E7.0791
G1 X125.321 Y186.107 E7.11437
G1 X122.721 Y185.926 E7.14904
G1 X120.011 Y185.813 E7.18513
G1 X117.403 Y185.779 E7.21983
G1 X114.762 Y185.819 E7.25497
G1 X112.115 Y185.935 E7.29022
G1 X109.456 Y186.125 E7.32568
G1 X106.84 Y186.388 E7.36066
G1 X104.201 Y186.728 E7.39606
G1 X101.585 Y187.141 E7.4313
G1 X98.993 Y187.625 E7.46638
G1 X96.41 Y188.185 E7.50154
G1 X93.815 Y188.824 E7.5371
G1 X91.283 Y189.522 E7.57204
G1 X88.766 Y190.296 E7.60707
G1 X86.236 Y191.152 E7.6426
G1 X83.736 Y192.077 E7.67807
G1 X81.315 Y193.052 E7.71279
G1 X78.884 Y194.113 E7.74808
G1 X76.476 Y195.244 E7.78347
