;FLAVOR:Marlin
;TIME:1711
;Filament used: 0.742199m
;Layer height: 0.08
;MINX:14.114
;MINY:14.114
;MINZ:0.12
;MAXX:220.886
;MAXY:220.886
;MAXZ:0.44
;Generated with Cura_SteamEngine 4.1.0
M140 S65
M105
M190 S65
M104 S205
M105
M109 S205
M82 ;absolute extrusion mode
; Ender 3 Custom Start G-code
G28 ; Home all axes
G92 E0 ; Reset Extruder
G1 Z2.0 F3000 ; Move Z Axis up little to prevent scratching of Heat Bed
G1 X0.1 Y20 Z0.3 F5000.0 ; Move to start position
G1 X0.1 Y200.0 Z0.3 F1500.0 E15 ; Draw the first line
G1 X0.4 Y200.0 Z0.3 F5000.0 ; Move to side a little
G1 X0.4 Y20 Z0.3 F1500.0 E30 ; Draw the second line
G92 E0 ; Reset Extruder
G1 Z2.0 F3000 ; Move Z Axis up little to prevent scratching of Heat Bed
; End of custom start GCode
G92 E0
G92 E0
G1 F2400 E-5
;LAYER_COUNT:5
;LAYER:0
M107
M204 S500
M205 X10 Y10
G0 F3600 X20.187 Y20.278 Z0.12
;TYPE:SKIRT
G1 F2400 E0
G1 F1800 X20.318 Y20.147 E0.0037
G1 X20.721 Y19.754 E0.01493
G1 X21.005 Y19.493 E0.02263
G1 X21.534 Y19.036 E0.03658
G1 X21.678 Y18.915 E0.04033
G1 X22.113 Y18.561 E0.05152
G1 X22.394 Y18.346 E0.05858
G1 X22.963 Y17.933 E0.07262
G1 X23.127 Y17.817 E0.07662
G1 X23.588 Y17.504 E0.08774
G1 X23.896 Y17.308 E0.09503
G1 X24.499 Y16.947 E0.10905
G1 X24.661 Y16.853 E0.11279
G1 X25.14 Y16.585 E0.12375
G1 X25.471 Y16.412 E0.1312
G1 X26.114 Y16.1 E0.14546
G1 X26.276 Y16.024 E0.14903
G1 X26.777 Y15.798 E0.16
G1 X27.117 Y15.657 E0.16735
G1 X27.787 Y15.4 E0.18167
G1 X27.972 Y15.332 E0.1856
G1 X28.491 Y15.151 E0.19657
G1 X28.841 Y15.04 E0.2039
G1 X29.489 Y14.855 E0.21734
G1 X29.669 Y14.806 E0.22107
G1 X30.247 Y14.659 E0.23297
G1 X30.606 Y14.579 E0.24031
G1 X31.287 Y14.447 E0.25415
G1 X31.468 Y14.415 E0.25782
G1 X31.998 Y14.328 E0.26854
G1 X32.371 Y14.278 E0.27605
G1 X33.09 Y14.203 E0.29048
G1 X33.274 Y14.186 E0.29416
G1 X33.846 Y14.143 E0.30561
G1 X34.219 Y14.126 E0.31306
G1 X34.877 Y14.115 E0.32619
G1 X35.061 Y14.114 E0.32987
G1 X35.645 Y14.121 E0.34152
G1 X36.014 Y14.137 E0.34889
G1 X36.715 Y14.186 E0.36292
G1 X36.902 Y14.201 E0.36666
G1 X37.465 Y14.257 E0.37795
G1 X37.83 Y14.304 E0.38529
G1 X38.527 Y14.414 E0.39938
G1 X38.708 Y14.446 E0.40304
G1 X39.252 Y14.548 E0.41409
G1 X39.619 Y14.627 E0.42158
G1 X40.274 Y14.79 E0.43505
G1 X40.454 Y14.838 E0.43877
G1 X41.011 Y14.994 E0.45031
G1 X41.362 Y15.103 E0.45765
G1 X42.015 Y15.327 E0.47142
G1 X42.198 Y15.393 E0.4753
G1 X42.757 Y15.604 E0.48723
G1 X43.094 Y15.742 E0.4945
G1 X43.7 Y16.011 E0.50773
G1 X43.858 Y16.084 E0.5112
G1 X44.357 Y16.322 E0.52223
G1 X44.703 Y16.5 E0.53
G1 X45.362 Y16.865 E0.54503
G1 X45.526 Y16.96 E0.54881
G1 X45.971 Y17.224 E0.55914
G1 X46.279 Y17.418 E0.5664
G1 X46.866 Y17.813 E0.58052
G1 X47.019 Y17.92 E0.58425
G1 X47.484 Y18.253 E0.59566
G1 X47.773 Y18.472 E0.6029
G1 X48.303 Y18.899 E0.61648
G1 X48.457 Y19.027 E0.62048
G1 X48.888 Y19.397 E0.63181
G1 X49.146 Y19.631 E0.63876
G1 X49.643 Y20.107 E0.6525
G1 X49.787 Y20.249 E0.65653
G1 X50.653 Y21.132 E0.68121
G1 X52.558 Y23.021 E0.73475
G1 X54.483 Y24.824 E0.78739
G1 X56.466 Y26.579 E0.84023
G1 X58.488 Y28.269 E0.89282
G1 X60.584 Y29.923 E0.9461
G1 X62.704 Y31.5 E0.99883
G1 X64.86 Y33.011 E1.05137
G1 X67.076 Y34.473 E1.10435
G1 X69.346 Y35.88 E1.15765
G1 X71.611 Y37.196 E1.20992
G1 X73.934 Y38.461 E1.26271
G1 X76.316 Y39.67 E1.31602
G1 X78.699 Y40.797 E1.36862
G1 X81.116 Y41.857 E1.42129
G1 X83.594 Y42.863 E1.47466
G1 X86.045 Y43.774 E1.52684
G1 X88.569 Y44.634 E1.58006
G1 X91.085 Y45.413 E1.63262
G1 X93.644 Y46.127 E1.68564
G1 X96.211 Y46.765 E1.73842
G1 X98.829 Y47.34 E1.79191
G1 X101.368 Y47.818 E1.84347
G1 X104.007 Y48.24 E1.8968
G1 X106.632 Y48.585 E1.94964
G1 X109.305 Y48.859 E2.00326
G1 X111.902 Y49.052 E2.05523
G1 X114.542 Y49.172 E2.10797
G1 X117.186 Y49.218 E2.16074
G1 X119.862 Y49.19 E2.21415
G1 X122.503 Y49.086 E2.26689
G1 X125.11 Y48.91 E2.31904
G1 X127.77 Y48.655 E2.37236
G1 X130.404 Y48.326 E2.42533
G1 X133.005 Y47.927 E2.47785
G1 X135.612 Y47.451 E2.53073
G1 X138.225 Y46.897 E2.58404
G1 X140.752 Y46.287 E2.63591
G1 X143.327 Y45.587 E2.68917
G1 X145.879 Y44.815 E2.74237
G1 X148.365 Y43.986 E2.79467
G1 X150.874 Y43.068 E2.84799
G1 X153.311 Y42.099 E2.90032
G1 X155.785 Y41.032 E2.95409
G1 X158.158 Y39.93 E3.0063
G1 X160.516 Y38.752 E3.0589
G1 X162.843 Y37.505 E3.11159
G1 X165.155 Y36.181 E3.16476
G1 X167.432 Y34.791 E3.218
G1 X169.655 Y33.346 E3.27091
G1 X171.785 Y31.873 E3.32259
G1 X173.944 Y30.288 E3.37604
G1 X176.041 Y28.656 E3.42906
G1 X178.076 Y26.977 E3.48171
G1 X180.082 Y25.225 E3.53486
G1 X182.004 Y23.448 E3.5871
G1 X184.463 Y21.023 E3.65602
G1 X185.258 Y20.21 E3.67871
G1 X185.391 Y20.078 E3.68245
G1 X185.781 Y19.702 E3.69326
G1 X186.056 Y19.451 E3.70069
G1 X186.597 Y18.987 E3.71492
G1 X186.743 Y18.866 E3.7187
G1 X187.19 Y18.505 E3.73017
G1 X187.481 Y18.283 E3.73747
G1 X188.022 Y17.895 E3.75076
G1 X188.175 Y17.789 E3.75447
G1 X188.675 Y17.452 E3.7665
G1 X188.986 Y17.255 E3.77385
G1 X189.554 Y16.918 E3.78703
G1 X189.727 Y16.819 E3.79101
G1 X190.247 Y16.532 E3.80286
G1 X190.564 Y16.369 E3.80997
G1 X191.158 Y16.083 E3.82313
G1 X191.335 Y16.001 E3.82702
G1 X191.875 Y15.761 E3.83882
G1 X192.202 Y15.626 E3.84588
G1 X192.871 Y15.372 E3.86016
G1 X193.062 Y15.303 E3.86421
G1 X193.571 Y15.128 E3.87495
G1 X193.919 Y15.019 E3.88223
G1 X194.605 Y14.826 E3.89645
G1 X194.786 Y14.778 E3.90019
G1 X195.318 Y14.645 E3.91113
G1 X195.678 Y14.566 E3.91849
G1 X196.348 Y14.439 E3.93209
G1 X196.547 Y14.404 E3.93613
G1 X197.152 Y14.309 E3.94835
G1 X197.502 Y14.264 E3.95539
G1 X198.136 Y14.2 E3.96811
G1 X198.325 Y14.184 E3.97189
G1 X198.93 Y14.141 E3.984
G1 X199.299 Y14.126 E3.99137
G1 X199.975 Y14.117 E4.00486
G1 X200.163 Y14.117 E4.00861
G1 X200.721 Y14.126 E4.01975
G1 X201.096 Y14.143 E4.02724
G1 X201.803 Y14.196 E4.04139
G1 X201.982 Y14.212 E4.04497
G1 X202.573 Y14.273 E4.05683
G1 X202.944 Y14.322 E4.0643
G1 X203.589 Y14.427 E4.07734
G1 X203.767 Y14.459 E4.08095
G1 X204.335 Y14.568 E4.09249
G1 X204.704 Y14.65 E4.10003
G1 X205.358 Y14.816 E4.1135
G1 X205.524 Y14.86 E4.11692
G1 X206.083 Y15.018 E4.12852
G1 X206.452 Y15.135 E4.13624
G1 X207.122 Y15.369 E4.1504
G1 X207.291 Y15.431 E4.154
G1 X207.821 Y15.633 E4.16532
G1 X208.16 Y15.773 E4.17263
G1 X208.798 Y16.059 E4.18659
G1 X208.974 Y16.141 E4.19046
G1 X209.446 Y16.37 E4.20093
G1 X209.771 Y16.539 E4.20824
G1 X210.409 Y16.895 E4.22282
G1 X210.569 Y16.988 E4.22651
G1 X211.045 Y17.272 E4.23758
G1 X211.36 Y17.472 E4.24502
G1 X211.948 Y17.871 E4.2592
G1 X212.109 Y17.985 E4.26314
G1 X212.563 Y18.314 E4.27433
G1 X212.84 Y18.525 E4.28128
G1 X213.364 Y18.95 E4.29474
G1 X213.528 Y19.088 E4.29902
G1 X213.968 Y19.47 E4.31065
G1 X214.223 Y19.704 E4.31755
G1 X214.722 Y20.187 E4.33141
G1 X214.853 Y20.318 E4.33511
G1 X215.245 Y20.72 E4.34631
G1 X215.505 Y21.003 E4.35398
G1 X215.963 Y21.533 E4.36796
G1 X216.085 Y21.678 E4.37174
G1 X216.439 Y22.113 E4.38294
G1 X216.654 Y22.394 E4.39
G1 X217.067 Y22.963 E4.40403
G1 X217.181 Y23.124 E4.40797
G1 X217.491 Y23.58 E4.41897
G1 X217.689 Y23.891 E4.42633
G1 X218.053 Y24.499 E4.44047
G1 X218.147 Y24.661 E4.44421
G1 X218.415 Y25.14 E4.45516
G1 X218.588 Y25.471 E4.46261
G1 X218.9 Y26.114 E4.47687
G1 X218.976 Y26.276 E4.48045
G1 X219.202 Y26.777 E4.49141
G1 X219.343 Y27.117 E4.49876
G1 X219.6 Y27.787 E4.51308
G1 X219.668 Y27.972 E4.51701
G1 X219.849 Y28.491 E4.52798
G1 X219.96 Y28.841 E4.53531
G1 X220.145 Y29.489 E4.54876
G1 X220.194 Y29.669 E4.55248
G1 X220.341 Y30.247 E4.56438
G1 X220.421 Y30.606 E4.57172
G1 X220.553 Y31.287 E4.58557
G1 X220.585 Y31.464 E4.58915
G1 X220.672 Y31.992 E4.59983
G1 X220.723 Y32.371 E4.60747
G1 X220.798 Y33.092 E4.62193
G1 X220.814 Y33.273 E4.62556
G1 X220.857 Y33.843 E4.63696
G1 X220.874 Y34.217 E4.64444
G1 X220.885 Y34.877 E4.65761
G1 X220.886 Y35.061 E4.66128
G1 X220.879 Y35.645 E4.67294
G1 X220.863 Y36.014 E4.68031
G1 X220.814 Y36.715 E4.69433
G1 X220.799 Y36.902 E4.69807
G1 X220.743 Y37.465 E4.70936
G1 X220.696 Y37.83 E4.71671
G1 X220.586 Y38.527 E4.73079
G1 X220.554 Y38.708 E4.73446
G1 X220.452 Y39.252 E4.7455
G1 X220.373 Y39.619 E4.753
G1 X220.21 Y40.274 E4.76646
G1 X220.16 Y40.461 E4.77033
G1 X220.003 Y41.019 E4.7819
G1 X219.898 Y41.357 E4.78896
G1 X219.675 Y42.009 E4.80271
G1 X219.608 Y42.196 E4.80667
G1 X219.398 Y42.753 E4.81855
G1 X219.258 Y43.093 E4.82589
G1 X218.988 Y43.701 E4.83917
G1 X218.916 Y43.858 E4.84261
G1 X218.678 Y44.357 E4.85365
G1 X218.5 Y44.703 E4.86141
G1 X218.135 Y45.362 E4.87645
G1 X218.042 Y45.523 E4.88016
G1 X217.779 Y45.967 E4.89045
G1 X217.581 Y46.28 E4.89785
G1 X217.185 Y46.868 E4.91199
G1 X217.08 Y47.019 E4.91566
G1 X216.747 Y47.484 E4.92708
G1 X216.528 Y47.773 E4.93431
G1 X216.101 Y48.303 E4.94789
G1 X215.973 Y48.457 E4.95189
G1 X215.603 Y48.888 E4.96323
G1 X215.369 Y49.146 E4.97018
G1 X214.893 Y49.643 E4.98391
G1 X214.751 Y49.787 E4.98795
G1 X213.871 Y50.649 E5.01253
G1 X211.979 Y52.558 E5.06617
G1 X210.176 Y54.483 E5.1188
G1 X208.42 Y56.467 E5.17167
G1 X206.731 Y58.488 E5.22424
G1 X205.077 Y60.585 E5.27753
G1 X203.5 Y62.704 E5.33025
G1 X201.977 Y64.877 E5.3832
G1 X200.538 Y67.059 E5.43536
G1 X199.12 Y69.346 E5.48906
G1 X197.803 Y71.612 E5.54137
G1 X196.538 Y73.935 E5.59415
G1 X195.33 Y76.316 E5.64743
G1 X194.203 Y78.699 E5.70004
G1 X193.143 Y81.116 E5.75271
G1 X192.137 Y83.594 E5.80608
G1 X191.226 Y86.045 E5.85826
G1 X190.366 Y88.569 E5.91147
G1 X189.587 Y91.085 E5.96403
G1 X188.873 Y93.644 E6.01705
G1 X188.235 Y96.211 E6.06984
G1 X187.66 Y98.829 E6.12333
G1 X187.182 Y101.368 E6.17489
G1 X186.76 Y104.007 E6.22822
G1 X186.415 Y106.632 E6.28105
G1 X186.141 Y109.305 E6.33468
G1 X185.948 Y111.902 E6.38664
G1 X185.828 Y114.542 E6.43938
G1 X185.782 Y117.179 E6.49202
G1 X185.81 Y119.863 E6.54558
G1 X185.914 Y122.503 E6.59831
G1 X186.09 Y125.11 E6.65045
G1 X186.345 Y127.77 E6.70378
G1 X186.674 Y130.404 E6.75675
G1 X187.073 Y133.005 E6.80926
G1 X187.549 Y135.612 E6.86215
G1 X188.103 Y138.225 E6.91545
G1 X188.713 Y140.752 E6.96733
G1 X189.413 Y143.327 E7.02058
G1 X190.185 Y145.879 E7.07379
G1 X191.014 Y148.365 E7.12608
G1 X191.932 Y150.874 E7.1794
G1 X192.901 Y153.311 E7.23174
G1 X193.963 Y155.775 E7.28528
G1 X195.07 Y158.158 E7.33772
G1 X196.248 Y160.516 E7.39032
G1 X197.504 Y162.859 E7.44337
G1 X198.824 Y165.166 E7.49641
G1 X200.193 Y167.407 E7.54882
G1 X201.642 Y169.637 E7.60189
G1 X203.139 Y171.801 E7.6544
G1 X204.712 Y173.944 E7.70745
G1 X206.344 Y176.041 E7.76048
G1 X208.022 Y178.075 E7.8131
G1 X209.775 Y180.082 E7.86628
G1 X211.551 Y182.003 E7.91849
G1 X213.977 Y184.463 E7.98744
G1 X214.79 Y185.258 E8.01013
G1 X214.923 Y185.391 E8.01388
G1 X215.297 Y185.779 E8.02464
G1 X215.546 Y186.053 E8.03202
G1 X216.012 Y186.596 E8.0463
G1 X216.134 Y186.743 E8.05012
G1 X216.495 Y187.19 E8.06158
G1 X216.717 Y187.481 E8.06889
G1 X217.105 Y188.022 E8.08217
G1 X217.209 Y188.172 E8.08581
G1 X217.545 Y188.67 E8.0978
G1 X217.745 Y188.986 E8.10527
G1 X218.083 Y189.556 E8.11849
G1 X218.181 Y189.727 E8.12242
G1 X218.468 Y190.247 E8.13428
G1 X218.631 Y190.564 E8.14139
G1 X218.917 Y191.158 E8.15455
G1 X218.999 Y191.335 E8.15844
G1 X219.239 Y191.875 E8.17023
G1 X219.375 Y192.204 E8.17734
G1 X219.625 Y192.863 E8.1914
G1 X219.691 Y193.046 E8.19528
G1 X219.87 Y193.565 E8.20624
G1 X219.98 Y193.916 E8.21358
G1 X220.17 Y194.59 E8.22756
G1 X220.219 Y194.774 E8.23136
G1 X220.355 Y195.318 E8.24255
G1 X220.434 Y195.678 E8.2499
G1 X220.561 Y196.348 E8.26351
G1 X220.595 Y196.541 E8.26742
G1 X220.69 Y197.142 E8.27956
G1 X220.736 Y197.502 E8.28681
G1 X220.8 Y198.14 E8.2996
G1 X220.816 Y198.324 E8.30329
G1 X220.859 Y198.927 E8.31535
G1 X220.874 Y199.297 E8.32274
G1 X220.883 Y199.975 E8.33627
G1 X220.883 Y200.163 E8.34002
G1 X220.874 Y200.721 E8.35116
G1 X220.857 Y201.096 E8.35865
G1 X220.804 Y201.803 E8.3728
G1 X220.788 Y201.982 E8.37639
G1 X220.727 Y202.573 E8.38824
G1 X220.678 Y202.944 E8.39571
G1 X220.573 Y203.589 E8.40875
G1 X220.541 Y203.767 E8.41236
G1 X220.432 Y204.335 E8.4239
G1 X220.35 Y204.704 E8.43145
G1 X220.184 Y205.358 E8.44491
G1 X220.14 Y205.524 E8.44834
G1 X219.982 Y206.083 E8.45993
G1 X219.865 Y206.453 E8.46768
G1 X219.633 Y207.117 E8.48171
G1 X219.572 Y207.283 E8.48524
G1 X219.368 Y207.819 E8.49669
G1 X219.227 Y208.16 E8.50405
G1 X218.941 Y208.798 E8.518
G1 X218.859 Y208.974 E8.52188
G1 X218.63 Y209.446 E8.53235
G1 X218.461 Y209.771 E8.53966
G1 X218.105 Y210.409 E8.55424
G1 X218.012 Y210.569 E8.55793
G1 X217.728 Y211.045 E8.56899
G1 X217.528 Y211.36 E8.57644
G1 X217.129 Y211.948 E8.59062
G1 X217.015 Y212.109 E8.59456
G1 X216.686 Y212.563 E8.60574
G1 X216.475 Y212.84 E8.61269
G1 X216.05 Y213.364 E8.62616
G1 X215.912 Y213.528 E8.63044
G1 X215.53 Y213.968 E8.64206
G1 X215.296 Y214.223 E8.64897
G1 X214.813 Y214.722 E8.66283
G1 X214.682 Y214.853 E8.66653
G1 X214.28 Y215.245 E8.67773
G1 X213.997 Y215.505 E8.6854
G1 X213.467 Y215.963 E8.69938
G1 X213.329 Y216.079 E8.70298
G1 X212.899 Y216.43 E8.71405
G1 X212.608 Y216.654 E8.72138
G1 X212.034 Y217.07 E8.73553
G1 X211.873 Y217.183 E8.73945
G1 X211.415 Y217.494 E8.7505
G1 X211.109 Y217.689 E8.75774
G1 X210.503 Y218.052 E8.77184
G1 X210.339 Y218.147 E8.77562
G1 X209.86 Y218.415 E8.78658
G1 X209.529 Y218.588 E8.79403
G1 X208.886 Y218.9 E8.80829
G1 X208.724 Y218.976 E8.81186
G1 X208.223 Y219.202 E8.82283
G1 X207.883 Y219.343 E8.83018
G1 X207.213 Y219.6 E8.8445
G1 X207.028 Y219.668 E8.84843
G1 X206.509 Y219.849 E8.8594
G1 X206.159 Y219.96 E8.86673
G1 X205.511 Y220.145 E8.88017
G1 X205.331 Y220.194 E8.8839
G1 X204.753 Y220.341 E8.8958
G1 X204.394 Y220.421 E8.90314
G1 X203.713 Y220.553 E8.91698
G1 X203.532 Y220.585 E8.92065
G1 X203.002 Y220.672 E8.93137
G1 X202.629 Y220.722 E8.93888
G1 X201.91 Y220.797 E8.95331
G1 X201.726 Y220.814 E8.95699
G1 X201.154 Y220.857 E8.96844
G1 X200.781 Y220.874 E8.97589
G1 X200.123 Y220.885 E8.98902
G1 X199.939 Y220.886 E8.9927
G1 X199.355 Y220.879 E9.00435
G1 X198.986 Y220.863 E9.01172
G1 X198.285 Y220.814 E9.02575
G1 X198.098 Y220.799 E9.02949
G1 X197.535 Y220.743 E9.04078
G1 X197.17 Y220.696 E9.04812
G1 X196.473 Y220.586 E9.06221
G1 X196.292 Y220.554 E9.06587
G1 X195.748 Y220.452 E9.07692
G1 X195.381 Y220.373 E9.08441
G1 X194.726 Y220.21 E9.09788
G1 X194.539 Y220.16 E9.10174
G1 X193.981 Y220.003 E9.11331
G1 X193.643 Y219.898 E9.12037
G1 X192.991 Y219.675 E9.13413
G1 X192.802 Y219.607 E9.13813
G1 X192.243 Y219.396 E9.15006
G1 X191.906 Y219.258 E9.15732
G1 X191.3 Y218.989 E9.17056
G1 X191.136 Y218.913 E9.17416
G1 X190.634 Y218.673 E9.18527
G1 X190.296 Y218.499 E9.19285
G1 X189.64 Y218.136 E9.20782
G1 X189.47 Y218.038 E9.21173
G1 X189.024 Y217.773 E9.22208
G1 X188.722 Y217.582 E9.22922
G1 X188.136 Y217.188 E9.24331
G1 X187.981 Y217.08 E9.24708
G1 X187.516 Y216.747 E9.25849
G1 X187.227 Y216.528 E9.26573
G1 X186.697 Y216.101 E9.27931
G1 X186.543 Y215.973 E9.28331
G1 X186.112 Y215.603 E9.29464
G1 X185.854 Y215.369 E9.30159
G1 X185.357 Y214.893 E9.31533
G1 X185.213 Y214.751 E9.31936
G1 X184.347 Y213.868 E9.34404
G1 X182.442 Y211.979 E9.39758
G1 X180.517 Y210.176 E9.45021
G1 X178.533 Y208.42 E9.50309
G1 X176.512 Y206.731 E9.55565
G1 X174.415 Y205.077 E9.60895
G1 X172.296 Y203.501 E9.66165
G1 X170.129 Y201.982 E9.71446
G1 X167.924 Y200.527 E9.76718
G1 X165.654 Y199.12 E9.82048
G1 X163.389 Y197.804 E9.87275
G1 X161.066 Y196.539 E9.92554
G1 X158.684 Y195.33 E9.97885
G1 X156.301 Y194.203 E10.03145
G1 X153.884 Y193.143 E10.08412
G1 X151.406 Y192.137 E10.13749
G1 X148.955 Y191.226 E10.18967
G1 X146.431 Y190.366 E10.24288
G1 X143.915 Y189.587 E10.29545
G1 X141.356 Y188.873 E10.34846
G1 X138.789 Y188.235 E10.40125
G1 X136.171 Y187.66 E10.45474
G1 X133.632 Y187.182 E10.5063
G1 X130.993 Y186.76 E10.55963
G1 X128.368 Y186.415 E10.61247
G1 X125.695 Y186.141 E10.66609
G1 X123.098 Y185.948 E10.71806
G1 X120.458 Y185.828 E10.7708
G1 X117.814 Y185.782 E10.82357
G1 X115.138 Y185.81 E10.87697
G1 X112.497 Y185.914 E10.92972
G1 X109.89 Y186.09 E10.98186
G1 X107.23 Y186.345 E11.03519
G1 X104.596 Y186.674 E11.08816
G1 X101.995 Y187.073 E11.14067
G1 X99.388 Y187.549 E11.19356
G1 X96.775 Y188.103 E11.24686
G1 X94.248 Y188.713 E11.29874
G1 X91.673 Y189.413 E11.35199
G1 X89.121 Y190.185 E11.4052
G1 X86.635 Y191.014 E11.4575
G1 X84.126 Y191.932 E11.51081
G1 X81.689 Y192.901 E11.56315
