;FLAVOR:Marlin
;TIME:2783
;Filament used: 2.25428m
;Layer height: 0.16
;Generated with Cura_SteamEngine 3.6.0
M140 S80
M105
M190 S80
M104 S245
M105
M109 S245
M82 ;absolute extrusion mode
; Ender 3 Custom Start G-code
G28 ; Home all axes
G92 E0 ; Reset Extruder
G1 Z2.0 F3000 ; Move Z Axis up little to prevent scratching of Heat Bed
G1 X0.1 Y20 Z0.3 F5000.0 ; Move to start position
G1 X0.1 Y200.0 Z0.3 F1500.0 E15 ; Draw the first line
G1 X0.4 Y200.0 Z0.3 F5000.0 ; Move to side a little
G1 X0.4 Y20 Z0.3 F1500.0 E30 ; Draw the second line
G92 E0 ; Reset Extruder
G1 Z2.0 F3000 ; Move Z Axis up little to prevent scratching of Heat Bed
; End of custom start GCode
G92 E0
G1 F2400 E-5
;LAYER_COUNT:4
;LAYER:0
M107
M204 S5000
M205 X30 Y30
G0 F3600 X12.971 Y12.996 Z0.24
M204 S500
M205 X20 Y20
;TYPE:SKIRT
G1 F2400 E0
G1 F1800 X13.503 Y12.517 E0.02857
G1 X14.085 Y12.102 E0.0571
G1 X14.71 Y11.753 E0.08567
G1 X15.37 Y11.477 E0.11422
G1 X16.056 Y11.276 E0.14276
G1 X16.761 Y11.153 E0.17132
G1 X17.509 Y11.109 E0.20122
G1 X217.491 Y11.11 E8.18294
G1 X218.205 Y11.15 E8.21148
G1 X218.91 Y11.269 E8.24002
G1 X219.598 Y11.467 E8.26859
G1 X220.259 Y11.74 E8.29713
G1 X220.886 Y12.084 E8.32568
G1 X221.47 Y12.497 E8.35423
G1 X222.004 Y12.972 E8.38275
G1 X222.483 Y13.504 E8.41132
G1 X222.898 Y14.086 E8.43985
G1 X223.247 Y14.711 E8.46842
G1 X223.523 Y15.371 E8.49698
G1 X223.724 Y16.057 E8.52551
G1 X223.847 Y16.762 E8.55407
G1 X223.891 Y17.51 E8.58398
G1 X223.891 Y217.491 E16.56565
G1 X223.851 Y218.205 E16.59419
G1 X223.732 Y218.91 E16.62273
G1 X223.534 Y219.598 E16.6513
G1 X223.261 Y220.259 E16.67985
G1 X222.917 Y220.886 E16.70839
G1 X222.504 Y221.47 E16.73694
G1 X222.029 Y222.004 E16.76546
G1 X221.497 Y222.483 E16.79403
G1 X220.915 Y222.898 E16.82256
G1 X220.29 Y223.247 E16.85113
G1 X219.63 Y223.523 E16.87969
G1 X218.944 Y223.724 E16.90822
G1 X218.239 Y223.847 E16.93678
G1 X217.491 Y223.891 E16.96669
G1 X17.509 Y223.891 E24.9484
G1 X16.795 Y223.851 E24.97694
G1 X16.09 Y223.732 E25.00548
G1 X15.402 Y223.534 E25.03405
G1 X14.741 Y223.261 E25.0626
G1 X14.114 Y222.917 E25.09114
G1 X13.53 Y222.504 E25.11969
G1 X12.996 Y222.029 E25.14821
G1 X12.517 Y221.497 E25.17679
G1 X12.102 Y220.915 E25.20531
G1 X11.753 Y220.29 E25.23389
G1 X11.477 Y219.63 E25.26244
G1 X11.276 Y218.944 E25.29097
G1 X11.153 Y218.239 E25.31953
G1 X11.109 Y217.491 E25.34944
G1 X11.109 Y17.509 E33.33115
G1 X11.149 Y16.795 E33.35969
G1 X11.268 Y16.09 E33.38823
G1 X11.466 Y15.402 E33.4168
G1 X11.739 Y14.741 E33.44535
G1 X12.083 Y14.114 E33.47389
G1 X12.496 Y13.53 E33.50244
G1 X12.971 Y12.996 E33.53096
M204 S5000
M205 X30 Y30
G0 F3600 X13.365 Y13.17
M204 S500
M205 X20 Y20
G1 F1800 X13.893 Y12.721 E33.55863
G1 X14.468 Y12.336 E33.58625
G1 X15.085 Y12.021 E33.6139
G1 X15.733 Y11.778 E33.64152
G1 X16.406 Y11.611 E33.66919
G1 X17.092 Y11.523 E33.6968
G1 X17.509 Y11.509 E33.71345
G1 X217.491 Y11.51 E41.69516
G1 X218.182 Y11.55 E41.72279
G1 X218.865 Y11.669 E41.75046
G1 X219.528 Y11.867 E41.77808
G1 X220.165 Y12.139 E41.80572
G1 X220.766 Y12.483 E41.83336
G1 X221.324 Y12.894 E41.86102
G1 X221.83 Y13.366 E41.88864
G1 X222.279 Y13.894 E41.9163
G1 X222.664 Y14.469 E41.94392
G1 X222.979 Y15.086 E41.97157
G1 X223.222 Y15.734 E41.99919
G1 X223.389 Y16.407 E42.02687
G1 X223.477 Y17.094 E42.05451
G1 X223.491 Y17.51 E42.07112
G1 X223.491 Y217.491 E50.0528
G1 X223.451 Y218.182 E50.08042
G1 X223.332 Y218.865 E50.10809
G1 X223.134 Y219.528 E50.13571
G1 X222.862 Y220.165 E50.16336
G1 X222.518 Y220.766 E50.19099
G1 X222.107 Y221.324 E50.21865
G1 X221.635 Y221.83 E50.24627
G1 X221.107 Y222.279 E50.27393
G1 X220.532 Y222.664 E50.30155
G1 X219.915 Y222.979 E50.3292
G1 X219.267 Y223.222 E50.35682
G1 X218.594 Y223.389 E50.3845
G1 X217.908 Y223.477 E50.4121
G1 X217.491 Y223.491 E50.42876
G1 X17.509 Y223.491 E58.41047
G1 X16.818 Y223.451 E58.4381
G1 X16.135 Y223.332 E58.46577
G1 X15.472 Y223.134 E58.49338
G1 X14.835 Y222.862 E58.52103
G1 X14.234 Y222.518 E58.54867
G1 X13.676 Y222.107 E58.57633
G1 X13.17 Y221.635 E58.60395
G1 X12.721 Y221.107 E58.63161
G1 X12.336 Y220.532 E58.65923
G1 X12.021 Y219.915 E58.68688
G1 X11.778 Y219.267 E58.7145
G1 X11.611 Y218.594 E58.74217
G1 X11.523 Y217.908 E58.76978
G1 X11.509 Y217.491 E58.78643
G1 X11.509 Y17.509 E66.76815
G1 X11.549 Y16.818 E66.79577
G1 X11.668 Y16.135 E66.82344
G1 X11.866 Y15.472 E66.85106
G1 X12.138 Y14.835 E66.8787
G1 X12.482 Y14.234 E66.90634
G1 X12.893 Y13.676 E66.934
G1 X13.365 Y13.17 E66.96162
M204 S5000
M205 X30 Y30
G0 F3600 X13.758 Y13.351
M204 S500
M205 X20 Y20
G1 F1800 X14.28 Y12.933 E66.98831
G1 X14.849 Y12.581 E67.01501
G1 X15.456 Y12.299 E67.04173
G1 X16.092 Y12.091 E67.06844
G1 X16.748 Y11.961 E67.09513
G1 X17.509 Y11.909 E67.12557
G1 X217.491 Y11.91 E75.10728
G1 X218.159 Y11.95 E75.13399
G1 X218.817 Y12.069 E75.16068
G1 X219.457 Y12.266 E75.18741
G1 X220.068 Y12.538 E75.2141
G1 X220.642 Y12.881 E75.24079
G1 X221.172 Y13.29 E75.26751
G1 X221.649 Y13.759 E75.29421
G1 X222.067 Y14.281 E75.3209
G1 X222.419 Y14.85 E75.3476
G1 X222.701 Y15.457 E75.37432
G1 X222.909 Y16.093 E75.40102
G1 X223.039 Y16.749 E75.42772
G1 X223.091 Y17.51 E75.45816
G1 X223.091 Y217.491 E83.43983
G1 X223.051 Y218.159 E83.46654
G1 X222.932 Y218.817 E83.49323
G1 X222.735 Y219.457 E83.51996
G1 X222.463 Y220.068 E83.54665
G1 X222.12 Y220.642 E83.57334
G1 X221.711 Y221.172 E83.60006
G1 X221.242 Y221.649 E83.62676
G1 X220.72 Y222.067 E83.65345
G1 X220.151 Y222.419 E83.68015
G1 X219.544 Y222.701 E83.70687
G1 X218.908 Y222.909 E83.73357
G1 X218.252 Y223.039 E83.76027
G1 X217.491 Y223.091 E83.79071
G1 X17.509 Y223.091 E91.77242
G1 X16.841 Y223.051 E91.79913
G1 X16.183 Y222.932 E91.82582
G1 X15.543 Y222.735 E91.85255
G1 X14.932 Y222.463 E91.87924
G1 X14.358 Y222.12 E91.90593
G1 X13.828 Y221.711 E91.93265
G1 X13.351 Y221.242 E91.95935
G1 X12.933 Y220.72 E91.98604
G1 X12.581 Y220.151 E92.01274
G1 X12.299 Y219.544 E92.03946
G1 X12.091 Y218.908 E92.06616
G1 X11.961 Y218.252 E92.09286
G1 X11.909 Y217.491 E92.1233
G1 X11.909 Y17.509 E100.10501
G1 X11.949 Y16.841 E100.13172
G1 X12.068 Y16.183 E100.15841
G1 X12.265 Y15.543 E100.18514
G1 X12.537 Y14.932 E100.21183
G1 X12.88 Y14.358 E100.23852
G1 X13.289 Y13.828 E100.26524
G1 X13.758 Y13.351 E100.29194
M204 S5000
M205 X30 Y30
G0 F3600 X13.684 Y13.986
M204 S500
M205 X20 Y20
G1 F1800 X14.149 Y13.54 E100.31765
G1 X14.666 Y13.155 E100.34338
G1 X15.227 Y12.836 E100.36914
G1 X15.823 Y12.59 E100.39487
G1 X16.444 Y12.419 E100.42058
G1 X17.082 Y12.327 E100.44631
G1 X17.509 Y12.309 E100.46337
G1 X217.491 Y12.31 E108.44508
G1 X218.134 Y12.35 E108.47079
G1 X218.768 Y12.469 E108.49654
G1 X219.382 Y12.666 E108.52228
G1 X219.967 Y12.937 E108.54801
G1 X220.514 Y13.279 E108.57376
G1 X221.014 Y13.685 E108.59946
G1 X221.46 Y14.15 E108.62518
G1 X221.845 Y14.667 E108.65091
G1 X222.164 Y15.228 E108.67666
G1 X222.41 Y15.824 E108.7024
G1 X222.581 Y16.445 E108.72811
G1 X222.673 Y17.083 E108.75383
G1 X222.691 Y17.51 E108.77089
G1 X222.691 Y217.491 E116.75257
G1 X222.651 Y218.134 E116.77828
G1 X222.532 Y218.768 E116.80402
G1 X222.335 Y219.382 E116.82976
G1 X222.064 Y219.967 E116.85549
G1 X221.722 Y220.514 E116.88124
G1 X221.316 Y221.014 E116.90695
G1 X220.851 Y221.46 E116.93266
G1 X220.334 Y221.845 E116.95839
G1 X219.773 Y222.164 E116.98415
G1 X219.177 Y222.41 E117.00988
G1 X218.556 Y222.581 E117.03559
G1 X217.918 Y222.673 E117.06132
G1 X217.491 Y222.691 E117.07838
G1 X17.509 Y222.691 E125.06009
G1 X16.866 Y222.651 E125.0858
G1 X16.232 Y222.532 E125.11155
G1 X15.618 Y222.335 E125.13729
G1 X15.033 Y222.064 E125.16302
G1 X14.486 Y221.722 E125.18877
G1 X13.986 Y221.316 E125.21447
G1 X13.54 Y220.851 E125.24019
G1 X13.155 Y220.334 E125.26592
G1 X12.836 Y219.773 E125.29167
G1 X12.59 Y219.177 E125.31741
G1 X12.419 Y218.556 E125.34312
G1 X12.327 Y217.918 E125.36884
G1 X12.309 Y217.491 E125.3859
G1 X12.309 Y17.509 E133.36761
G1 X12.349 Y16.866 E133.39333
G1 X12.468 Y16.232 E133.41907
G1 X12.665 Y15.618 E133.44481
G1 X12.936 Y15.033 E133.47054
G1 X13.278 Y14.486 E133.49629
G1 X13.684 Y13.986 E133.522
M204 S5000
M205 X30 Y30
G1 F2400 E128.522
;MESH:5491e261-a6f5-4c2e-b4e8-322bb97735b1.stl
G0 F3600 X43.936 Y16.874
G0 X43.98 Y16.877
G0 X98.902 Y22.121
G0 X98.966 Y22.126
G0 X99.359 Y22.165
G0 X99.359 Y20.33
G0 X109.163 Y21.071
G0 X109.804 Y22.392
M204 S500
M205 X20 Y20
;TYPE:WALL-INNER
G1 F2400 E133.522
G1 F1800 X109.704 Y20.5 E133.59762
G1 X20.5 Y20.5 E137.15794
G1 X20.5 Y109.704 E140.71827
G1 X22.392 Y109.804 E140.79388
G1 X22.845 Y105.623 E140.96173
G1 X23.297 Y102.451 E141.08961
G1 X23.867 Y99.242 E141.2197
G1 X24.534 Y96.099 E141.34793
G1 X25.31 Y92.969 E141.47664
G1 X26.194 Y89.86 E141.60565
G1 X27.191 Y86.758 E141.73569
G1 X28.274 Y83.742 E141.86359
G1 X29.484 Y80.707 E141.994
G1 X30.764 Y77.778 E142.12158
G1 X32.161 Y74.862 E142.25063
G1 X33.668 Y71.972 E142.38071
G1 X35.258 Y69.159 E142.50968
G1 X36.928 Y66.423 E142.63762
G1 X38.712 Y63.712 E142.76714
G1 X40.579 Y61.074 E142.89613
G1 X42.526 Y58.512 E143.02456
G1 X44.584 Y55.986 E143.15461
G1 X46.697 Y53.565 E143.28286
G1 X48.903 Y51.204 E143.41183
G1 X51.204 Y48.903 E143.5417
G1 X53.545 Y46.715 E143.6696
G1 X55.986 Y44.584 E143.79892
G1 X58.507 Y42.53 E143.92871
G1 X61.058 Y40.59 E144.05662
G1 X63.695 Y38.723 E144.18558
G1 X66.417 Y36.932 E144.31563
G1 X69.159 Y35.258 E144.44385
G1 X71.972 Y33.668 E144.57282
G1 X74.832 Y32.176 E144.70157
G1 X77.772 Y30.769 E144.83165
G1 X80.707 Y29.483 E144.95955
G1 X83.742 Y28.275 E145.08992
G1 X86.757 Y27.192 E145.21779
G1 X89.833 Y26.203 E145.34675
G1 X92.963 Y25.312 E145.47663
G1 X96.085 Y24.538 E145.60501
G1 X99.242 Y23.867 E145.73383
G1 X102.451 Y23.297 E145.86391
G1 X105.616 Y22.846 E145.99151
G1 X109.804 Y22.392 E146.15964
M204 S5000
M205 X30 Y30
G1 F2400 E141.15964
G0 F3600 X109.163 Y21.071
G0 X99.359 Y20.33
G0 X99.359 Y22.165
G0 X99.423 Y22.181
G0 X99.466 Y22.191
G0 X114.189 Y25.777
G0 X114.309 Y25.822
G0 X160.36 Y36.395
G0 X162.592 Y37.568
G0 X177.354 Y41.164
G0 X177.397 Y41.174
G0 X177.489 Y41.197
G0 X176.367 Y42.674
G0 X179.014 Y44.584
M204 S500
M205 X20 Y20
G1 F2400 E146.15964
G1 F1800 X181.435 Y46.697 E146.2879
G1 X183.796 Y48.903 E146.41686
G1 X186.097 Y51.204 E146.54674
G1 X188.285 Y53.545 E146.67463
G1 X190.416 Y55.986 E146.80396
G1 X192.47 Y58.507 E146.93375
G1 X194.415 Y61.065 E147.062
G1 X196.277 Y63.695 E147.19062
G1 X198.068 Y66.417 E147.32066
G1 X199.742 Y69.159 E147.44889
G1 X201.329 Y71.966 E147.57759
G1 X202.824 Y74.832 E147.7066
G1 X204.231 Y77.772 E147.83669
G1 X205.517 Y80.707 E147.96458
G1 X206.723 Y83.736 E148.09471
G1 X207.809 Y86.758 E148.22287
G1 X208.8 Y89.841 E148.35212
G1 X209.688 Y92.962 E148.48163
G1 X210.46 Y96.073 E148.60956
G1 X211.132 Y99.235 E148.73858
G1 X211.698 Y102.416 E148.86754
G1 X212.154 Y105.616 E148.99655
G1 X212.608 Y109.804 E149.16468
G1 X214.5 Y109.704 E149.2403
G1 X214.5 Y20.5 E152.80062
G1 X125.296 Y20.5 E156.36095
G1 X125.196 Y22.392 E156.43657
G1 X129.384 Y22.846 E156.6047
G1 X132.549 Y23.297 E156.7323
G1 X135.758 Y23.867 E156.86238
G1 X138.915 Y24.538 E156.9912
G1 X142.037 Y25.312 E157.11958
G1 X145.167 Y26.203 E157.24946
G1 X148.243 Y27.192 E157.37842
G1 X151.258 Y28.275 E157.50629
G1 X154.293 Y29.483 E157.63666
G1 X157.228 Y30.769 E157.76456
G1 X160.162 Y32.173 E157.89437
G1 X163.028 Y33.668 E158.02339
G1 X165.841 Y35.258 E158.15236
G1 X168.583 Y36.932 E158.28058
G1 X171.299 Y38.719 E158.41034
G1 X173.92 Y40.574 E158.5385
G1 X176.488 Y42.526 E158.66724
G1 X179.014 Y44.584 E158.79728
M204 S5000
M205 X30 Y30
G1 F2400 E153.79728
G0 F3600 X176.936 Y43.138
G0 X175.438 Y45.004
G0 X176.903 Y46.156
G0 X179.343 Y48.261
G0 X182.02 Y50.754
G0 X117.5 Y116.087
M204 S500
M205 X20 Y20
G1 F2400 E158.79728
G1 F1800 X117.641 Y115.946 E158.80524
G1 X182.701 Y50.884 E162.47757
G1 X182.702 Y50.883 E162.47762
G1 X182.847 Y50.738 E162.48581
G1 X182.696 Y50.598 E162.49106
G1 X179.717 Y47.843 E162.65301
G1 X177.262 Y45.726 E162.78239
G1 X174.734 Y43.694 E162.91185
G1 X172.138 Y41.753 E163.04122
G1 X169.476 Y39.902 E163.17062
G1 X166.751 Y38.144 E163.30005
G1 X163.968 Y36.482 E163.42943
G1 X161.127 Y34.917 E163.55889
G1 X158.233 Y33.454 E163.68831
G1 X155.293 Y32.09 E163.81767
G1 X152.306 Y30.83 E163.94706
G1 X149.276 Y29.675 E164.07648
G1 X146.21 Y28.624 E164.20584
G1 X143.108 Y27.681 E164.33524
G1 X139.973 Y26.847 E164.46472
G1 X136.814 Y26.122 E164.59408
G1 X133.631 Y25.506 E164.72348
G1 X130.427 Y25.002 E164.85293
G1 X127.211 Y24.608 E164.98224
G1 X123.98 Y24.327 E165.11169
G1 X120.742 Y24.158 E165.2411
G1 X117.5 Y24.103 E165.37051
G1 X114.258 Y24.158 E165.49993
G1 X111.02 Y24.327 E165.62934
G1 X107.789 Y24.608 E165.75878
G1 X104.573 Y25.002 E165.8881
G1 X101.369 Y25.506 E166.01755
G1 X98.186 Y26.122 E166.14695
G1 X95.027 Y26.847 E166.27631
G1 X91.892 Y27.681 E166.40578
G1 X88.79 Y28.624 E166.53519
G1 X85.724 Y29.675 E166.66455
G1 X82.694 Y30.83 E166.79397
G1 X79.707 Y32.09 E166.92336
G1 X76.767 Y33.454 E167.05271
G1 X73.873 Y34.917 E167.18214
G1 X71.032 Y36.482 E167.3116
G1 X68.249 Y38.144 E167.44097
G1 X65.524 Y39.902 E167.5704
G1 X62.862 Y41.753 E167.69981
G1 X60.266 Y43.694 E167.82918
G1 X57.738 Y45.726 E167.95863
G1 X55.283 Y47.843 E168.08802
G1 X52.304 Y50.598 E168.24997
G1 X52.153 Y50.738 E168.25818
G1 X52.298 Y50.883 E168.26341
G1 X52.299 Y50.884 E168.26347
G1 X117.359 Y115.946 E171.93579
G1 X117.5 Y116.087 E171.94093
M204 S5000
M205 X30 Y30
G1 F2400 E166.94093
G0 F3600 X74.727 Y73.582
G0 X73.038 Y75.274
G0 X50.754 Y52.98
G0 X48.261 Y55.657
G0 X46.156 Y58.097
G0 X44.137 Y60.609
G0 X42.207 Y63.19
G0 X40.367 Y65.837
G0 X38.621 Y68.544
G0 X36.968 Y71.311
G0 X35.413 Y74.136
G0 X33.959 Y77.011
G0 X32.603 Y79.934
G0 X31.349 Y82.903
G0 X30.202 Y85.915
G0 X29.158 Y88.963
G0 X28.221 Y92.047
G0 X27.391 Y95.162
G0 X26.669 Y98.303
G0 X26.058 Y101.466
G0 X25.557 Y104.65
G0 X25.166 Y107.848
G0 X24.914 Y110.738
G0 X24.327 Y123.98
M204 S500
M205 X20 Y20
G1 F2400 E171.94093
G1 F1800 X24.608 Y127.211 E172.07038
G1 X25.002 Y130.427 E172.19969
G1 X25.506 Y133.631 E172.32915
G1 X26.122 Y136.814 E172.45854
G1 X26.847 Y139.973 E172.5879
G1 X27.681 Y143.108 E172.71738
G1 X28.624 Y146.21 E172.84678
G1 X29.675 Y149.276 E172.97614
G1 X30.83 Y152.306 E173.10556
G1 X32.09 Y155.293 E173.23495
G1 X33.454 Y158.233 E173.36431
G1 X34.917 Y161.127 E173.49374
G1 X36.482 Y163.968 E173.62319
G1 X38.144 Y166.751 E173.75257
G1 X39.902 Y169.476 E173.882
G1 X41.753 Y172.138 E174.0114
G1 X43.694 Y174.734 E174.14078
G1 X45.726 Y177.262 E174.27023
G1 X47.843 Y179.717 E174.39961
G1 X50.598 Y182.696 E174.56156
G1 X50.738 Y182.847 E174.56978
G1 X50.883 Y182.702 E174.57501
G1 X50.884 Y182.701 E174.57507
G1 X116.087 Y117.5 E178.25535
G1 X50.884 Y52.299 E181.93563
G1 X50.883 Y52.298 E181.93569
G1 X50.738 Y52.153 E181.94387
G1 X50.598 Y52.304 E181.94912
G1 X47.843 Y55.283 E182.11107
G1 X45.726 Y57.738 E182.24046
G1 X43.694 Y60.266 E182.36991
G1 X41.753 Y62.862 E182.49928
G1 X39.902 Y65.524 E182.62869
G1 X38.144 Y68.249 E182.75812
G1 X36.482 Y71.032 E182.88749
G1 X34.917 Y73.873 E183.01695
G1 X33.454 Y76.767 E183.14638
G1 X32.09 Y79.707 E183.27573
G1 X30.83 Y82.694 E183.40512
G1 X29.675 Y85.724 E183.53454
G1 X28.624 Y88.79 E183.6639
G1 X27.681 Y91.892 E183.79331
G1 X26.847 Y95.027 E183.92278
G1 X26.122 Y98.186 E184.05214
G1 X25.506 Y101.369 E184.18154
G1 X25.002 Y104.573 E184.31099
G1 X24.608 Y107.789 E184.44031
G1 X24.327 Y111.02 E184.56975
G1 X24.158 Y114.258 E184.69916
G1 X24.103 Y117.5 E184.82858
G1 X24.158 Y120.742 E184.95799
G1 X24.327 Y123.98 E185.0874
M204 S5000
M205 X30 Y30
G1 F2400 E180.0874
G0 F3600 X26.669 Y136.697
G0 X27.391 Y139.838
G0 X28.221 Y142.953
G0 X29.158 Y146.037
G0 X30.202 Y149.085
G0 X31.349 Y152.097
G0 X32.603 Y155.066
G0 X33.959 Y157.989
G0 X35.413 Y160.864
G0 X36.968 Y163.689
G0 X38.621 Y166.456
G0 X40.367 Y169.163
G0 X42.207 Y171.81
G0 X44.137 Y174.391
G0 X46.156 Y176.903
G0 X48.305 Y179.353
G0 X48.29 Y179.317
G0 X49.076 Y178.601
G0 X49.065 Y178.64
G0 X49.056 Y178.684
G0 X47.702 Y184.841
G0 X47.693 Y184.885
G0 X47.684 Y184.928
G0 X49.037 Y183.661
G0 X51.204 Y186.097
M204 S500
M205 X20 Y20
G1 F2400 E185.0874
G1 F1800 X48.903 Y183.796 E185.21728
