;FLAVOR:Marlin
;TIME:3068
;Filament used: 1.85457m
;Layer height: 0.15
;Generated with Cura_SteamEngine 3.6.0
M140 S75
M105
M190 S75
M104 S245
M105
M109 S245
M82 ;absolute extrusion mode
; Ender 3 Custom Start G-code
G28 ; Home all axes
G92 E0 ; Reset Extruder
G1 Z2.0 F3000 ; Move Z Axis up little to prevent scratching of Heat Bed
G1 X0.1 Y20 Z0.3 F5000.0 ; Move to start position
G1 X0.1 Y200.0 Z0.3 F1500.0 E15 ; Draw the first line
G1 X0.4 Y200.0 Z0.3 F5000.0 ; Move to side a little
G1 X0.4 Y20 Z0.3 F1500.0 E30 ; Draw the second line
G92 E0 ; Reset Extruder
G1 Z2.0 F3000 ; Move Z Axis up little to prevent scratching of Heat Bed
; End of custom start GCode
G92 E0
G1 F2400 E-6
;LAYER_COUNT:109
;LAYER:0
M107
M204 S5000
M205 X30 Y30
G0 F9000 X82.504 Y100.499 Z0.2
M204 S500
M205 X20 Y20
;TYPE:SKIRT
G1 F2400 E0
G1 F1200 X83.086 Y100.084 E0.02377
G1 X83.711 Y99.735 E0.04758
G1 X84.371 Y99.459 E0.07138
G1 X85.057 Y99.258 E0.09515
G1 X85.762 Y99.135 E0.11896
G1 X86.51 Y99.091 E0.14388
G1 X126.49 Y99.093 E1.47362
G1 X127.204 Y99.133 E1.4974
G1 X127.91 Y99.252 E1.52122
G1 X128.597 Y99.45 E1.545
G1 X129.258 Y99.723 E1.56878
G1 X129.885 Y100.068 E1.59258
G1 X130.469 Y100.48 E1.61635
G1 X131.004 Y100.956 E1.64017
G1 X131.482 Y101.488 E1.66396
G1 X131.897 Y102.07 E1.68773
G1 X132.246 Y102.694 E1.71151
G1 X132.522 Y103.354 E1.73531
G1 X132.723 Y104.041 E1.75912
G1 X132.846 Y104.745 E1.78289
G1 X132.89 Y105.493 E1.80781
G1 X132.891 Y129.559 E2.60825
G1 X132.851 Y130.273 E2.63203
G1 X132.732 Y130.978 E2.65581
G1 X132.534 Y131.666 E2.67962
G1 X132.262 Y132.327 E2.7034
G1 X131.917 Y132.953 E2.72717
G1 X131.504 Y133.538 E2.75099
G1 X131.029 Y134.072 E2.77476
G1 X130.497 Y134.55 E2.79855
G1 X129.915 Y134.966 E2.82234
G1 X129.29 Y135.314 E2.84613
G1 X128.63 Y135.591 E2.86994
G1 X127.944 Y135.792 E2.89371
G1 X127.239 Y135.915 E2.91752
G1 X126.491 Y135.959 E2.94244
G1 X86.51 Y135.958 E4.27221
G1 X85.796 Y135.918 E4.296
G1 X85.09 Y135.799 E4.31981
G1 X84.403 Y135.601 E4.34359
G1 X83.742 Y135.328 E4.36738
G1 X83.115 Y134.983 E4.39118
G1 X82.531 Y134.571 E4.41495
G1 X81.997 Y134.095 E4.43874
G1 X81.518 Y133.563 E4.46255
G1 X81.103 Y132.981 E4.48633
G1 X80.754 Y132.357 E4.51011
G1 X80.478 Y131.697 E4.5339
G1 X80.277 Y131.011 E4.55768
G1 X80.154 Y130.306 E4.58148
G1 X80.11 Y129.558 E4.6064
G1 X80.11 Y105.491 E5.40687
G1 X80.15 Y104.777 E5.43066
G1 X80.269 Y104.072 E5.45444
G1 X80.467 Y103.384 E5.47825
G1 X80.74 Y102.723 E5.50204
G1 X81.084 Y102.096 E5.52582
G1 X81.497 Y101.512 E5.54961
G1 X81.972 Y100.978 E5.57338
G1 X82.504 Y100.499 E5.59719
M204 S5000
M205 X30 Y30
G0 F9000 X82.894 Y100.703
M204 S500
M205 X20 Y20
G1 F1200 X83.469 Y100.318 E5.62021
G1 X84.086 Y100.003 E5.64325
G1 X84.734 Y99.76 E5.66627
G1 X85.407 Y99.593 E5.68933
G1 X86.093 Y99.505 E5.71233
G1 X86.51 Y99.491 E5.72621
G1 X126.49 Y99.493 E7.05595
G1 X127.182 Y99.533 E7.07901
G1 X127.864 Y99.652 E7.10203
G1 X128.528 Y99.85 E7.12508
G1 X129.164 Y100.122 E7.14808
G1 X129.765 Y100.466 E7.17112
G1 X130.323 Y100.877 E7.19417
G1 X130.829 Y101.349 E7.21718
G1 X131.278 Y101.877 E7.24023
G1 X131.663 Y102.453 E7.26328
G1 X131.979 Y103.069 E7.2863
G1 X132.221 Y103.718 E7.30934
G1 X132.388 Y104.39 E7.33237
G1 X132.476 Y105.077 E7.35541
G1 X132.49 Y105.493 E7.36925
G1 X132.491 Y129.559 E8.16969
G1 X132.451 Y130.25 E8.19271
G1 X132.332 Y130.932 E8.21574
G1 X132.135 Y131.596 E8.23877
G1 X131.862 Y132.233 E8.26183
G1 X131.518 Y132.834 E8.28486
G1 X131.107 Y133.392 E8.30791
G1 X130.635 Y133.898 E8.33092
G1 X130.108 Y134.347 E8.35395
G1 X129.532 Y134.731 E8.37697
G1 X128.916 Y135.047 E8.4
G1 X128.267 Y135.29 E8.42305
G1 X127.595 Y135.457 E8.44608
G1 X126.908 Y135.545 E8.46912
G1 X126.491 Y135.559 E8.483
G1 X86.51 Y135.558 E9.81277
G1 X85.818 Y135.518 E9.83582
G1 X85.136 Y135.399 E9.85885
G1 X84.472 Y135.201 E9.88189
G1 X83.836 Y134.929 E9.9049
G1 X83.235 Y134.585 E9.92793
G1 X82.677 Y134.174 E9.95098
G1 X82.171 Y133.702 E9.974
G1 X81.722 Y133.174 E9.99705
G1 X81.337 Y132.598 E10.02009
G1 X81.022 Y131.982 E10.04311
G1 X80.779 Y131.334 E10.06612
G1 X80.612 Y130.661 E10.08919
G1 X80.524 Y129.974 E10.11222
G1 X80.51 Y129.558 E10.12607
G1 X80.51 Y105.491 E10.92654
G1 X80.55 Y104.8 E10.94956
G1 X80.669 Y104.117 E10.97262
G1 X80.867 Y103.454 E10.99563
G1 X81.139 Y102.817 E11.01867
G1 X81.483 Y102.216 E11.0417
G1 X81.894 Y101.658 E11.06475
G1 X82.366 Y101.152 E11.08777
G1 X82.894 Y100.703 E11.11082
M204 S5000
M205 X30 Y30
G0 F9000 X82.759 Y101.333
M204 S500
M205 X20 Y20
G1 F1200 X83.281 Y100.915 E11.13306
G1 X83.85 Y100.563 E11.15532
G1 X84.457 Y100.281 E11.17758
G1 X85.093 Y100.073 E11.19983
G1 X85.749 Y99.943 E11.22208
G1 X86.51 Y99.891 E11.24745
G1 X126.49 Y99.893 E12.57719
G1 X127.158 Y99.933 E12.59944
G1 X127.816 Y100.052 E12.62168
G1 X128.456 Y100.249 E12.64396
G1 X129.067 Y100.521 E12.6662
G1 X129.642 Y100.864 E12.68847
G1 X130.171 Y101.273 E12.71071
G1 X130.648 Y101.742 E12.73296
G1 X131.066 Y102.265 E12.75523
G1 X131.418 Y102.833 E12.77745
G1 X131.7 Y103.44 E12.79971
G1 X131.908 Y104.076 E12.82197
G1 X132.038 Y104.732 E12.84421
G1 X132.09 Y105.493 E12.86958
G1 X132.091 Y129.559 E13.67002
G1 X132.051 Y130.227 E13.69228
G1 X131.932 Y130.885 E13.71452
G1 X131.735 Y131.524 E13.73676
G1 X131.463 Y132.136 E13.75903
G1 X131.12 Y132.71 E13.78128
G1 X130.711 Y133.24 E13.80354
G1 X130.242 Y133.717 E13.82579
G1 X129.72 Y134.135 E13.84803
G1 X129.151 Y134.487 E13.87029
G1 X128.544 Y134.769 E13.89255
G1 X127.908 Y134.977 E13.9148
G1 X127.252 Y135.107 E13.93705
G1 X126.491 Y135.159 E13.96242
G1 X86.51 Y135.158 E15.29219
G1 X85.842 Y135.118 E15.31445
G1 X85.184 Y134.999 E15.33669
G1 X84.544 Y134.802 E15.35896
G1 X83.933 Y134.53 E15.3812
G1 X83.359 Y134.187 E15.40345
G1 X82.829 Y133.778 E15.42571
G1 X82.352 Y133.309 E15.44796
G1 X81.934 Y132.786 E15.47023
G1 X81.582 Y132.218 E15.49245
G1 X81.3 Y131.611 E15.51472
G1 X81.092 Y130.975 E15.53697
G1 X80.962 Y130.319 E15.55921
G1 X80.91 Y129.558 E15.58458
G1 X80.91 Y105.491 E16.38506
G1 X80.95 Y104.823 E16.40731
G1 X81.069 Y104.165 E16.42955
G1 X81.266 Y103.525 E16.45183
G1 X81.538 Y102.914 E16.47407
G1 X81.881 Y102.34 E16.49631
G1 X82.29 Y101.81 E16.51858
G1 X82.759 Y101.333 E16.54083
M204 S5000
M205 X30 Y30
G0 F9000 X83.15 Y101.522
M204 S500
M205 X20 Y20
G1 F1200 X83.667 Y101.137 E16.56227
G1 X84.228 Y100.818 E16.58373
G1 X84.824 Y100.572 E16.60518
G1 X85.445 Y100.401 E16.6266
G1 X86.083 Y100.309 E16.64804
G1 X86.51 Y100.291 E16.66225
G1 X126.49 Y100.293 E17.99199
G1 X127.134 Y100.333 E18.01345
G1 X127.767 Y100.452 E18.03488
G1 X128.381 Y100.649 E18.05632
G1 X128.966 Y100.92 E18.07777
G1 X129.513 Y101.262 E18.09922
G1 X130.013 Y101.668 E18.12065
G1 X130.459 Y102.134 E18.1421
G1 X130.844 Y102.651 E18.16354
G1 X131.163 Y103.211 E18.18498
G1 X131.409 Y103.807 E18.20642
G1 X131.58 Y104.429 E18.22788
G1 X131.672 Y105.067 E18.24932
G1 X131.69 Y105.493 E18.2635
G1 X131.691 Y129.559 E19.06394
G1 X131.651 Y130.202 E19.08536
G1 X131.532 Y130.836 E19.10682
G1 X131.335 Y131.45 E19.12827
G1 X131.064 Y132.035 E19.14971
G1 X130.722 Y132.581 E19.17114
G1 X130.316 Y133.082 E19.19259
G1 X129.851 Y133.528 E19.21402
G1 X129.334 Y133.913 E19.23545
G1 X128.773 Y134.231 E19.2569
G1 X128.177 Y134.478 E19.27836
G1 X127.556 Y134.649 E19.29978
G1 X126.918 Y134.741 E19.32122
G1 X126.491 Y134.759 E19.33544
G1 X86.51 Y134.758 E20.66521
G1 X85.866 Y134.718 E20.68667
G1 X85.233 Y134.599 E20.7081
G1 X84.619 Y134.402 E20.72954
G1 X84.034 Y134.131 E20.75099
G1 X83.487 Y133.789 E20.77244
G1 X82.987 Y133.383 E20.79386
G1 X82.541 Y132.917 E20.81532
G1 X82.156 Y132.4 E20.83676
G1 X81.837 Y131.84 E20.85819
G1 X81.591 Y131.244 E20.87964
G1 X81.42 Y130.623 E20.90106
G1 X81.328 Y129.985 E20.9225
G1 X81.31 Y129.558 E20.93672
G1 X81.31 Y105.491 E21.73719
G1 X81.35 Y104.848 E21.75862
G1 X81.469 Y104.214 E21.78007
G1 X81.666 Y103.6 E21.80152
G1 X81.937 Y103.015 E21.82296
G1 X82.279 Y102.468 E21.84442
G1 X82.685 Y101.968 E21.86584
G1 X83.15 Y101.522 E21.88727
M204 S5000
M205 X30 Y30
G1 F2400 E15.88727
;MESH:e9067568-f14c-4a8f-b552-33027f8b0736.stl
G0 F9000 X87.114 Y104.692
G0 X87.114 Y106.096
G0 X94.723 Y106.182
G0 X94.723 Y106.082
M204 S500
M205 X20 Y20
;TYPE:WALL-INNER
G1 F2400 E21.88727
G1 F1200 X94.727 Y106.082 E21.8874
G1 X95.113 Y106.082 E21.90024
G1 X95.499 Y106.082 E21.91308
G1 X95.887 Y106.082 E21.92598
G1 X96.275 Y106.082 E21.93889
G1 X96.284 Y106.082 E21.93919
G1 X103.9 Y106.083 E22.1925
G1 X103.9 Y128.968 E22.95366
G1 X96.266 Y128.968 E23.20756
G1 X96.088 Y128.968 E23.21348
G1 X95.706 Y128.968 E23.22619
G1 X95.485 Y128.968 E23.23354
G1 X95.104 Y128.968 E23.24621
G1 X94.719 Y128.968 E23.25902
G1 X94.715 Y128.968 E23.25915
G1 X87.1 Y128.967 E23.51243
G1 X87.1 Y106.082 E24.27359
G1 X94.723 Y106.082 E24.52713
M204 S5000
M205 X30 Y30
G0 F9000 X94.723 Y106.182
G0 X92.67 Y107.244
G0 X91.827 Y107.89
G0 X90.812 Y109.028
G0 X90.086 Y110.206
G0 X89.437 Y111.768
G0 X89.031 Y113.447
G0 X88.864 Y115.219
G0 X88.903 Y120.59
G0 X89.177 Y122.342
G0 X89.67 Y123.93
G0 X90.316 Y125.263
G0 X91.217 Y126.532
G0 X91.994 Y127.306
G0 X93.008 Y128.009
G0 X93.54 Y128.242
G0 X94.697 Y128.666
G0 X94.716 Y128.569
M204 S500
M205 X20 Y20
G1 F1200 X94.719 Y128.569 E24.52723
G1 X95.104 Y128.616 E24.53934
G1 X95.485 Y128.631 E24.55026
G1 X95.706 Y128.628 E24.55648
G1 X96.088 Y128.597 E24.56782
G1 X96.263 Y128.569 E24.5735
G1 X96.474 Y128.534 E24.58061
G1 X96.853 Y128.44 E24.5936
G1 X97.227 Y128.317 E24.60669
G1 X97.593 Y128.165 E24.61987
G1 X97.946 Y127.989 E24.63299
G1 X98.145 Y127.876 E24.6406
G1 X98.486 Y127.656 E24.6541
G1 X98.819 Y127.408 E24.66791
G1 X99.139 Y127.135 E24.6819
G1 X99.444 Y126.841 E24.69599
G1 X99.733 Y126.527 E24.71019
G1 X99.892 Y126.341 E24.71832
G1 X100.157 Y125.998 E24.73274
G1 X100.408 Y125.632 E24.7475
G1 X100.658 Y125.229 E24.76328
G1 X100.782 Y125.006 E24.77176
G1 X100.988 Y124.607 E24.7867
G1 X101.273 Y123.964 E24.81009
G1 X101.524 Y123.274 E24.83451
G1 X101.644 Y122.87 E24.84853
G1 X101.781 Y122.343 E24.86664
G1 X101.841 Y122.076 E24.87574
G1 X101.933 Y121.59 E24.89219
G1 X102.005 Y121.093 E24.90889
G1 X102.055 Y120.594 E24.92557
G1 X102.088 Y120.093 E24.94227
G1 X102.099 Y119.588 E24.95907
G1 X102.092 Y119.083 E24.97587
G1 X102.064 Y118.576 E24.99276
G1 X102.014 Y118.069 E25.00971
G1 X101.934 Y117.525 E25.02799
G1 X102.007 Y117.027 E25.04473
G1 X102.06 Y116.499 E25.06238
G1 X102.09 Y115.985 E25.07951
G1 X102.1 Y115.475 E25.09647
G1 X102.09 Y114.97 E25.11327
G1 X102.058 Y114.463 E25.13017
G1 X101.97 Y113.701 E25.15568
G1 X101.887 Y113.206 E25.17238
G1 X101.786 Y112.722 E25.18882
G1 X101.681 Y112.304 E25.20316
G1 X101.505 Y111.721 E25.22341
G1 X101.272 Y111.083 E25.246
G1 X101.087 Y110.653 E25.26157
G1 X100.891 Y110.247 E25.27657
G1 X100.651 Y109.809 E25.29318
G1 X100.289 Y109.237 E25.31569
G1 X100.031 Y108.885 E25.33021
G1 X99.883 Y108.699 E25.33811
G1 X99.601 Y108.374 E25.35243
G1 X99.302 Y108.065 E25.36673
G1 X98.992 Y107.784 E25.38064
G1 X98.809 Y107.633 E25.38853
G1 X98.478 Y107.389 E25.40221
G1 X98.136 Y107.168 E25.41575
G1 X97.782 Y106.973 E25.4292
G1 X97.419 Y106.808 E25.44246
G1 X97.05 Y106.671 E25.45555
G1 X96.673 Y106.562 E25.4686
G1 X96.283 Y106.481 E25.48185
G1 X96.275 Y106.48 E25.48212
G1 X95.887 Y106.433 E25.49429
G1 X95.499 Y106.419 E25.5054
G1 X95.113 Y106.434 E25.51646
G1 X94.727 Y106.481 E25.52861
G1 X94.724 Y106.481 E25.52871
G1 X94.352 Y106.557 E25.54134
G1 X94.137 Y106.613 E25.54872
G1 X93.765 Y106.734 E25.56174
G1 X93.396 Y106.888 E25.57503
G1 X93.039 Y107.069 E25.58835
G1 X92.691 Y107.277 E25.60183
G1 X92.354 Y107.511 E25.61548
G1 X92.034 Y107.765 E25.62907
G1 X91.853 Y107.919 E25.63697
G1 X91.548 Y108.216 E25.65113
G1 X91.254 Y108.536 E25.66558
G1 X90.843 Y109.052 E25.68752
G1 X90.7 Y109.254 E25.69576
G1 X90.463 Y109.618 E25.7102
G1 X90.121 Y110.224 E25.73335
G1 X89.925 Y110.631 E25.74837
G1 X89.724 Y111.097 E25.76525
G1 X89.622 Y111.362 E25.7747
G1 X89.475 Y111.78 E25.78943
G1 X89.274 Y112.479 E25.81362
G1 X89.161 Y112.964 E25.83019
G1 X89.07 Y113.453 E25.84673
G1 X88.998 Y113.943 E25.8632
G1 X88.966 Y114.217 E25.87238
G1 X88.925 Y114.716 E25.88903
G1 X88.903 Y115.219 E25.90578
G1 X88.902 Y115.728 E25.92271
G1 X88.922 Y116.241 E25.93978
G1 X88.963 Y116.758 E25.95703
G1 X89.066 Y117.527 E25.98284
G1 X88.993 Y118.023 E25.99951
G1 X88.94 Y118.551 E26.01716
G1 X88.909 Y119.065 E26.03429
G1 X88.9 Y119.575 E26.05125
G1 X88.91 Y120.081 E26.06809
G1 X88.942 Y120.587 E26.08495
G1 X89.03 Y121.35 E26.11049
G1 X89.113 Y121.844 E26.12716
G1 X89.215 Y122.333 E26.14377
G1 X89.406 Y123.047 E26.16835
G1 X89.554 Y123.502 E26.18427
G1 X89.707 Y123.916 E26.19895
G1 X89.915 Y124.402 E26.21653
G1 X90.026 Y124.634 E26.22508
G1 X90.23 Y125.029 E26.23987
G1 X90.35 Y125.243 E26.24803
G1 X90.581 Y125.618 E26.26268
G1 X90.715 Y125.819 E26.27071
G1 X90.972 Y126.169 E26.28516
G1 X91.247 Y126.506 E26.29962
G1 X91.41 Y126.687 E26.30772
G1 X91.705 Y126.992 E26.32184
G1 X92.019 Y127.276 E26.33592
G1 X92.344 Y127.535 E26.34974
G1 X92.684 Y127.771 E26.36351
G1 X93.027 Y127.975 E26.37678
G1 X93.228 Y128.082 E26.38435
G1 X93.59 Y128.247 E26.39759
G1 X93.96 Y128.384 E26.41071
G1 X94.337 Y128.491 E26.42374
G1 X94.716 Y128.569 E26.43661
M204 S5000
M205 X30 Y30
G0 F9000 X94.697 Y128.666
G0 X93.211 Y128.117
G0 X92.321 Y127.567
G0 X91.381 Y126.714
G0 X90.548 Y125.639
G0 X89.879 Y124.418
G0 X89.368 Y123.058
G0 X88.991 Y121.355
G0 X88.86 Y119.575
G0 X88.886 Y114.714
G0 X89.122 Y112.956
G0 X89.585 Y111.349
G0 X90.086 Y110.206
G0 X90.812 Y109.028
G0 X91.827 Y107.89
G0 X92.67 Y107.244
G0 X93.752 Y106.697
G0 X94.536 Y106.491
G0 X95.874 Y106.333
G0 X95.856 Y106.832
M204 S500
M205 X20 Y20
;TYPE:WALL-OUTER
G1 F1200 X95.5 Y106.819 E26.44846
G1 X95.145 Y106.833 E26.46028
G1 X94.791 Y106.876 E26.47214
G1 X94.442 Y106.947 E26.48398
G1 X94.249 Y106.997 E26.49061
G1 X93.904 Y107.109 E26.50268
G1 X93.564 Y107.251 E26.51493
G1 X93.232 Y107.419 E26.52731
G1 X92.908 Y107.613 E26.53987
G1 X92.593 Y107.832 E26.55263
G1 X92.288 Y108.074 E26.56558
G1 X92.123 Y108.215 E26.5728
G1 X91.835 Y108.495 E26.58616
G1 X91.558 Y108.796 E26.59976
G1 X91.163 Y109.292 E26.62085
G1 X91.031 Y109.479 E26.62847
G1 X90.803 Y109.829 E26.64236
G1 X90.685 Y110.028 E26.65005
G1 X90.477 Y110.407 E26.66443
G1 X90.289 Y110.797 E26.67883
G1 X90.094 Y111.248 E26.69518
G1 X89.997 Y111.5 E26.70416
G1 X89.856 Y111.902 E26.71833
G1 X89.661 Y112.58 E26.74179
G1 X89.553 Y113.046 E26.7577
G1 X89.465 Y113.519 E26.7737
G1 X89.395 Y113.996 E26.78974
G1 X89.364 Y114.257 E26.79848
G1 X89.324 Y114.741 E26.81463
G1 X89.303 Y115.228 E26.83084
G1 X89.302 Y115.721 E26.84724
G1 X89.321 Y116.217 E26.86375
G1 X89.361 Y116.717 E26.88043
G1 X89.429 Y117.262 E26.8987
G1 X89.47 Y117.527 E26.90762
G1 X89.39 Y118.072 E26.92594
G1 X89.339 Y118.583 E26.94302
G1 X89.309 Y119.081 E26.95962
G1 X89.3 Y119.575 E26.97605
G1 X89.31 Y120.064 E26.99232
G1 X89.341 Y120.552 E27.00858
G1 X89.426 Y121.294 E27.03342
G1 X89.506 Y121.77 E27.04947
G1 X89.604 Y122.24 E27.06544
G1 X89.79 Y122.933 E27.08931
G1 X89.932 Y123.371 E27.10462
G1 X90.079 Y123.768 E27.1187
G1 X90.28 Y124.237 E27.13567
G1 X90.384 Y124.456 E27.14374
G1 X90.582 Y124.839 E27.15808
G1 X90.695 Y125.04 E27.16575
G1 X90.918 Y125.402 E27.17989
G1 X91.043 Y125.59 E27.1874
G1 X91.288 Y125.924 E27.20117
G1 X91.551 Y126.246 E27.215
G1 X91.702 Y126.414 E27.22252
G1 X91.983 Y126.704 E27.23595
G1 X92.278 Y126.971 E27.24918
G1 X92.583 Y127.214 E27.26215
G1 X92.9 Y127.434 E27.27498
G1 X93.223 Y127.626 E27.28748
G1 X93.405 Y127.723 E27.29434
G1 X93.742 Y127.877 E27.30666
G1 X94.084 Y128.003 E27.31879
G1 X94.432 Y128.102 E27.33082
G1 X94.783 Y128.174 E27.34274
G1 X95.136 Y128.217 E27.35457
G1 X95.49 Y128.231 E27.36635
G1 X95.687 Y128.228 E27.3729
G1 X96.04 Y128.2 E27.38468
G1 X96.393 Y128.142 E27.39658
G1 X96.742 Y128.055 E27.40854
G1 X97.088 Y127.942 E27.42065
G1 X97.427 Y127.801 E27.43286
G1 X97.758 Y127.636 E27.44516
G1 X97.938 Y127.534 E27.45204
G1 X98.258 Y127.327 E27.46472
G1 X98.57 Y127.095 E27.47765
G1 X98.87 Y126.839 E27.49077
G1 X99.158 Y126.561 E27.50408
G1 X99.434 Y126.262 E27.51761
G1 X99.581 Y126.089 E27.52516
