;FLAVOR:Marlin
;TIME:399
;Filament used: 0.167092m
;Layer height: 0.12
;MINX:73.46
;MINY:73.46
;MINZ:0.12
;MAXX:146.54
;MAXY:146.54
;MAXZ:0.96
;Generated with Cura_SteamEngine 4.2.1
M140 S50
M105
M190 S50
M104 S195
M105
M109 S195
M82 ;absolute extrusion mode
M201 X500.00 Y500.00 Z100.00 E5000.00 ;Setup machine max acceleration
M203 X500.00 Y500.00 Z10.00 E50.00 ;Setup machine max feedrate
M204 P500.00 R1000.00 T500.00 ;Setup Print/Retract/Travel acceleration
M205 X8.00 Y8.00 Z0.40 E5.00 ;Setup Jerk
M220 S100 ;Reset Feedrate
M221 S100 ;Reset Flowrate

G28 ;Home

G92 E0 ;Reset Extruder
G1 Z2.0 F3000 ;Move Z Axis up
G1 X10.1 Y20 Z0.28 F5000.0 ;Move to start position
G1 X10.1 Y200.0 Z0.28 F1500.0 E15 ;Draw the first line
G1 X10.4 Y200.0 Z0.28 F5000.0 ;Move to side a little
G1 X10.4 Y20 Z0.28 F1500.0 E30 ;Draw the second line
G92 E0 ;Reset Extruder
G1 Z2.0 F3000 ;Move Z Axis up

M141 S28
G92 E0
G92 E0
G1 F2700 E-6
;LAYER_COUNT:8
;LAYER:0
M107
G0 F6000 X79.727 Y79.825 Z0.12
;TYPE:SKIRT
G1 F2700 E0
G1 F1200 X80.122 Y79.439 E0.01212
G1 X80.563 Y79.029 E0.02534
G1 X81.04 Y78.61 E0.03928
G1 X81.427 Y78.288 E0.05033
G1 X81.872 Y77.936 E0.06279
G1 X82.243 Y77.657 E0.07298
G1 X82.705 Y77.327 E0.08544
G1 X83.161 Y77.018 E0.09753
G1 X83.69 Y76.68 E0.11131
G1 X84.081 Y76.445 E0.12132
G1 X84.566 Y76.169 E0.13357
G1 X85.065 Y75.901 E0.14601
G1 X85.618 Y75.623 E0.1596
G1 X86.114 Y75.39 E0.17162
G1 X86.675 Y75.145 E0.18506
G1 X87.135 Y74.958 E0.19596
G1 X87.727 Y74.736 E0.20984
G1 X88.131 Y74.597 E0.21922
G1 X88.44 Y74.495 E0.22636
G1 X88.667 Y74.424 E0.23158
G1 X88.98 Y74.331 E0.23875
G1 X89.402 Y74.212 E0.24838
G1 X89.93 Y74.077 E0.26034
G1 X90.366 Y73.976 E0.27017
G1 X90.947 Y73.857 E0.28318
G1 X91.475 Y73.763 E0.29496
G1 X92.058 Y73.674 E0.3079
G1 X92.575 Y73.609 E0.31934
G1 X93.169 Y73.55 E0.33244
G1 X93.686 Y73.512 E0.34382
G1 X94.344 Y73.483 E0.35828
G1 X95.512 Y73.464 E0.38393
G1 X95.699 Y73.462 E0.38803
G1 X124.343 Y73.46 E1.01681
G1 X124.483 Y73.461 E1.01989
G1 X125.315 Y73.471 E1.03815
G1 X125.63 Y73.479 E1.04507
G1 X126.087 Y73.497 E1.05511
G1 X126.664 Y73.534 E1.0678
G1 X127.199 Y73.582 E1.07959
G1 X127.789 Y73.65 E1.09263
G1 X128.212 Y73.71 E1.10201
G1 X128.736 Y73.797 E1.11367
G1 X129.27 Y73.898 E1.1256
G1 X129.924 Y74.042 E1.1403
G1 X130.508 Y74.188 E1.15351
G1 X131.064 Y74.342 E1.16618
G1 X131.426 Y74.452 E1.17448
G1 X131.735 Y74.55 E1.1816
G1 X131.953 Y74.623 E1.18665
G1 X132.274 Y74.736 E1.19412
G1 X132.649 Y74.874 E1.20289
G1 X133.202 Y75.094 E1.21595
G1 X133.686 Y75.301 E1.22751
G1 X134.206 Y75.538 E1.24005
G1 X134.649 Y75.754 E1.25087
G1 X135.166 Y76.023 E1.26367
G1 X135.63 Y76.279 E1.2753
G1 X136.131 Y76.572 E1.28804
G1 X136.575 Y76.847 E1.2995
G1 X137.096 Y77.19 E1.3132
G1 X137.495 Y77.468 E1.32387
G1 X137.975 Y77.821 E1.33695
G1 X138.391 Y78.144 E1.34851
G1 X138.713 Y78.403 E1.35758
G1 X138.871 Y78.535 E1.3621
G1 X139.069 Y78.705 E1.36783
G1 X139.396 Y78.991 E1.37737
G1 X139.865 Y79.424 E1.39138
G1 X140.175 Y79.727 E1.4009
G1 X140.561 Y80.122 E1.41302
G1 X140.971 Y80.563 E1.42624
G1 X141.39 Y81.04 E1.44017
G1 X141.712 Y81.427 E1.45123
G1 X142.067 Y81.876 E1.46379
G1 X142.342 Y82.242 E1.47384
G1 X142.66 Y82.687 E1.48585
G1 X142.972 Y83.146 E1.49803
G1 X143.321 Y83.692 E1.51225
G1 X143.557 Y84.085 E1.52232
G1 X143.832 Y84.569 E1.53454
G1 X144.095 Y85.059 E1.54675
G1 X144.366 Y85.596 E1.55995
G1 X144.604 Y86.101 E1.5722
G1 X144.855 Y86.675 E1.58596
G1 X145.042 Y87.135 E1.59686
G1 X145.252 Y87.692 E1.60992
G1 X145.39 Y88.089 E1.61915
G1 X145.514 Y88.467 E1.62788
G1 X145.583 Y88.69 E1.63301
G1 X145.664 Y88.962 E1.63924
G1 X145.785 Y89.39 E1.649
G1 X145.923 Y89.929 E1.66121
G1 X146.025 Y90.37 E1.67115
G1 X146.143 Y90.944 E1.68401
G1 X146.237 Y91.471 E1.69577
G1 X146.326 Y92.057 E1.70878
G1 X146.391 Y92.574 E1.72022
G1 X146.45 Y93.17 E1.73336
G1 X146.488 Y93.688 E1.74476
G1 X146.517 Y94.341 E1.75911
G1 X146.536 Y95.49 E1.78434
G1 X146.538 Y95.68 E1.78851
G1 X146.54 Y124.299 E2.41675
G1 X146.539 Y124.432 E2.41966
G1 X146.529 Y125.307 E2.43887
G1 X146.521 Y125.628 E2.44592
G1 X146.503 Y126.086 E2.45598
G1 X146.466 Y126.664 E2.4687
G1 X146.418 Y127.199 E2.48049
G1 X146.35 Y127.789 E2.49353
G1 X146.29 Y128.212 E2.50291
G1 X146.204 Y128.728 E2.51439
G1 X146.106 Y129.248 E2.526
G1 X145.966 Y129.892 E2.54047
G1 X145.818 Y130.488 E2.55395
G1 X145.659 Y131.063 E2.56705
G1 X145.552 Y131.415 E2.57512
G1 X145.454 Y131.723 E2.58222
G1 X145.377 Y131.953 E2.58754
G1 X145.264 Y132.274 E2.59501
G1 X145.126 Y132.649 E2.60379
G1 X144.906 Y133.202 E2.61685
G1 X144.699 Y133.686 E2.62841
G1 X144.462 Y134.206 E2.64095
G1 X144.246 Y134.649 E2.65177
G1 X143.977 Y135.166 E2.66456
G1 X143.721 Y135.63 E2.6762
G1 X143.43 Y136.128 E2.68886
G1 X143.149 Y136.582 E2.70058
G1 X142.806 Y137.104 E2.71429
G1 X142.533 Y137.496 E2.72478
G1 X142.164 Y137.997 E2.73843
G1 X141.842 Y138.41 E2.74993
G1 X141.597 Y138.713 E2.75848
G1 X141.465 Y138.871 E2.763
G1 X141.284 Y139.082 E2.76911
G1 X140.998 Y139.408 E2.77863
G1 X140.589 Y139.851 E2.79186
G1 X140.286 Y140.162 E2.80139
G1 X139.878 Y140.561 E2.81392
G1 X139.437 Y140.971 E2.82714
G1 X138.96 Y141.39 E2.84107
G1 X138.573 Y141.712 E2.85213
G1 X138.128 Y142.064 E2.86458
G1 X137.757 Y142.343 E2.87477
G1 X137.295 Y142.673 E2.88723
G1 X136.839 Y142.982 E2.89933
G1 X136.31 Y143.32 E2.91311
G1 X135.919 Y143.555 E2.92312
G1 X135.434 Y143.831 E2.93537
G1 X134.935 Y144.099 E2.9478
G1 X134.382 Y144.377 E2.96139
G1 X133.886 Y144.61 E2.97342
G1 X133.325 Y144.855 E2.98686
G1 X132.865 Y145.042 E2.99776
G1 X132.273 Y145.264 E3.01164
G1 X131.869 Y145.403 E3.02102
G1 X131.56 Y145.505 E3.02816
G1 X131.333 Y145.576 E3.03338
G1 X131.02 Y145.669 E3.04055
G1 X130.598 Y145.788 E3.05017
G1 X130.07 Y145.923 E3.06214
G1 X129.634 Y146.024 E3.07196
G1 X129.053 Y146.143 E3.08498
G1 X128.525 Y146.237 E3.09675
G1 X127.942 Y146.326 E3.1097
G1 X127.425 Y146.391 E3.12114
G1 X126.831 Y146.45 E3.13424
G1 X126.314 Y146.488 E3.14562
G1 X125.656 Y146.517 E3.16008
G1 X124.488 Y146.536 E3.18572
G1 X124.301 Y146.538 E3.18983
G1 X95.657 Y146.54 E3.81861
G1 X95.517 Y146.539 E3.82168
G1 X94.686 Y146.529 E3.83993
G1 X94.376 Y146.521 E3.84673
G1 X93.914 Y146.503 E3.85688
G1 X93.322 Y146.465 E3.86991
G1 X92.792 Y146.417 E3.88159
G1 X92.216 Y146.35 E3.89432
G1 X91.792 Y146.29 E3.90372
G1 X91.259 Y146.202 E3.91558
G1 X90.721 Y146.1 E3.9276
G1 X90.086 Y145.961 E3.94187
G1 X89.507 Y145.817 E3.95496
G1 X88.917 Y145.654 E3.9684
G1 X88.554 Y145.543 E3.97673
G1 X88.28 Y145.455 E3.98305
G1 X88.061 Y145.382 E3.98812
G1 X87.725 Y145.264 E3.99593
G1 X87.35 Y145.126 E4.00471
G1 X86.789 Y144.903 E4.01796
G1 X86.306 Y144.696 E4.02949
G1 X85.794 Y144.462 E4.04185
G1 X85.351 Y144.246 E4.05267
G1 X84.834 Y143.977 E4.06546
G1 X84.37 Y143.721 E4.0771
G1 X83.872 Y143.43 E4.08976
G1 X83.418 Y143.149 E4.10148
G1 X82.873 Y142.79 E4.1158
G1 X82.473 Y142.51 E4.12652
G1 X82.006 Y142.165 E4.13927
G1 X81.601 Y141.85 E4.15053
G1 X81.282 Y141.593 E4.15952
G1 X81.123 Y141.46 E4.16407
G1 X80.926 Y141.291 E4.16977
G1 X80.597 Y141.003 E4.17937
G1 X80.133 Y140.574 E4.19324
G1 X79.826 Y140.274 E4.20266
G1 X79.439 Y139.878 E4.21482
G1 X79.029 Y139.437 E4.22804
G1 X78.61 Y138.96 E4.24197
G1 X78.288 Y138.573 E4.25303
G1 X77.93 Y138.12 E4.2657
G1 X77.647 Y137.743 E4.27605
G1 X77.323 Y137.289 E4.28829
G1 X77.016 Y136.836 E4.3003
G1 X76.671 Y136.296 E4.31437
G1 X76.436 Y135.904 E4.3244
G1 X76.167 Y135.43 E4.33637
G1 X75.899 Y134.931 E4.3488
G1 X75.615 Y134.365 E4.3627
G1 X75.371 Y133.844 E4.37533
G1 X75.109 Y133.24 E4.38978
G1 X74.936 Y132.808 E4.4
G1 X74.751 Y132.313 E4.4116
G1 X74.611 Y131.911 E4.42094
G1 X74.495 Y131.561 E4.42904
G1 X74.424 Y131.334 E4.43426
G1 X74.329 Y131.014 E4.44159
G1 X74.21 Y130.591 E4.45123
G1 X74.077 Y130.07 E4.46304
G1 X73.976 Y129.634 E4.47286
G1 X73.857 Y129.053 E4.48588
G1 X73.763 Y128.525 E4.49765
G1 X73.674 Y127.942 E4.5106
G1 X73.609 Y127.425 E4.52204
G1 X73.55 Y126.831 E4.53514
G1 X73.512 Y126.314 E4.54652
G1 X73.483 Y125.656 E4.56098
G1 X73.464 Y124.488 E4.58662
G1 X73.462 Y124.301 E4.59073
G1 X73.46 Y95.657 E5.21951
G1 X73.461 Y95.508 E5.22278
G1 X73.472 Y94.65 E5.24162
G1 X73.48 Y94.343 E5.24836
G1 X73.497 Y93.912 E5.25783
G1 X73.534 Y93.334 E5.27054
G1 X73.582 Y92.8 E5.28231
G1 X73.651 Y92.205 E5.29546
G1 X73.715 Y91.756 E5.30542
G1 X73.804 Y91.224 E5.31726
G1 X73.901 Y90.715 E5.32863
G1 X74.038 Y90.09 E5.34268
G1 X74.183 Y89.507 E5.35586
G1 X74.348 Y88.911 E5.36944
G1 X74.462 Y88.539 E5.37798
G1 X74.548 Y88.271 E5.38416
G1 X74.618 Y88.061 E5.38902
G1 X74.734 Y87.731 E5.3967
G1 X74.871 Y87.358 E5.40542
G1 X75.097 Y86.789 E5.41886
G1 X75.305 Y86.304 E5.43044
G1 X75.538 Y85.794 E5.44275
G1 X75.754 Y85.351 E5.45357
G1 X76.023 Y84.834 E5.46636
G1 X76.279 Y84.37 E5.478
G1 X76.57 Y83.872 E5.49066
G1 X76.851 Y83.418 E5.50238
G1 X77.193 Y82.897 E5.51606
G1 X77.468 Y82.502 E5.52663
G1 X77.851 Y81.984 E5.54077
G1 X78.175 Y81.57 E5.55231
G1 X78.375 Y81.322 E5.5593
G1 X78.505 Y81.165 E5.56378
G1 X78.715 Y80.918 E5.57089
G1 X78.999 Y80.594 E5.58035
G1 X79.424 Y80.135 E5.59408
G1 X79.727 Y79.825 E5.6036
G0 F6000 X80.042 Y80.132
G1 F1200 X80.422 Y79.762 E5.61524
G1 X80.863 Y79.352 E5.62846
G1 X81.321 Y78.948 E5.64186
G1 X81.708 Y78.626 E5.65292
G1 X82.137 Y78.288 E5.66491
G1 X82.508 Y78.009 E5.6751
G1 X82.952 Y77.691 E5.68708
G1 X83.408 Y77.382 E5.69918
G1 X83.917 Y77.057 E5.71243
G1 X84.308 Y76.822 E5.72245
G1 X84.774 Y76.557 E5.73421
G1 X85.273 Y76.289 E5.74665
G1 X85.805 Y76.021 E5.75972
G1 X86.301 Y75.788 E5.77175
G1 X86.841 Y75.552 E5.78469
G1 X87.301 Y75.365 E5.79559
G1 X87.87 Y75.152 E5.80893
G1 X88.274 Y75.013 E5.81831
G1 X88.571 Y74.915 E5.82517
G1 X88.798 Y74.844 E5.83039
G1 X89.099 Y74.755 E5.83728
G1 X89.521 Y74.636 E5.84691
G1 X90.029 Y74.505 E5.85842
G1 X90.465 Y74.404 E5.86825
G1 X91.024 Y74.29 E5.88077
G1 X91.552 Y74.196 E5.89255
G1 X92.113 Y74.111 E5.905
G1 X92.63 Y74.046 E5.91644
G1 X93.201 Y73.989 E5.92904
G1 X93.718 Y73.951 E5.94042
G1 X94.351 Y73.922 E5.95433
G1 X95.519 Y73.903 E5.97997
G1 X95.699 Y73.902 E5.98392
G1 X124.343 Y73.9 E6.6127
G1 X124.477 Y73.901 E6.61565
G1 X125.309 Y73.911 E6.63391
G1 X125.613 Y73.919 E6.64059
G1 X126.07 Y73.937 E6.65063
G1 X126.625 Y73.972 E6.66283
G1 X127.16 Y74.02 E6.67462
G1 X127.727 Y74.086 E6.68716
G1 X128.15 Y74.146 E6.69653
G1 X128.654 Y74.229 E6.70775
G1 X129.188 Y74.33 E6.71968
G1 X129.817 Y74.468 E6.73381
G1 X130.401 Y74.614 E6.74703
G1 X130.936 Y74.762 E6.75921
G1 X131.298 Y74.872 E6.76752
G1 X131.596 Y74.967 E6.77438
G1 X131.814 Y75.04 E6.77943
G1 X132.122 Y75.149 E6.7866
G1 X132.497 Y75.287 E6.79537
G1 X133.029 Y75.498 E6.80794
G1 X133.513 Y75.705 E6.81949
G1 X134.013 Y75.934 E6.83156
G1 X134.456 Y76.15 E6.84238
G1 X134.953 Y76.408 E6.85468
G1 X135.417 Y76.664 E6.86631
G1 X135.9 Y76.946 E6.87859
G1 X136.344 Y77.221 E6.89005
G1 X136.845 Y77.551 E6.90322
G1 X137.244 Y77.829 E6.9139
G1 X137.705 Y78.169 E6.92647
G1 X138.121 Y78.492 E6.93803
G1 X138.431 Y78.741 E6.94676
G1 X138.589 Y78.873 E6.95128
G1 X138.78 Y79.036 E6.95679
G1 X139.107 Y79.322 E6.96633
G1 X139.558 Y79.739 E6.97981
G1 X139.868 Y80.042 E6.98933
G1 X140.238 Y80.422 E7.00097
G1 X140.648 Y80.863 E7.01419
G1 X141.052 Y81.321 E7.02759
G1 X141.374 Y81.708 E7.03865
G1 X141.715 Y82.14 E7.05073
G1 X141.99 Y82.506 E7.06078
G1 X142.296 Y82.934 E7.07233
G1 X142.608 Y83.393 E7.08451
G1 X142.944 Y83.919 E7.09821
G1 X143.18 Y84.312 E7.10827
G1 X143.444 Y84.777 E7.12001
G1 X143.707 Y85.267 E7.13222
G1 X143.968 Y85.784 E7.14493
G1 X144.206 Y86.289 E7.15719
G1 X144.448 Y86.841 E7.17042
G1 X144.635 Y87.301 E7.18132
G1 X144.837 Y87.836 E7.19387
G1 X144.975 Y88.233 E7.2031
G1 X145.094 Y88.597 E7.2115
G1 X145.163 Y88.82 E7.21663
G1 X145.24 Y89.081 E7.2226
G1 X145.361 Y89.509 E7.23237
G1 X145.495 Y90.028 E7.24413
G1 X145.597 Y90.469 E7.25407
G1 X145.71 Y91.021 E7.26644
G1 X145.804 Y91.548 E7.27819
G1 X145.889 Y92.112 E7.29071
G1 X145.954 Y92.629 E7.30215
G1 X146.011 Y93.202 E7.31479
G1 X146.049 Y93.72 E7.32619
G1 X146.077 Y94.348 E7.33999
G1 X146.096 Y95.497 E7.36521
G1 X146.098 Y95.68 E7.36923
G1 X146.1 Y124.299 E7.99747
G1 X146.099 Y124.427 E8.00028
G1 X146.089 Y125.302 E8.01949
G1 X146.081 Y125.611 E8.02627
G1 X146.063 Y126.069 E8.03633
G1 X146.028 Y126.625 E8.04856
G1 X145.98 Y127.16 E8.06035
G1 X145.914 Y127.727 E8.07288
G1 X145.854 Y128.15 E8.08226
G1 X145.772 Y128.647 E8.09332
G1 X145.674 Y129.167 E8.10494
G1 X145.539 Y129.786 E8.11884
G1 X145.391 Y130.382 E8.13232
G1 X145.238 Y130.935 E8.14492
G1 X145.131 Y131.287 E8.153
G1 X145.037 Y131.583 E8.15981
G1 X144.96 Y131.813 E8.16514
G1 X144.851 Y132.122 E8.17233
G1 X144.713 Y132.497 E8.1811
G1 X144.502 Y133.029 E8.19366
G1 X144.295 Y133.513 E8.20522
G1 X144.066 Y134.013 E8.21729
G1 X143.85 Y134.456 E8.22811
G1 X143.592 Y134.953 E8.2404
G1 X143.336 Y135.417 E8.25204
G1 X143.055 Y135.897 E8.26425
G1 X142.774 Y136.351 E8.27597
G1 X142.445 Y136.853 E8.28914
G1 X142.172 Y137.245 E8.29963
G1 X141.817 Y137.726 E8.31275
G1 X141.495 Y138.139 E8.32425
G1 X141.259 Y138.431 E8.33249
G1 X141.127 Y138.589 E8.33701
G1 X140.953 Y138.792 E8.34288
G1 X140.667 Y139.118 E8.3524
G1 X140.273 Y139.544 E8.36514
G1 X139.97 Y139.855 E8.37467
G1 X139.578 Y140.238 E8.3867
G1 X139.137 Y140.648 E8.39992
G1 X138.679 Y141.052 E8.41332
G1 X138.292 Y141.374 E8.42437
G1 X137.863 Y141.712 E8.43636
G1 X137.492 Y141.991 E8.44655
G1 X137.048 Y142.309 E8.45854
G1 X136.592 Y142.618 E8.47063
G1 X136.083 Y142.943 E8.48389
G1 X135.692 Y143.178 E8.4939
G1 X135.226 Y143.443 E8.50567
G1 X134.727 Y143.711 E8.51811
G1 X134.195 Y143.979 E8.53118
G1 X133.699 Y144.212 E8.54321
G1 X133.159 Y144.448 E8.55615
G1 X132.699 Y144.635 E8.56705
G1 X132.13 Y144.848 E8.58039
G1 X131.726 Y144.987 E8.58976
G1 X131.429 Y145.085 E8.59663
G1 X131.202 Y145.156 E8.60185
G1 X130.901 Y145.245 E8.60874
G1 X130.479 Y145.364 E8.61837
G1 X129.971 Y145.495 E8.62988
G1 X129.535 Y145.596 E8.63971
G1 X128.976 Y145.71 E8.65223
G1 X128.448 Y145.804 E8.664
G1 X127.887 Y145.889 E8.67646
G1 X127.37 Y145.954 E8.6879
G1 X126.799 Y146.011 E8.70049
G1 X126.282 Y146.049 E8.71187
G1 X125.649 Y146.078 E8.72578
G1 X124.481 Y146.097 E8.75143
G1 X124.301 Y146.098 E8.75538
G1 X95.657 Y146.1 E9.38416
G1 X95.522 Y146.099 E9.38712
G1 X94.691 Y146.089 E9.40537
G1 X94.393 Y146.082 E9.41191
G1 X93.931 Y146.064 E9.42206
G1 X93.362 Y146.027 E9.43458
G1 X92.832 Y145.979 E9.44626
G1 X92.278 Y145.915 E9.4585
G1 X91.854 Y145.855 E9.4679
G1 X91.341 Y145.77 E9.47932
G1 X90.803 Y145.668 E9.49134
G1 X90.192 Y145.534 E9.50507
G1 X89.613 Y145.39 E9.51817
G1 X89.046 Y145.233 E9.53108
G1 X88.683 Y145.122 E9.53941
G1 X88.419 Y145.037 E9.5455
G1 X88.2 Y144.964 E9.55057
G1 X87.877 Y144.851 E9.55808
G1 X87.502 Y144.713 E9.56685
G1 X86.962 Y144.499 E9.5796
G1 X86.479 Y144.292 E9.59114
G1 X85.987 Y144.066 E9.60302
G1 X85.544 Y143.85 E9.61384
G1 X85.047 Y143.592 E9.62614
G1 X84.583 Y143.336 E9.63777
G1 X84.103 Y143.055 E9.64998
G1 X83.649 Y142.774 E9.6617
G1 X83.126 Y142.429 E9.67545
G1 X82.726 Y142.149 E9.68617
G1 X82.276 Y141.818 E9.69843
G1 X81.871 Y141.503 E9.7097
G1 X81.564 Y141.255 E9.71836
G1 X81.405 Y141.122 E9.72291
G1 X81.216 Y140.96 E9.72837
G1 X80.887 Y140.672 E9.73797
G1 X80.44 Y140.259 E9.75133
G1 X80.133 Y139.959 E9.76075
G1 X79.762 Y139.578 E9.77243
G1 X79.352 Y139.137 E9.78565
G1 X78.948 Y138.679 E9.79905
G1 X78.626 Y138.292 E9.8101
G1 X78.282 Y137.856 E9.8223
G1 X77.999 Y137.479 E9.83264
G1 X77.687 Y137.042 E9.84443
G1 X77.38 Y136.589 E9.85644
G1 X77.049 Y136.069 E9.86997
G1 X76.814 Y135.677 E9.88001
G1 X76.555 Y135.222 E9.8915
G1 X76.287 Y134.723 E9.90393
G1 X76.014 Y134.179 E9.91729
G1 X75.77 Y133.658 E9.92992
G1 X75.518 Y133.077 E9.94383
G1 X75.345 Y132.645 E9.95404
G1 X75.166 Y132.169 E9.9652
G1 X75.026 Y131.767 E9.97455
G1 X74.915 Y131.43 E9.98234
G1 X74.844 Y131.203 E9.98756
G1 X74.753 Y130.895 E9.99461
G1 X74.634 Y130.472 E10.00425
G1 X74.505 Y129.971 E10.01561
G1 X74.404 Y129.535 E10.02544
G1 X74.29 Y128.976 E10.03796
G1 X74.196 Y128.448 E10.04973
G1 X74.111 Y127.887 E10.06219
G1 X74.046 Y127.37 E10.07363
G1 X73.989 Y126.799 E10.08622
G1 X73.951 Y126.282 E10.0976
