;FLAVOR:Marlin
;TIME:3332
;Filament used: 1.31727m
;Layer height: 0.12
;MINX:89.36
;MINY:89.36
;MINZ:0.12
;MAXX:130.64
;MAXY:130.64
;MAXZ:24.96
;Generated with Cura_SteamEngine 4.2.1
M140 S90
M105
M190 S90
M104 S240
M105
M109 S240
M82 ;absolute extrusion mode
M201 X500.00 Y500.00 Z100.00 E5000.00 ;Setup machine max acceleration
M203 X500.00 Y500.00 Z10.00 E50.00 ;Setup machine max feedrate
M204 P500.00 R1000.00 T500.00 ;Setup Print/Retract/Travel acceleration
M205 X8.00 Y8.00 Z0.40 E5.00 ;Setup Jerk
M220 S100 ;Reset Feedrate
M221 S100 ;Reset Flowrate

G28 ;Home

G92 E0 ;Reset Extruder
G1 Z2.0 F3000 ;Move Z Axis up
G1 X10.1 Y20 Z0.28 F5000.0 ;Move to start position
G1 X10.1 Y200.0 Z0.28 F1500.0 E15 ;Draw the first line
G1 X10.4 Y200.0 Z0.28 F5000.0 ;Move to side a little
G1 X10.4 Y20 Z0.28 F1500.0 E30 ;Draw the second line
G92 E0 ;Reset Extruder
G1 Z2.0 F3000 ;Move Z Axis up

G92 E0
G92 E0
G1 F3000 E-5
;LAYER_COUNT:208
;LAYER:0
M107
G0 F6000 X91.789 Y91.7 Z0.12
;TYPE:SKIRT
G1 F3000 E0
G1 F900 X92.391 Y91.163 E0.01771
G1 X93.044 Y90.688 E0.03543
G1 X93.74 Y90.281 E0.05313
G1 X94.473 Y89.944 E0.07084
G1 X95.236 Y89.681 E0.08856
G1 X96.021 Y89.496 E0.10626
G1 X96.82 Y89.388 E0.12396
G1 X97.5 Y89.36 E0.1389
G1 X122.5 Y89.36 E0.68769
G1 X123.306 Y89.4 E0.70541
G1 X124.104 Y89.52 E0.72312
G1 X124.886 Y89.717 E0.74083
G1 X125.644 Y89.992 E0.75853
G1 X126.372 Y90.34 E0.77624
G1 X127.062 Y90.758 E0.79395
G1 X127.707 Y91.243 E0.81166
G1 X128.3 Y91.789 E0.82936
G1 X128.837 Y92.391 E0.84707
G1 X129.312 Y93.044 E0.86479
G1 X129.719 Y93.74 E0.88249
G1 X130.056 Y94.473 E0.9002
G1 X130.319 Y95.236 E0.91792
G1 X130.504 Y96.021 E0.93562
G1 X130.612 Y96.82 E0.95332
G1 X130.64 Y97.5 E0.96826
G1 X130.64 Y122.5 E1.51705
G1 X130.6 Y123.306 E1.53477
G1 X130.48 Y124.104 E1.55248
G1 X130.283 Y124.886 E1.57018
G1 X130.008 Y125.644 E1.58788
G1 X129.66 Y126.372 E1.6056
G1 X129.242 Y127.062 E1.62331
G1 X128.757 Y127.707 E1.64102
G1 X128.211 Y128.3 E1.65872
G1 X127.609 Y128.837 E1.67643
G1 X126.956 Y129.312 E1.69415
G1 X126.26 Y129.719 E1.71185
G1 X125.527 Y130.056 E1.72956
G1 X124.764 Y130.319 E1.74728
G1 X123.979 Y130.504 E1.76498
G1 X123.18 Y130.612 E1.78268
G1 X122.5 Y130.64 E1.79762
G1 X97.5 Y130.64 E2.34641
G1 X96.694 Y130.6 E2.36413
G1 X95.896 Y130.48 E2.38184
G1 X95.114 Y130.283 E2.39954
G1 X94.356 Y130.008 E2.41724
G1 X93.628 Y129.66 E2.43496
G1 X92.938 Y129.242 E2.45267
G1 X92.293 Y128.757 E2.47038
G1 X91.7 Y128.211 E2.48808
G1 X91.163 Y127.609 E2.50578
G1 X90.688 Y126.956 E2.52351
G1 X90.281 Y126.26 E2.54121
G1 X89.944 Y125.527 E2.55892
G1 X89.681 Y124.764 E2.57663
G1 X89.496 Y123.979 E2.59434
G1 X89.388 Y123.18 E2.61204
G1 X89.36 Y122.5 E2.62698
G1 X89.36 Y97.5 E3.17577
G1 X89.4 Y96.694 E3.19348
G1 X89.52 Y95.896 E3.2112
G1 X89.717 Y95.114 E3.2289
G1 X89.992 Y94.356 E3.2466
G1 X90.34 Y93.628 E3.26431
G1 X90.758 Y92.938 E3.28202
G1 X91.243 Y92.293 E3.29974
G1 X91.789 Y91.7 E3.31743
G0 F6000 X92.222 Y91.894
G1 F900 X92.82 Y91.386 E3.33466
G1 X93.466 Y90.941 E3.35188
G1 X94.155 Y90.565 E3.36911
G1 X94.878 Y90.26 E3.38633
G1 X95.628 Y90.031 E3.40355
G1 X96.398 Y89.879 E3.42078
G1 X97.5 Y89.8 E3.44503
G1 X122.5 Y89.8 E3.99382
G1 X123.284 Y89.84 E4.01105
G1 X124.059 Y89.959 E4.02827
G1 X124.818 Y90.157 E4.04548
G1 X125.553 Y90.431 E4.0627
G1 X126.257 Y90.779 E4.07994
G1 X126.921 Y91.196 E4.09715
G1 X127.54 Y91.679 E4.11439
G1 X128.106 Y92.222 E4.13161
G1 X128.614 Y92.82 E4.14883
G1 X129.059 Y93.466 E4.16605
G1 X129.435 Y94.155 E4.18328
G1 X129.74 Y94.878 E4.20051
G1 X129.969 Y95.628 E4.21772
G1 X130.121 Y96.398 E4.23495
G1 X130.2 Y97.5 E4.2592
G1 X130.2 Y122.5 E4.808
G1 X130.16 Y123.284 E4.82523
G1 X130.041 Y124.059 E4.84244
G1 X129.843 Y124.818 E4.85966
G1 X129.569 Y125.553 E4.87688
G1 X129.221 Y126.257 E4.89412
G1 X128.804 Y126.921 E4.91133
G1 X128.321 Y127.54 E4.92856
G1 X127.778 Y128.106 E4.94578
G1 X127.18 Y128.614 E4.96301
G1 X126.534 Y129.059 E4.98023
G1 X125.845 Y129.435 E4.99746
G1 X125.122 Y129.74 E5.01468
G1 X124.372 Y129.969 E5.0319
G1 X123.602 Y130.121 E5.04913
G1 X122.5 Y130.2 E5.07338
G1 X97.5 Y130.2 E5.62217
G1 X96.716 Y130.16 E5.6394
G1 X95.941 Y130.041 E5.65661
G1 X95.182 Y129.843 E5.67383
G1 X94.447 Y129.569 E5.69105
G1 X93.743 Y129.221 E5.70829
G1 X93.079 Y128.804 E5.7255
G1 X92.46 Y128.321 E5.74274
G1 X91.894 Y127.778 E5.75996
G1 X91.386 Y127.18 E5.77718
G1 X90.941 Y126.534 E5.7944
G1 X90.565 Y125.845 E5.81163
G1 X90.26 Y125.122 E5.82886
G1 X90.031 Y124.372 E5.84607
G1 X89.879 Y123.602 E5.8633
G1 X89.8 Y122.5 E5.88755
G1 X89.8 Y97.5 E6.43634
G1 X89.84 Y96.716 E6.45358
G1 X89.959 Y95.941 E6.47079
G1 X90.157 Y95.182 E6.48801
G1 X90.431 Y94.447 E6.50523
G1 X90.779 Y93.743 E6.52247
G1 X91.196 Y93.079 E6.53968
G1 X91.679 Y92.46 E6.55691
G1 X92.222 Y91.894 E6.57413
G0 F6000 X92.654 Y92.094
G1 F900 X93.247 Y91.616 E6.59085
G1 X93.887 Y91.203 E6.60757
G1 X94.566 Y90.859 E6.62428
G1 X95.279 Y90.588 E6.64102
G1 X96.015 Y90.393 E6.65774
G1 X96.768 Y90.277 E6.67446
G1 X97.5 Y90.24 E6.69055
G1 X122.5 Y90.24 E7.23934
G1 X123.261 Y90.28 E7.25607
G1 X124.013 Y90.399 E7.27279
G1 X124.749 Y90.597 E7.28952
G1 X125.46 Y90.871 E7.30624
G1 X126.138 Y91.217 E7.32295
G1 X126.777 Y91.633 E7.33969
G1 X127.368 Y92.114 E7.35642
G1 X127.906 Y92.654 E7.37315
G1 X128.384 Y93.247 E7.38987
G1 X128.797 Y93.887 E7.40659
G1 X129.141 Y94.566 E7.4233
G1 X129.412 Y95.279 E7.44004
G1 X129.607 Y96.015 E7.45676
G1 X129.723 Y96.768 E7.47348
G1 X129.76 Y97.5 E7.48957
G1 X129.76 Y122.5 E8.03836
G1 X129.72 Y123.261 E8.05509
G1 X129.601 Y124.013 E8.0718
G1 X129.403 Y124.749 E8.08854
G1 X129.129 Y125.46 E8.10526
G1 X128.783 Y126.138 E8.12197
G1 X128.367 Y126.777 E8.13871
G1 X127.886 Y127.368 E8.15544
G1 X127.346 Y127.906 E8.17217
G1 X126.753 Y128.384 E8.18889
G1 X126.113 Y128.797 E8.20561
G1 X125.434 Y129.141 E8.22232
G1 X124.721 Y129.412 E8.23906
G1 X123.985 Y129.607 E8.25578
G1 X123.232 Y129.723 E8.2725
G1 X122.5 Y129.76 E8.28859
G1 X97.5 Y129.76 E8.83738
G1 X96.739 Y129.72 E8.85411
G1 X95.987 Y129.601 E8.87082
G1 X95.251 Y129.403 E8.88755
G1 X94.54 Y129.129 E8.90428
G1 X93.862 Y128.783 E8.92099
G1 X93.223 Y128.367 E8.93773
G1 X92.632 Y127.886 E8.95445
G1 X92.094 Y127.346 E8.97119
G1 X91.616 Y126.753 E8.98791
G1 X91.203 Y126.113 E9.00463
G1 X90.859 Y125.434 E9.02134
G1 X90.588 Y124.721 E9.03808
G1 X90.393 Y123.985 E9.05479
G1 X90.277 Y123.232 E9.07152
G1 X90.24 Y122.5 E9.08761
G1 X90.24 Y97.5 E9.6364
G1 X90.28 Y96.739 E9.65313
G1 X90.399 Y95.987 E9.66984
G1 X90.597 Y95.251 E9.68657
G1 X90.871 Y94.54 E9.7033
G1 X91.217 Y93.862 E9.72001
G1 X91.633 Y93.223 E9.73675
G1 X92.114 Y92.632 E9.75347
G1 X92.654 Y92.094 E9.77021
G0 F6000 X92.548 Y92.81
G1 F900 X93.084 Y92.302 E9.78642
G1 X93.672 Y91.856 E9.80262
G1 X94.305 Y91.475 E9.81884
G1 X94.975 Y91.165 E9.83504
G1 X95.675 Y90.929 E9.85126
G1 X96.396 Y90.77 E9.86747
G1 X97.13 Y90.69 E9.88367
G1 X97.5 Y90.68 E9.8918
G1 X122.5 Y90.68 E10.44059
G1 X123.237 Y90.72 E10.45679
G1 X123.966 Y90.839 E10.47301
G1 X124.677 Y91.037 E10.48921
G1 X125.363 Y91.31 E10.50542
G1 X126.016 Y91.656 E10.52164
G1 X126.627 Y92.07 E10.53784
G1 X127.19 Y92.548 E10.55405
G1 X127.698 Y93.084 E10.57026
G1 X128.144 Y93.672 E10.58646
G1 X128.525 Y94.305 E10.60268
G1 X128.835 Y94.975 E10.61889
G1 X129.071 Y95.675 E10.6351
G1 X129.23 Y96.396 E10.65131
G1 X129.31 Y97.13 E10.66752
G1 X129.32 Y97.5 E10.67564
G1 X129.32 Y122.5 E11.22444
G1 X129.28 Y123.237 E11.24064
G1 X129.161 Y123.966 E11.25685
G1 X128.963 Y124.677 E11.27306
G1 X128.69 Y125.363 E11.28926
G1 X128.344 Y126.016 E11.30549
G1 X127.93 Y126.627 E11.32169
G1 X127.452 Y127.19 E11.3379
G1 X126.916 Y127.698 E11.35411
G1 X126.328 Y128.144 E11.37031
G1 X125.695 Y128.525 E11.38653
G1 X125.025 Y128.835 E11.40273
G1 X124.325 Y129.071 E11.41895
G1 X123.604 Y129.23 E11.43516
G1 X122.87 Y129.31 E11.45137
G1 X122.5 Y129.32 E11.45949
G1 X97.5 Y129.32 E12.00828
G1 X96.763 Y129.28 E12.02449
G1 X96.034 Y129.161 E12.0407
G1 X95.323 Y128.963 E12.0569
G1 X94.637 Y128.69 E12.07311
G1 X93.984 Y128.344 E12.08933
G1 X93.373 Y127.93 E12.10553
G1 X92.81 Y127.452 E12.12175
G1 X92.302 Y126.916 E12.13796
G1 X91.856 Y126.328 E12.15416
G1 X91.475 Y125.695 E12.17038
G1 X91.165 Y125.025 E12.18658
G1 X90.929 Y124.325 E12.2028
G1 X90.77 Y123.604 E12.219
G1 X90.69 Y122.87 E12.23521
G1 X90.68 Y122.5 E12.24334
G1 X90.68 Y97.5 E12.79213
G1 X90.72 Y96.763 E12.80833
G1 X90.839 Y96.034 E12.82455
G1 X91.037 Y95.323 E12.84075
G1 X91.31 Y94.637 E12.85696
G1 X91.656 Y93.984 E12.87318
G1 X92.07 Y93.373 E12.88938
G1 X92.548 Y92.81 E12.90559
G0 F6000 X92.982 Y92.995
G1 F900 X93.514 Y92.518 E12.92128
G1 X94.096 Y92.104 E12.93696
G1 X94.72 Y91.758 E12.95262
G1 X95.379 Y91.483 E12.96829
G1 X96.065 Y91.283 E12.98398
G1 X96.769 Y91.162 E12.99966
G1 X97.5 Y91.12 E13.01573
G1 X122.5 Y91.12 E13.56452
G1 X123.213 Y91.16 E13.5802
G1 X123.917 Y91.279 E13.59587
G1 X124.603 Y91.477 E13.61155
G1 X125.263 Y91.75 E13.62723
G1 X125.889 Y92.094 E13.64291
G1 X126.472 Y92.507 E13.65859
G1 X127.005 Y92.982 E13.67426
G1 X127.482 Y93.514 E13.68995
G1 X127.896 Y94.096 E13.70563
G1 X128.242 Y94.72 E13.72129
G1 X128.517 Y95.379 E13.73696
G1 X128.717 Y96.065 E13.75265
G1 X128.838 Y96.769 E13.76833
G1 X128.88 Y97.5 E13.7844
G1 X128.88 Y122.5 E14.3332
G1 X128.84 Y123.213 E14.34887
G1 X128.721 Y123.917 E14.36454
G1 X128.523 Y124.603 E14.38022
G1 X128.25 Y125.263 E14.3959
G1 X127.906 Y125.889 E14.41158
G1 X127.493 Y126.472 E14.42726
G1 X127.018 Y127.005 E14.44293
G1 X126.486 Y127.482 E14.45862
G1 X125.904 Y127.896 E14.4743
G1 X125.28 Y128.242 E14.48996
G1 X124.621 Y128.517 E14.50563
G1 X123.935 Y128.717 E14.52132
G1 X123.231 Y128.838 E14.537
G1 X122.5 Y128.88 E14.55307
G1 X97.5 Y128.88 E15.10187
G1 X96.787 Y128.84 E15.11754
G1 X96.083 Y128.721 E15.13322
G1 X95.397 Y128.523 E15.14889
G1 X94.737 Y128.25 E15.16457
G1 X94.111 Y127.906 E15.18025
G1 X93.528 Y127.493 E15.19593
G1 X92.995 Y127.018 E15.2116
G1 X92.518 Y126.486 E15.22729
G1 X92.104 Y125.904 E15.24297
G1 X91.758 Y125.28 E15.25863
G1 X91.483 Y124.621 E15.2743
G1 X91.283 Y123.935 E15.28999
G1 X91.162 Y123.231 E15.30567
G1 X91.12 Y122.5 E15.32174
G1 X91.12 Y97.5 E15.87054
G1 X91.16 Y96.787 E15.88621
G1 X91.279 Y96.083 E15.90189
G1 X91.477 Y95.397 E15.91756
G1 X91.75 Y94.737 E15.93324
G1 X92.094 Y94.111 E15.94892
G1 X92.507 Y93.528 E15.9646
G1 X92.982 Y92.995 E15.98027
G0 F6000 X93.415 Y93.188
G1 F900 X93.942 Y92.744 E15.9954
G1 X94.517 Y92.364 E16.01053
G1 X95.132 Y92.053 E16.02566
G1 X95.778 Y91.815 E16.04077
G1 X96.448 Y91.654 E16.0559
G1 X97.132 Y91.571 E16.07102
G1 X97.5 Y91.56 E16.0791
G1 X122.5 Y91.56 E16.6279
G1 X123.188 Y91.6 E16.64303
G1 X123.867 Y91.719 E16.65816
G1 X124.527 Y91.916 E16.67328
G1 X125.16 Y92.189 E16.68841
G1 X125.757 Y92.533 E16.70354
G1 X126.31 Y92.943 E16.71865
G1 X126.812 Y93.415 E16.73377
G1 X127.256 Y93.942 E16.7489
G1 X127.636 Y94.517 E16.76403
G1 X127.947 Y95.132 E16.77916
G1 X128.185 Y95.778 E16.79427
G1 X128.346 Y96.448 E16.8094
G1 X128.429 Y97.132 E16.82452
G1 X128.44 Y97.5 E16.8326
G1 X128.44 Y122.5 E17.3814
G1 X128.4 Y123.188 E17.39652
G1 X128.281 Y123.867 E17.41166
G1 X128.084 Y124.527 E17.42678
G1 X127.811 Y125.16 E17.44191
G1 X127.467 Y125.757 E17.45703
G1 X127.057 Y126.31 E17.47215
G1 X126.585 Y126.812 E17.48727
G1 X126.058 Y127.256 E17.5024
G1 X125.483 Y127.636 E17.51753
G1 X124.868 Y127.947 E17.53266
G1 X124.222 Y128.185 E17.54777
G1 X123.552 Y128.346 E17.56289
G1 X122.868 Y128.429 E17.57802
G1 X122.5 Y128.44 E17.5861
G1 X97.5 Y128.44 E18.13489
G1 X96.812 Y128.4 E18.15002
G1 X96.133 Y128.281 E18.16515
G1 X95.473 Y128.084 E18.18027
G1 X94.84 Y127.811 E18.19541
G1 X94.243 Y127.467 E18.21053
G1 X93.69 Y127.057 E18.22564
G1 X93.188 Y126.585 E18.24077
G1 X92.744 Y126.058 E18.2559
G1 X92.364 Y125.483 E18.27103
G1 X92.053 Y124.868 E18.28615
G1 X91.815 Y124.222 E18.30127
G1 X91.654 Y123.552 E18.31639
G1 X91.571 Y122.868 E18.33152
G1 X91.56 Y122.5 E18.3396
G1 X91.56 Y97.5 E18.88839
G1 X91.6 Y96.812 E18.90352
G1 X91.719 Y96.133 E18.91865
G1 X91.916 Y95.473 E18.93377
G1 X92.189 Y94.84 E18.94891
G1 X92.533 Y94.243 E18.96403
G1 X92.943 Y93.69 E18.97914
G1 X93.415 Y93.188 E18.99427
G0 F6000 X93.847 Y93.388
G1 F900 X94.368 Y92.979 E19.00881
G1 X94.935 Y92.635 E19.02337
G1 X95.539 Y92.361 E19.03793
G1 X96.172 Y92.163 E19.05249
G1 X96.823 Y92.042 E19.06702
G1 X97.5 Y92 E19.08191
G1 X122.5 Y92 E19.6307
G1 X123.162 Y92.04 E19.64526
G1 X123.814 Y92.159 E19.65981
G1 X124.447 Y92.356 E19.67436
G1 X125.052 Y92.628 E19.68892
G1 X125.62 Y92.97 E19.70348
G1 X126.142 Y93.379 E19.71804
G1 X126.612 Y93.847 E19.7326
G1 X127.021 Y94.368 E19.74714
G1 X127.365 Y94.935 E19.76169
G1 X127.639 Y95.539 E19.77625
G1 X127.837 Y96.172 E19.79081
G1 X127.958 Y96.823 E19.80535
G1 X128 Y97.5 E19.82024
G1 X128 Y122.5 E20.36903
G1 X127.96 Y123.162 E20.38359
G1 X127.841 Y123.814 E20.39814
G1 X127.644 Y124.447 E20.41269
G1 X127.372 Y125.052 E20.42725
G1 X127.03 Y125.62 E20.44181
G1 X126.621 Y126.142 E20.45636
G1 X126.153 Y126.612 E20.47092
G1 X125.632 Y127.021 E20.48546
G1 X125.065 Y127.365 E20.50002
G1 X124.461 Y127.639 E20.51458
G1 X123.828 Y127.837 E20.52914
G1 X123.177 Y127.958 E20.54367
G1 X122.5 Y128 E20.55856
G1 X97.5 Y128 E21.10736
G1 X96.838 Y127.96 E21.12192
G1 X96.186 Y127.841 E21.13646
G1 X95.553 Y127.644 E21.15102
G1 X94.948 Y127.372 E21.16558
G1 X94.38 Y127.03 E21.18013
G1 X93.858 Y126.621 E21.19469
G1 X93.388 Y126.153 E21.20925
G1 X92.979 Y125.632 E21.22379
G1 X92.635 Y125.065 E21.23835
G1 X92.361 Y124.461 E21.25291
G1 X92.163 Y123.828 E21.26747
G1 X92.042 Y123.177 E21.282
G1 X92 Y122.5 E21.29689
G1 X92 Y97.5 E21.84568
G1 X92.04 Y96.838 E21.86024
G1 X92.159 Y96.186 E21.87479
G1 X92.356 Y95.553 E21.88934
G1 X92.628 Y94.948 E21.90391
G1 X92.97 Y94.38 E21.91846
G1 X93.379 Y93.858 E21.93302
G1 X93.847 Y93.388 E21.94758
G0 F6000 X93.813 Y94.034
G1 F900 X94.277 Y93.599 E21.96154
G1 X94.792 Y93.226 E21.9755
G1 X95.35 Y92.92 E21.98947
G1 X95.941 Y92.686 E22.00342
G1 X96.557 Y92.529 E22.01737
G1 X97.5 Y92.44 E22.03817
G1 X122.5 Y92.44 E22.58696
G1 X123.135 Y92.48 E22.60093
G1 X123.759 Y92.599 E22.61487
G1 X124.364 Y92.796 E22.62884
G1 X124.939 Y93.067 E22.64279
G1 X125.476 Y93.408 E22.65676
G1 X125.966 Y93.813 E22.67071
G1 X126.401 Y94.277 E22.68467
G1 X126.774 Y94.792 E22.69863
G1 X127.08 Y95.35 E22.7126
G1 X127.314 Y95.941 E22.72655
G1 X127.471 Y96.557 E22.74051
G1 X127.56 Y97.5 E22.7613
G1 X127.56 Y122.5 E23.31009
G1 X127.52 Y123.135 E23.32406
G1 X127.401 Y123.759 E23.33801
G1 X127.204 Y124.364 E23.35197
G1 X126.933 Y124.939 E23.36593
G1 X126.592 Y125.476 E23.37989
G1 X126.187 Y125.966 E23.39385
G1 X125.723 Y126.401 E23.40781
G1 X125.208 Y126.774 E23.42177
G1 X124.65 Y127.08 E23.43574
G1 X124.059 Y127.314 E23.44969
G1 X123.443 Y127.471 E23.46364
G1 X122.5 Y127.56 E23.48444
G1 X97.5 Y127.56 E24.03323
G1 X96.865 Y127.52 E24.0472
G1 X96.241 Y127.401 E24.06114
G1 X95.636 Y127.204 E24.07511
G1 X95.061 Y126.933 E24.08906
G1 X94.524 Y126.592 E24.10303
G1 X94.034 Y126.187 E24.11698
G1 X93.599 Y125.723 E24.13094
G1 X93.226 Y125.208 E24.1449
G1 X92.92 Y124.65 E24.15887
G1 X92.686 Y124.059 E24.17282
G1 X92.529 Y123.443 E24.18678
G1 X92.44 Y122.5 E24.20757
G1 X92.44 Y97.5 E24.75636
G1 X92.48 Y96.865 E24.77033
G1 X92.599 Y96.241 E24.78427
G1 X92.796 Y95.636 E24.79824
G1 X93.067 Y95.061 E24.8122
G1 X93.408 Y94.524 E24.82616
G1 X93.813 Y94.034 E24.84011
G0 F6000 X94.247 Y94.219
G1 F900 X94.706 Y93.821 E24.85345
G1 X95.213 Y93.486 E24.86679
G1 X95.759 Y93.22 E24.88012
G1 X96.336 Y93.029 E24.89346
G1 X96.933 Y92.915 E24.90681
G1 X97.5 Y92.88 E24.91928
G1 X122.5 Y92.88 E25.46807
G1 X123.106 Y92.92 E25.4814
G1 X123.702 Y93.039 E25.49474
G1 X124.277 Y93.235 E25.50808
G1 X124.821 Y93.506 E25.52142
G1 X125.326 Y93.845 E25.53477
G1 X125.781 Y94.247 E25.5481
G1 X126.179 Y94.706 E25.56143
G1 X126.514 Y95.213 E25.57477
G1 X126.78 Y95.759 E25.58811
G1 X126.971 Y96.336 E25.60145
G1 X127.085 Y96.933 E25.61479
G1 X127.12 Y97.5 E25.62726
G1 X127.12 Y122.5 E26.17605
G1 X127.08 Y123.106 E26.18938
G1 X126.961 Y123.702 E26.20273
G1 X126.765 Y124.277 E26.21606
G1 X126.494 Y124.821 E26.2294
G1 X126.155 Y125.326 E26.24275
