;FLAVOR:Marlin
;TIME:1982
;Filament used: 1.2946m
;Layer height: 0.16
;MINX:85.96
;MINY:85.96
;MINZ:0.2
;MAXX:134.04
;MAXY:134.04
;MAXZ:24.88
;Generated with Cura_SteamEngine 4.2.1
M140 S80
M105
M190 S80
M104 S240
M105
M109 S240
M82 ;absolute extrusion mode
M201 X500.00 Y500.00 Z100.00 E5000.00 ;Setup machine max acceleration
M203 X500.00 Y500.00 Z10.00 E50.00 ;Setup machine max feedrate
M204 P500.00 R1000.00 T500.00 ;Setup Print/Retract/Travel acceleration
M205 X8.00 Y8.00 Z0.40 E5.00 ;Setup Jerk
M220 S100 ;Reset Feedrate
M221 S100 ;Reset Flowrate

G28 ;Home

G92 E0 ;Reset Extruder
G1 Z2.0 F3000 ;Move Z Axis up
G1 X10.1 Y20 Z0.28 F5000.0 ;Move to start position
G1 X10.1 Y200.0 Z0.28 F1500.0 E15 ;Draw the first line
G1 X10.4 Y200.0 Z0.28 F5000.0 ;Move to side a little
G1 X10.4 Y20 Z0.28 F1500.0 E30 ;Draw the second line
G92 E0 ;Reset Extruder
G1 Z2.0 F3000 ;Move Z Axis up

G92 E0
G92 E0
G1 F2700 E-5
;LAYER_COUNT:126
;LAYER:0
M107
G0 F6000 X89.168 Y89.534 Z0.2
;TYPE:SKIRT
G1 F2700 E0
G1 F900 X89.86 Y88.868 E0.03514
G1 X90.605 Y88.262 E0.07027
G1 X91.398 Y87.72 E0.10542
G1 X92.233 Y87.245 E0.14056
G1 X93.105 Y86.842 E0.17571
G1 X94.008 Y86.513 E0.21087
G1 X94.934 Y86.26 E0.24599
G1 X95.879 Y86.085 E0.28115
G1 X97.186 Y85.974 E0.32914
G1 X97.507 Y85.965 E0.34089
G1 X97.83 Y85.96 E0.35271
G1 X121.793 Y85.96 E1.22942
G1 X121.958 Y85.961 E1.23546
G1 X122.656 Y85.971 E1.261
G1 X123.615 Y86.025 E1.29614
G1 X124.567 Y86.158 E1.33131
G1 X125.504 Y86.37 E1.36646
G1 X126.42 Y86.659 E1.4016
G1 X127.309 Y87.024 E1.43676
G1 X128.164 Y87.461 E1.47189
G1 X128.98 Y87.967 E1.50702
G1 X129.751 Y88.54 E1.54216
G1 X130.472 Y89.175 E1.57731
G1 X131.138 Y89.868 E1.61248
G1 X131.744 Y90.613 E1.64761
G1 X132.285 Y91.407 E1.68276
G1 X132.759 Y92.243 E1.71792
G1 X133.161 Y93.115 E1.75305
G1 X133.49 Y94.018 E1.78822
G1 X133.742 Y94.944 E1.82333
G1 X133.917 Y95.889 E1.85849
G1 X134.026 Y97.186 E1.90611
G1 X134.035 Y97.506 E1.91782
G1 X134.04 Y97.83 E1.92968
G1 X134.04 Y121.764 E2.80533
G1 X134.039 Y121.907 E2.81056
G1 X134.03 Y122.634 E2.83716
G1 X133.978 Y123.593 E2.8723
G1 X133.847 Y124.545 E2.90746
G1 X133.637 Y125.482 E2.94259
G1 X133.349 Y126.399 E2.97775
G1 X132.987 Y127.288 E3.01287
G1 X132.551 Y128.145 E3.04805
G1 X132.046 Y128.962 E3.08319
G1 X131.475 Y129.734 E3.11832
G1 X130.841 Y130.456 E3.15348
G1 X130.15 Y131.123 E3.18861
G1 X129.406 Y131.73 E3.22374
G1 X128.613 Y132.273 E3.25891
G1 X127.778 Y132.748 E3.29405
G1 X126.907 Y133.153 E3.3292
G1 X126.005 Y133.483 E3.36434
G1 X125.079 Y133.737 E3.39947
G1 X124.134 Y133.913 E3.43463
G1 X122.814 Y134.026 E3.4831
G1 X122.493 Y134.035 E3.49485
G1 X122.17 Y134.04 E3.50667
G1 X98.207 Y134.04 E4.38339
G1 X98.058 Y134.039 E4.38884
G1 X97.36 Y134.03 E4.41438
G1 X96.401 Y133.978 E4.44951
G1 X95.449 Y133.846 E4.48468
G1 X94.512 Y133.635 E4.51982
G1 X93.596 Y133.347 E4.55495
G1 X92.706 Y132.984 E4.59011
G1 X91.85 Y132.548 E4.62526
G1 X91.033 Y132.043 E4.6604
G1 X90.261 Y131.471 E4.69555
G1 X89.54 Y130.837 E4.73068
G1 X88.873 Y130.146 E4.76582
G1 X88.266 Y129.401 E4.80097
G1 X87.724 Y128.608 E4.83612
G1 X87.249 Y127.773 E4.87126
G1 X86.845 Y126.901 E4.90642
G1 X86.515 Y125.999 E4.94156
G1 X86.261 Y125.073 E4.97669
G1 X86.086 Y124.128 E5.01186
G1 X85.973 Y122.803 E5.06051
G1 X85.964 Y122.47 E5.0727
G1 X85.96 Y122.158 E5.08411
G1 X85.96 Y98.174 E5.96159
G1 X85.961 Y98.018 E5.9673
G1 X85.97 Y97.353 E5.99163
G1 X86.023 Y96.394 E6.02677
G1 X86.156 Y95.442 E6.06194
G1 X86.367 Y94.505 E6.09708
G1 X86.655 Y93.589 E6.13221
G1 X87.019 Y92.7 E6.16736
G1 X87.455 Y91.844 E6.2025
G1 X87.961 Y91.027 E6.23766
G1 X88.533 Y90.256 E6.27279
G1 X89.168 Y89.534 E6.30796
G0 F6000 X89.6 Y89.721
G1 F900 X90.288 Y89.079 E6.34239
G1 X91.029 Y88.497 E6.37686
G1 X91.817 Y87.98 E6.41135
G1 X92.646 Y87.531 E6.44584
G1 X93.509 Y87.155 E6.48028
G1 X94.402 Y86.853 E6.51477
G1 X95.316 Y86.628 E6.54921
G1 X96.247 Y86.481 E6.58369
G1 X97.198 Y86.413 E6.61857
G1 X97.519 Y86.404 E6.63032
G1 X97.83 Y86.4 E6.6417
G1 X121.793 Y86.4 E7.51841
G1 X121.952 Y86.401 E7.52423
G1 X122.65 Y86.411 E7.54977
G1 X123.591 Y86.465 E7.58426
G1 X124.523 Y86.598 E7.6187
G1 X125.441 Y86.809 E7.65316
G1 X126.338 Y87.098 E7.68764
G1 X127.207 Y87.462 E7.72211
G1 X128.042 Y87.898 E7.75657
G1 X128.837 Y88.403 E7.79103
G1 X129.587 Y88.974 E7.82552
G1 X130.285 Y89.607 E7.85999
G1 X130.927 Y90.296 E7.89445
G1 X131.509 Y91.037 E7.92892
G1 X132.025 Y91.825 E7.96338
G1 X132.473 Y92.654 E7.99786
G1 X132.848 Y93.518 E8.03232
G1 X133.15 Y94.411 E8.0668
G1 X133.374 Y95.326 E8.10127
G1 X133.52 Y96.257 E8.13575
G1 X133.587 Y97.198 E8.17026
G1 X133.596 Y97.518 E8.18197
G1 X133.6 Y97.83 E8.19339
G1 X133.6 Y121.764 E9.06904
G1 X133.599 Y121.901 E9.07406
G1 X133.59 Y122.628 E9.10066
G1 X133.539 Y123.569 E9.13513
G1 X133.407 Y124.502 E9.16961
G1 X133.197 Y125.421 E9.2041
G1 X132.91 Y126.318 E9.23855
G1 X132.548 Y127.188 E9.27303
G1 X132.114 Y128.024 E9.30749
G1 X131.61 Y128.82 E9.34196
G1 X131.041 Y129.57 E9.3764
G1 X130.409 Y130.27 E9.41091
G1 X129.721 Y130.913 E9.44536
G1 X128.981 Y131.496 E9.47983
G1 X128.194 Y132.014 E9.5143
G1 X127.366 Y132.463 E9.54876
G1 X126.503 Y132.841 E9.58323
G1 X125.611 Y133.144 E9.6177
G1 X124.696 Y133.37 E9.65218
G1 X123.766 Y133.518 E9.68663
G1 X122.802 Y133.587 E9.72199
G1 X122.481 Y133.596 E9.73374
G1 X122.17 Y133.6 E9.74512
G1 X98.207 Y133.6 E10.62183
G1 X98.064 Y133.599 E10.62706
G1 X97.366 Y133.59 E10.6526
G1 X96.425 Y133.538 E10.68708
G1 X95.492 Y133.406 E10.72156
G1 X94.574 Y133.196 E10.75601
G1 X93.677 Y132.908 E10.79048
G1 X92.807 Y132.546 E10.82496
G1 X91.971 Y132.111 E10.85943
G1 X91.176 Y131.607 E10.89387
G1 X90.425 Y131.037 E10.92837
G1 X89.726 Y130.405 E10.96284
G1 X89.083 Y129.717 E10.9973
G1 X88.501 Y128.976 E11.03177
G1 X87.983 Y128.189 E11.06624
G1 X87.534 Y127.361 E11.1007
G1 X87.157 Y126.497 E11.13519
G1 X86.855 Y125.605 E11.16964
G1 X86.629 Y124.691 E11.20409
G1 X86.482 Y123.76 E11.23857
G1 X86.413 Y122.791 E11.27412
G1 X86.404 Y122.458 E11.2863
G1 X86.4 Y122.158 E11.29728
G1 X86.4 Y98.174 E12.17476
G1 X86.401 Y98.024 E12.18025
G1 X86.41 Y97.359 E12.20458
G1 X86.463 Y96.418 E12.23906
G1 X86.595 Y95.485 E12.27354
G1 X86.806 Y94.567 E12.308
G1 X87.094 Y93.67 E12.34247
G1 X87.457 Y92.801 E12.37692
G1 X87.892 Y91.965 E12.4114
G1 X88.397 Y91.17 E12.44586
G1 X88.968 Y90.42 E12.48035
G1 X89.6 Y89.721 E12.51483
G0 F6000 X90.031 Y89.912
G1 F900 X90.716 Y89.294 E12.54858
G1 X91.452 Y88.737 E12.58235
G1 X92.234 Y88.246 E12.61613
G1 X93.056 Y87.824 E12.64994
G1 X93.91 Y87.475 E12.68369
G1 X94.792 Y87.201 E12.71748
G1 X95.694 Y87.005 E12.75125
G1 X96.61 Y86.887 E12.78504
G1 X97.21 Y86.853 E12.80703
G1 X97.531 Y86.844 E12.81878
G1 X97.83 Y86.84 E12.82972
G1 X121.793 Y86.84 E13.70643
G1 X121.946 Y86.841 E13.71203
G1 X122.644 Y86.851 E13.73757
G1 X123.565 Y86.904 E13.77132
G1 X124.479 Y87.037 E13.80511
G1 X125.378 Y87.248 E13.8389
G1 X126.255 Y87.537 E13.87268
G1 X127.104 Y87.9 E13.90646
G1 X127.918 Y88.335 E13.94023
G1 X128.692 Y88.839 E13.97402
G1 X129.419 Y89.408 E14.0078
G1 X130.094 Y90.038 E14.04158
G1 X130.712 Y90.724 E14.07536
G1 X131.268 Y91.46 E14.1091
G1 X131.759 Y92.243 E14.14292
G1 X132.18 Y93.064 E14.17667
G1 X132.528 Y93.919 E14.21045
G1 X132.801 Y94.801 E14.24423
G1 X132.997 Y95.703 E14.278
G1 X133.114 Y96.619 E14.31178
G1 X133.147 Y97.21 E14.33344
G1 X133.156 Y97.53 E14.34515
G1 X133.16 Y97.83 E14.35613
G1 X133.16 Y121.764 E15.23178
G1 X133.159 Y121.896 E15.23661
G1 X133.15 Y122.623 E15.26321
G1 X133.099 Y123.545 E15.29699
G1 X132.968 Y124.459 E15.33078
G1 X132.758 Y125.358 E15.36455
G1 X132.472 Y126.236 E15.39834
G1 X132.11 Y127.085 E15.4321
G1 X131.677 Y127.9 E15.46587
G1 X131.174 Y128.675 E15.49967
G1 X130.607 Y129.403 E15.53343
G1 X129.978 Y130.079 E15.56721
G1 X129.293 Y130.699 E15.60102
G1 X128.558 Y131.256 E15.63476
G1 X127.776 Y131.748 E15.66856
G1 X126.956 Y132.171 E15.70232
G1 X126.101 Y132.521 E15.73612
G1 X125.22 Y132.796 E15.76988
G1 X124.318 Y132.993 E15.80366
G1 X123.402 Y133.112 E15.83746
G1 X122.79 Y133.147 E15.85988
G1 X122.469 Y133.156 E15.87163
G1 X122.17 Y133.16 E15.88257
G1 X98.207 Y133.16 E16.75929
G1 X98.07 Y133.159 E16.7643
G1 X97.372 Y133.15 E16.78984
G1 X96.45 Y133.098 E16.82362
G1 X95.536 Y132.967 E16.8574
G1 X94.637 Y132.757 E16.89118
G1 X93.759 Y132.47 E16.92498
G1 X92.91 Y132.108 E16.95874
G1 X92.095 Y131.674 E16.99253
G1 X91.321 Y131.171 E17.0263
G1 X90.593 Y130.603 E17.06008
G1 X89.917 Y129.974 E17.09386
G1 X89.298 Y129.289 E17.12764
G1 X88.741 Y128.553 E17.16141
G1 X88.249 Y127.772 E17.19518
G1 X87.827 Y126.951 E17.22895
G1 X87.477 Y126.096 E17.26275
G1 X87.203 Y125.215 E17.29651
G1 X87.006 Y124.313 E17.33029
G1 X86.888 Y123.397 E17.36408
G1 X86.853 Y122.779 E17.38672
G1 X86.844 Y122.446 E17.39891
G1 X86.84 Y122.158 E17.40945
G1 X86.84 Y98.174 E18.28693
G1 X86.841 Y98.03 E18.2922
G1 X86.85 Y97.365 E18.31653
G1 X86.902 Y96.443 E18.35032
G1 X87.034 Y95.529 E18.38411
G1 X87.245 Y94.63 E18.41789
G1 X87.533 Y93.753 E18.45166
G1 X87.895 Y92.904 E18.48543
G1 X88.33 Y92.089 E18.51923
G1 X88.833 Y91.315 E18.553
G1 X89.401 Y90.588 E18.58675
G1 X90.031 Y89.912 E18.62056
G0 F6000 X89.835 Y90.759
G1 F900 X90.461 Y90.108 E18.6536
G1 X91.143 Y89.514 E18.68669
G1 X91.874 Y88.983 E18.71975
G1 X92.65 Y88.518 E18.75285
G1 X93.463 Y88.124 E18.7859
G1 X94.309 Y87.803 E18.81901
G1 X95.179 Y87.558 E18.85207
G1 X96.067 Y87.391 E18.88513
G1 X97.223 Y87.293 E18.92758
G1 X97.544 Y87.284 E18.93933
G1 X97.83 Y87.28 E18.94979
G1 X121.793 Y87.28 E19.8265
G1 X121.939 Y87.281 E19.83185
G1 X122.637 Y87.291 E19.85739
G1 X123.54 Y87.344 E19.89048
G1 X124.434 Y87.476 E19.92354
G1 X125.313 Y87.687 E19.95662
G1 X126.17 Y87.975 E19.98969
G1 X126.998 Y88.338 E20.02277
G1 X127.791 Y88.772 E20.05584
G1 X128.543 Y89.274 E20.08892
G1 X129.247 Y89.841 E20.12199
G1 X129.898 Y90.468 E20.15506
G1 X130.491 Y91.15 E20.18813
G1 X131.022 Y91.882 E20.22121
G1 X131.486 Y92.658 E20.25429
G1 X131.879 Y93.472 E20.28736
G1 X132.199 Y94.317 E20.32042
G1 X132.444 Y95.188 E20.35352
G1 X132.61 Y96.076 E20.38658
G1 X132.707 Y97.223 E20.42869
G1 X132.716 Y97.543 E20.4404
G1 X132.72 Y97.83 E20.4509
G1 X132.72 Y121.764 E21.32656
G1 X132.719 Y121.891 E21.3312
G1 X132.71 Y122.618 E21.3578
G1 X132.659 Y123.52 E21.39086
G1 X132.528 Y124.415 E21.42395
G1 X132.319 Y125.294 E21.457
G1 X132.033 Y126.151 E21.49006
G1 X131.672 Y126.98 E21.52314
G1 X131.24 Y127.774 E21.55621
G1 X130.738 Y128.527 E21.58932
G1 X130.173 Y129.232 E21.62238
G1 X129.547 Y129.884 E21.65544
G1 X128.866 Y130.479 E21.68853
G1 X128.135 Y131.011 E21.72161
G1 X127.361 Y131.476 E21.75464
G1 X126.547 Y131.871 E21.78774
G1 X125.703 Y132.193 E21.82079
G1 X124.833 Y132.439 E21.85387
G1 X123.945 Y132.607 E21.88694
G1 X122.777 Y132.707 E21.92983
G1 X122.456 Y132.716 E21.94157
G1 X122.17 Y132.72 E21.95204
G1 X98.207 Y132.72 E22.82875
G1 X98.075 Y132.719 E22.83358
G1 X97.377 Y132.71 E22.85912
G1 X96.475 Y132.659 E22.89218
G1 X95.58 Y132.527 E22.92527
G1 X94.701 Y132.318 E22.95833
G1 X93.844 Y132.031 E22.9914
G1 X93.015 Y131.67 E23.02448
G1 X92.221 Y131.237 E23.05756
G1 X91.469 Y130.735 E23.09064
G1 X90.764 Y130.169 E23.12372
G1 X90.112 Y129.543 E23.15679
G1 X89.518 Y128.862 E23.18985
G1 X88.986 Y128.131 E23.22293
G1 X88.521 Y127.356 E23.256
G1 X88.126 Y126.543 E23.28907
G1 X87.805 Y125.698 E23.32214
G1 X87.56 Y124.828 E23.3552
G1 X87.392 Y123.939 E23.38831
G1 X87.293 Y122.767 E23.43134
G1 X87.284 Y122.434 E23.44352
G1 X87.28 Y122.158 E23.45362
G1 X87.28 Y98.174 E24.33111
G1 X87.281 Y98.036 E24.33615
G1 X87.29 Y97.371 E24.36049
G1 X87.342 Y96.468 E24.39358
G1 X87.474 Y95.574 E24.42664
G1 X87.684 Y94.695 E24.45971
G1 X87.971 Y93.837 E24.49281
G1 X88.333 Y93.009 E24.52587
G1 X88.767 Y92.216 E24.55894
G1 X89.268 Y91.464 E24.592
G1 X89.835 Y90.759 E24.6251
G1 F2700 E19.6251
;MESH:efe8c4bd-a747-4b41-8209-40e32c821a28.stl
G0 F6000 X96.835 Y120.96
G0 X99.04 Y120.96
;TYPE:WALL-INNER
G1 F2700 E24.6251
G1 F900 X99.04 Y99.04 E25.42707
G1 X120.96 Y99.04 E26.22904
G1 X120.96 Y120.96 E27.03101
G1 X99.04 Y120.96 E27.83297
G0 F6000 X98.6 Y121.4
G1 F900 X98.6 Y98.6 E28.66714
G1 X121.4 Y98.6 E29.5013
G1 X121.4 Y121.4 E30.33547
G1 X98.6 Y121.4 E31.16963
G0 F6000 X98.16 Y121.84
G1 F900 X98.16 Y98.16 E32.03599
G1 X121.84 Y98.16 E32.90235
G1 X121.84 Y121.84 E33.76871
G1 X98.16 Y121.84 E34.63507
G0 F6000 X97.72 Y122.28
;TYPE:WALL-OUTER
G1 F900 X97.72 Y97.72 E35.53363
G1 X122.28 Y97.72 E36.43218
G1 X122.28 Y122.28 E37.33074
G1 X97.72 Y122.28 E38.22929
G0 F6000 X99.47 Y120.53
;TYPE:SKIN
G1 F900 X99.47 Y99.47 E38.9998
G1 X120.53 Y99.47 E39.7703
G1 X120.53 Y120.53 E40.54081
G1 X99.47 Y120.53 E41.31131
G0 F6000 X99.818 Y120.353
G1 F900 X99.645 Y120.179 E41.32029
G0 F6000 X99.645 Y119.557
G1 F900 X100.44 Y120.353 E41.36145
G0 F6000 X101.063 Y120.353
G1 F900 X99.645 Y118.935 E41.43482
G0 F6000 X99.645 Y118.313
G1 F900 X101.685 Y120.353 E41.54037
G0 F6000 X102.307 Y120.353
G1 F900 X99.645 Y117.69 E41.67813
G0 F6000 X99.645 Y117.068
G1 F900 X102.929 Y120.353 E41.84807
G0 F6000 X103.552 Y120.353
G1 F900 X99.645 Y116.446 E42.05022
G0 F6000 X99.645 Y115.824
G1 F900 X104.174 Y120.353 E42.28455
G0 F6000 X104.796 Y120.353
G1 F900 X99.645 Y115.201 E42.55109
G0 F6000 X99.645 Y114.579
G1 F900 X105.419 Y120.353 E42.84985
G0 F6000 X106.041 Y120.353
G1 F900 X99.645 Y113.957 E43.18078
G0 F6000 X99.645 Y113.335
G1 F900 X106.663 Y120.353 E43.54389
G0 F6000 X107.285 Y120.353
G1 F900 X99.645 Y112.712 E43.93922
G0 F6000 X99.645 Y112.09
G1 F900 X107.908 Y120.353 E44.36675
G0 F6000 X108.53 Y120.353
G1 F900 X99.645 Y111.468 E44.82647
G0 F6000 X99.645 Y110.846
G1 F900 X109.152 Y120.353 E45.31836
G0 F6000 X109.774 Y120.353
G1 F900 X99.645 Y110.223 E45.84247
G0 F6000 X99.645 Y109.601
G1 F900 X110.397 Y120.353 E46.39879
G0 F6000 X111.019 Y120.353
G1 F900 X99.645 Y108.979 E46.98728
G0 F6000 X99.645 Y108.357
G1 F900 X111.641 Y120.353 E47.60797
G0 F6000 X112.263 Y120.353
G1 F900 X99.645 Y107.734 E48.26085
G0 F6000 X99.645 Y107.112
G1 F900 X112.886 Y120.353 E48.94595
G0 F6000 X113.508 Y120.353
G1 F900 X99.645 Y106.49 E49.66323
G0 F6000 X99.645 Y105.868
G1 F900 X114.13 Y120.353 E50.4127
G0 F6000 X114.752 Y120.353
G1 F900 X99.645 Y105.245 E51.19437
G0 F6000 X99.645 Y104.623
G1 F900 X115.375 Y120.353 E52.00825
G0 F6000 X115.997 Y120.353
G1 F900 X99.645 Y104.001 E52.85431
G0 F6000 X99.645 Y103.379
G1 F900 X116.619 Y120.353 E53.73255
G0 F6000 X117.241 Y120.353
G1 F900 X99.645 Y102.756 E54.64301
G0 F6000 X99.645 Y102.134
G1 F900 X117.864 Y120.353 E55.58567
G0 F6000 X118.486 Y120.353
G1 F900 X99.645 Y101.512 E56.56052
G0 F6000 X99.645 Y100.889
G1 F900 X119.108 Y120.353 E57.56757
G0 F6000 X119.73 Y120.353
G1 F900 X99.645 Y100.267 E58.60681
G0 F6000 X99.645 Y99.645
G1 F900 X120.353 Y120.353 E59.67825
G0 F6000 X120.353 Y119.731
G1 F900 X100.268 Y99.646 E60.71746
G0 F6000 X100.89 Y99.646
G1 F900 X120.353 Y119.109 E61.72449
G0 F6000 X120.353 Y118.487
G1 F900 X101.512 Y99.646 E62.69934
G0 F6000 X102.135 Y99.646
G1 F900 X120.353 Y117.864 E63.64195
G0 F6000 X120.353 Y117.242
G1 F900 X102.757 Y99.646 E64.55237
G0 F6000 X103.379 Y99.646
G1 F900 X120.353 Y116.62 E65.43062
G0 F6000 X120.353 Y115.998
G1 F900 X104.001 Y99.646 E66.27668
G0 F6000 X104.624 Y99.646
G1 F900 X120.353 Y115.375 E67.09051
G0 F6000 X120.353 Y114.753
G1 F900 X105.246 Y99.646 E67.87216
G0 F6000 X105.868 Y99.646
G1 F900 X120.353 Y114.131 E68.62162
G0 F6000 X120.353 Y113.509
G1 F900 X106.49 Y99.646 E69.3389
G0 F6000 X107.113 Y99.646
G1 F900 X120.353 Y112.886 E70.02395
G0 F6000 X120.353 Y112.264
G1 F900 X107.735 Y99.646 E70.67681
G0 F6000 X108.357 Y99.646
G1 F900 X120.353 Y111.642 E71.29749
G0 F6000 X120.353 Y111.02
G1 F900 X108.98 Y99.646 E71.88596
G0 F6000 X109.602 Y99.646
G1 F900 X120.353 Y110.397 E72.44222
G0 F6000 X120.353 Y109.775
G1 F900 X110.224 Y99.646 E72.96631
G0 F6000 X110.846 Y99.646
G1 F900 X120.353 Y109.153 E73.4582
G0 F6000 X120.353 Y108.53
G1 F900 X111.469 Y99.646 E73.91787
G0 F6000 X112.091 Y99.646
G1 F900 X120.353 Y107.908 E74.34535
G0 F6000 X120.353 Y107.286
G1 F900 X112.713 Y99.646 E74.74065
G0 F6000 X113.335 Y99.646
G1 F900 X120.353 Y106.664 E75.10376
