;FLAVOR:Marlin
;TIME:1233
;Filament used: 0.399735m
;Layer height: 0.12
;MINX:1.076
;MINY:1.076
;MINZ:0.12
;MAXX:218.924
;MAXY:218.924
;MAXZ:0.24
;Generated with Cura_SteamEngine 4.2.1
M140 S90
M105
M190 S90
M104 S240
M105
M109 S240
M82 ;absolute extrusion mode
M201 X500.00 Y500.00 Z100.00 E5000.00 ;Setup machine max acceleration
M203 X500.00 Y500.00 Z10.00 E50.00 ;Setup machine max feedrate
M204 P500.00 R1000.00 T500.00 ;Setup Print/Retract/Travel acceleration
M205 X8.00 Y8.00 Z0.40 E5.00 ;Setup Jerk
M220 S100 ;Reset Feedrate
M221 S100 ;Reset Flowrate

G28 ;Home

G92 E0 ;Reset Extruder
G1 Z2.0 F3000 ;Move Z Axis up
G1 X10.1 Y20 Z0.28 F5000.0 ;Move to start position
G1 X10.1 Y200.0 Z0.28 F1500.0 E15 ;Draw the first line
G1 X10.4 Y200.0 Z0.28 F5000.0 ;Move to side a little
G1 X10.4 Y20 Z0.28 F1500.0 E30 ;Draw the second line
G92 E0 ;Reset Extruder
G1 Z2.0 F3000 ;Move Z Axis up

G92 E0
G92 E0
G1 F3000 E-5
;LAYER_COUNT:2
;LAYER:0
M107
G0 F6000 X9.432 Y8.772 Z0.12
;TYPE:SKIRT
G1 F3000 E0
G1 F900 X9.786 Y8.42 E0.01096
G1 X10.147 Y8.076 E0.02191
G1 X10.514 Y7.741 E0.03281
G1 X11.014 Y7.304 E0.04739
G1 X11.358 Y7.014 E0.05727
G1 X11.789 Y6.666 E0.06943
G1 X12.187 Y6.36 E0.08045
G1 X12.687 Y5.991 E0.09409
G1 X13.061 Y5.726 E0.10415
G1 X13.574 Y5.378 E0.11776
G1 X13.976 Y5.117 E0.12828
G1 X14.412 Y4.847 E0.13954
G1 X14.817 Y4.607 E0.14987
G1 X15.37 Y4.295 E0.16381
G1 X15.77 Y4.08 E0.17378
G1 X16.327 Y3.794 E0.18752
G1 X16.778 Y3.575 E0.19853
G1 X17.287 Y3.341 E0.21083
G1 X17.714 Y3.155 E0.22105
G1 X18.28 Y2.922 E0.23449
G1 X18.709 Y2.755 E0.24459
G1 X19.264 Y2.552 E0.25756
G1 X19.729 Y2.393 E0.26835
G1 X20.301 Y2.211 E0.28153
G1 X20.757 Y2.077 E0.29196
G1 X21.291 Y1.931 E0.30411
G1 X21.726 Y1.821 E0.31396
G1 X22.338 Y1.679 E0.32776
G1 X22.789 Y1.583 E0.33788
G1 X23.609 Y1.427 E0.3562
G1 X24.526 Y1.291 E0.37655
G1 X25.396 Y1.197 E0.39576
G1 X25.907 Y1.153 E0.40702
G1 X26.618 Y1.108 E0.42266
G1 X27.087 Y1.088 E0.43296
G1 X27.576 Y1.077 E0.4437
G1 X28.071 Y1.076 E0.45457
G1 X28.759 Y1.09 E0.46967
G1 X29.227 Y1.109 E0.47995
G1 X29.784 Y1.143 E0.4922
G1 X30.236 Y1.18 E0.50216
G1 X30.763 Y1.233 E0.51379
G1 X31.258 Y1.294 E0.52473
G1 X31.964 Y1.396 E0.54039
G1 X32.411 Y1.469 E0.55033
G1 X32.898 Y1.559 E0.56121
G1 X33.362 Y1.655 E0.57161
G1 X33.964 Y1.792 E0.58516
G1 X34.429 Y1.908 E0.59568
G1 X35.051 Y2.077 E0.60983
G1 X35.503 Y2.21 E0.62017
G1 X35.987 Y2.363 E0.63132
G1 X36.441 Y2.516 E0.64183
G1 X37.095 Y2.753 E0.6571
G1 X37.52 Y2.917 E0.6671
G1 X37.986 Y3.107 E0.67815
G1 X38.447 Y3.307 E0.68918
G1 X39.052 Y3.585 E0.7038
G1 X39.448 Y3.776 E0.71345
G1 X39.916 Y4.013 E0.72496
G1 X40.36 Y4.25 E0.73601
G1 X40.952 Y4.583 E0.75092
G1 X41.36 Y4.824 E0.76132
G1 X42.03 Y5.238 E0.77861
G1 X42.75 Y5.721 E0.79764
G1 X43.468 Y6.243 E0.81713
G1 X43.889 Y6.564 E0.82875
G1 X44.388 Y6.963 E0.84278
G1 X44.769 Y7.282 E0.85369
G1 X45.272 Y7.721 E0.86834
G1 X45.598 Y8.016 E0.87799
G1 X46.153 Y8.539 E0.89473
G1 X46.451 Y8.83 E0.90388
G1 X47.392 Y9.783 E0.93328
G1 X47.444 Y9.836 E0.93491
G1 X48.334 Y10.749 E0.96289
G1 X50.137 Y12.496 E1.018
G1 X51.974 Y14.18 E1.07271
G1 X53.847 Y15.801 E1.12709
G1 X55.799 Y17.395 E1.18241
G1 X57.782 Y18.925 E1.23739
G1 X59.822 Y20.408 E1.29275
G1 X61.868 Y21.809 E1.34719
G1 X63.968 Y23.16 E1.402
G1 X66.125 Y24.463 E1.45732
G1 X68.276 Y25.682 E1.51159
G1 X70.527 Y26.873 E1.5675
G1 X72.729 Y27.962 E1.62142
G1 X75.017 Y29.012 E1.67668
G1 X77.328 Y29.996 E1.73182
G1 X79.674 Y30.918 E1.78715
G1 X81.994 Y31.751 E1.84126
G1 X84.404 Y32.543 E1.89695
G1 X86.792 Y33.253 E1.95164
G1 X89.183 Y33.891 E2.00596
G1 X91.637 Y34.472 E2.06132
G1 X94.112 Y34.986 E2.11681
G1 X96.547 Y35.417 E2.17109
G1 X99 Y35.782 E2.22553
G1 X101.522 Y36.085 E2.2813
G1 X103.99 Y36.31 E2.3357
G1 X106.495 Y36.468 E2.39079
G1 X108.978 Y36.553 E2.44533
G1 X111.513 Y36.569 E2.50098
G1 X113.996 Y36.515 E2.5555
G1 X116.499 Y36.388 E2.61052
G1 X118.978 Y36.193 E2.6651
G1 X121.472 Y35.925 E2.72017
G1 X123.973 Y35.585 E2.77557
G1 X126.399 Y35.185 E2.82955
G1 X128.896 Y34.7 E2.88538
G1 X131.326 Y34.157 E2.94004
G1 X133.733 Y33.546 E2.99455
G1 X136.151 Y32.861 E3.04972
G1 X138.542 Y32.109 E3.10474
G1 X140.903 Y31.291 E3.15959
G1 X143.251 Y30.403 E3.2147
G1 X145.548 Y29.46 E3.26921
G1 X147.831 Y28.446 E3.32404
G1 X150.109 Y27.356 E3.37948
G1 X152.341 Y26.209 E3.43457
G1 X154.511 Y25.016 E3.48893
G1 X156.688 Y23.736 E3.54436
G1 X158.812 Y22.407 E3.59936
G1 X160.851 Y21.049 E3.65314
G1 X162.937 Y19.571 E3.70926
G1 X164.934 Y18.072 E3.76407
G1 X166.868 Y16.532 E3.81834
G1 X168.806 Y14.896 E3.87402
G1 X170.661 Y13.238 E3.92863
G1 X172.476 Y11.523 E3.98345
G1 X174.063 Y9.94 E4.03265
G1 X174.382 Y9.614 E4.04267
G1 X174.777 Y9.23 E4.05476
G1 X175.421 Y8.632 E4.07405
G1 X175.798 Y8.296 E4.08514
G1 X176.252 Y7.91 E4.09822
G1 X176.604 Y7.623 E4.10819
G1 X177.082 Y7.248 E4.12152
G1 X177.461 Y6.963 E4.13193
G1 X177.965 Y6.6 E4.14557
G1 X178.335 Y6.344 E4.15545
G1 X178.987 Y5.912 E4.17261
G1 X179.772 Y5.436 E4.19277
G1 X180.818 Y4.857 E4.21901
G1 X181.658 Y4.435 E4.23965
G1 X182.493 Y4.058 E4.25976
G1 X182.965 Y3.858 E4.27101
G1 X183.594 Y3.607 E4.28588
G1 X184.069 Y3.429 E4.29701
G1 X184.559 Y3.258 E4.30841
G1 X184.991 Y3.117 E4.31838
G1 X185.587 Y2.935 E4.33206
G1 X186.039 Y2.807 E4.34237
G1 X186.636 Y2.651 E4.35592
G1 X187.068 Y2.547 E4.36567
G1 X187.63 Y2.423 E4.37831
G1 X188.153 Y2.32 E4.39001
G1 X188.686 Y2.228 E4.40188
G1 X189.12 Y2.162 E4.41152
G1 X189.786 Y2.073 E4.42627
G1 X190.276 Y2.018 E4.43709
G1 X190.851 Y1.966 E4.44976
G1 X191.309 Y1.934 E4.45984
G1 X191.884 Y1.905 E4.47248
G1 X192.342 Y1.891 E4.48254
G1 X192.904 Y1.885 E4.49488
G1 X193.375 Y1.889 E4.50522
G1 X194.004 Y1.908 E4.51903
G1 X194.51 Y1.935 E4.53015
G1 X195.157 Y1.983 E4.5444
G1 X195.621 Y2.027 E4.55463
G1 X196.395 Y2.116 E4.57173
G1 X197.247 Y2.246 E4.59065
G1 X198.135 Y2.416 E4.6105
G1 X198.681 Y2.534 E4.62276
G1 X199.321 Y2.689 E4.63721
G1 X199.748 Y2.801 E4.6469
G1 X200.292 Y2.955 E4.65931
G1 X200.745 Y3.094 E4.66972
G1 X201.306 Y3.278 E4.68268
G1 X201.799 Y3.452 E4.69415
G1 X202.377 Y3.671 E4.70772
G1 X202.793 Y3.838 E4.71756
G1 X203.333 Y4.067 E4.73044
G1 X203.747 Y4.252 E4.74039
G1 X204.25 Y4.489 E4.7526
G1 X204.687 Y4.706 E4.76331
G1 X205.25 Y5.001 E4.77726
G1 X205.679 Y5.238 E4.78802
G1 X206.221 Y5.552 E4.80177
G1 X206.585 Y5.771 E4.81109
G1 X206.99 Y6.026 E4.8216
G1 X207.422 Y6.313 E4.83299
G1 X208.014 Y6.724 E4.84881
G1 X208.39 Y6.996 E4.85899
G1 X208.84 Y7.336 E4.87137
G1 X209.205 Y7.623 E4.88157
G1 X209.819 Y8.127 E4.899
G1 X210.49 Y8.723 E4.91871
G1 X211.219 Y9.423 E4.94089
G1 X211.58 Y9.786 E4.95213
G1 X211.924 Y10.147 E4.96308
G1 X212.259 Y10.514 E4.97398
G1 X212.696 Y11.014 E4.98856
G1 X212.986 Y11.358 E4.99844
G1 X213.334 Y11.789 E5.0106
G1 X213.64 Y12.187 E5.02162
G1 X214.009 Y12.687 E5.03526
G1 X214.274 Y13.061 E5.04532
G1 X214.622 Y13.574 E5.05893
G1 X214.883 Y13.976 E5.06945
G1 X215.153 Y14.412 E5.08071
G1 X215.393 Y14.817 E5.09104
G1 X215.705 Y15.37 E5.10498
G1 X215.92 Y15.77 E5.11495
G1 X216.206 Y16.327 E5.12869
G1 X216.421 Y16.77 E5.1395
G1 X216.655 Y17.278 E5.15178
G1 X216.848 Y17.72 E5.16237
G1 X217.081 Y18.287 E5.17582
G1 X217.245 Y18.709 E5.18576
G1 X217.448 Y19.264 E5.19874
G1 X217.607 Y19.729 E5.20952
G1 X217.789 Y20.301 E5.2227
G1 X217.922 Y20.751 E5.233
G1 X218.068 Y21.284 E5.24513
G1 X218.18 Y21.729 E5.25521
G1 X218.322 Y22.342 E5.26902
G1 X218.417 Y22.789 E5.27905
G1 X218.573 Y23.609 E5.29737
G1 X218.709 Y24.524 E5.31768
G1 X218.803 Y25.392 E5.33684
G1 X218.847 Y25.907 E5.34819
G1 X218.892 Y26.62 E5.36387
G1 X218.912 Y27.087 E5.37413
G1 X218.923 Y27.575 E5.38485
G1 X218.924 Y28.069 E5.39569
G1 X218.91 Y28.758 E5.41082
G1 X218.891 Y29.227 E5.42113
G1 X218.857 Y29.784 E5.43338
G1 X218.821 Y30.231 E5.44322
G1 X218.769 Y30.75 E5.45467
G1 X218.708 Y31.248 E5.46568
G1 X218.605 Y31.962 E5.48152
G1 X218.531 Y32.411 E5.49151
G1 X218.441 Y32.898 E5.50238
G1 X218.345 Y33.362 E5.51278
G1 X218.208 Y33.964 E5.52633
G1 X218.093 Y34.427 E5.53681
G1 X217.926 Y35.042 E5.5508
G1 X217.794 Y35.492 E5.56109
G1 X217.639 Y35.983 E5.57239
G1 X217.482 Y36.445 E5.5831
G1 X217.248 Y37.09 E5.59817
G1 X217.091 Y37.498 E5.60776
G1 X216.898 Y37.973 E5.61902
G1 X216.693 Y38.447 E5.63035
G1 X216.415 Y39.052 E5.64497
G1 X216.224 Y39.448 E5.65462
G1 X215.987 Y39.916 E5.66614
G1 X215.75 Y40.36 E5.67718
G1 X215.417 Y40.952 E5.69209
G1 X215.176 Y41.36 E5.7025
G1 X214.762 Y42.03 E5.71979
G1 X214.279 Y42.75 E5.73882
G1 X213.757 Y43.468 E5.7583
G1 X213.436 Y43.889 E5.76993
G1 X213.037 Y44.388 E5.78395
G1 X212.718 Y44.769 E5.79486
G1 X212.279 Y45.272 E5.80951
G1 X211.984 Y45.598 E5.81917
G1 X211.461 Y46.153 E5.83591
G1 X211.167 Y46.454 E5.84514
G1 X210.192 Y47.416 E5.87521
G1 X210.143 Y47.463 E5.8767
G1 X209.269 Y48.315 E5.90349
G1 X207.504 Y50.137 E5.95918
G1 X205.82 Y51.974 E6.01388
G1 X204.199 Y53.847 E6.06826
G1 X202.601 Y55.804 E6.12372
G1 X201.066 Y57.794 E6.17889
G1 X199.598 Y59.813 E6.23369
G1 X198.201 Y61.853 E6.28796
G1 X196.835 Y63.977 E6.3434
G1 X195.537 Y66.125 E6.39849
G1 X194.318 Y68.276 E6.45276
G1 X193.127 Y70.527 E6.50867
G1 X192.038 Y72.729 E6.56259
G1 X190.988 Y75.017 E6.61786
G1 X190.004 Y77.328 E6.67299
G1 X189.082 Y79.674 E6.72833
G1 X188.249 Y81.994 E6.78244
G1 X187.457 Y84.404 E6.83812
G1 X186.747 Y86.792 E6.89281
G1 X186.109 Y89.183 E6.94714
G1 X185.528 Y91.637 E7.00249
G1 X185.014 Y94.112 E7.05798
G1 X184.583 Y96.547 E7.11227
G1 X184.218 Y99 E7.16671
G1 X183.915 Y101.522 E7.22247
G1 X183.69 Y103.99 E7.27687
G1 X183.532 Y106.495 E7.33197
G1 X183.447 Y108.978 E7.38651
G1 X183.431 Y111.513 E7.44215
G1 X183.485 Y113.997 E7.4967
G1 X183.612 Y116.498 E7.55167
G1 X183.807 Y118.978 E7.60628
G1 X184.075 Y121.472 E7.66134
G1 X184.415 Y123.973 E7.71674
G1 X184.815 Y126.399 E7.77072
G1 X185.3 Y128.896 E7.82656
G1 X185.843 Y131.326 E7.88121
G1 X186.454 Y133.733 E7.93573
G1 X187.139 Y136.151 E7.9909
G1 X187.891 Y138.542 E8.04592
G1 X188.709 Y140.903 E8.10077
G1 X189.597 Y143.251 E8.15587
G1 X190.54 Y145.548 E8.21038
G1 X191.554 Y147.831 E8.26522
G1 X192.644 Y150.109 E8.32065
G1 X193.791 Y152.341 E8.37574
G1 X194.978 Y154.501 E8.42984
G1 X196.26 Y156.681 E8.48536
G1 X197.587 Y158.802 E8.54028
G1 X198.972 Y160.881 E8.59512
G1 X200.423 Y162.929 E8.65021
G1 X201.928 Y164.934 E8.70525
G1 X203.483 Y166.886 E8.76003
G1 X205.088 Y168.788 E8.81466
G1 X206.762 Y170.661 E8.86981
G1 X208.476 Y172.475 E8.92459
G1 X210.06 Y174.063 E8.97383
G1 X210.385 Y174.381 E8.98381
G1 X210.77 Y174.776 E8.99592
G1 X211.367 Y175.419 E9.01518
G1 X211.698 Y175.792 E9.02612
G1 X212.075 Y176.235 E9.03889
G1 X212.359 Y176.582 E9.04874
G1 X212.745 Y177.073 E9.06245
G1 X213.037 Y177.461 E9.07311
G1 X213.4 Y177.965 E9.08674
G1 X213.656 Y178.335 E9.09662
G1 X214.088 Y178.987 E9.11379
G1 X214.564 Y179.772 E9.13394
G1 X215.143 Y180.818 E9.16018
G1 X215.565 Y181.658 E9.18082
G1 X215.942 Y182.493 E9.20093
G1 X216.14 Y182.959 E9.21205
G1 X216.389 Y183.582 E9.22677
G1 X216.569 Y184.065 E9.23809
G1 X216.742 Y184.561 E9.24962
G1 X216.883 Y184.991 E9.25955
G1 X217.065 Y185.587 E9.27323
G1 X217.191 Y186.03 E9.28334
G1 X217.347 Y186.625 E9.29685
G1 X217.455 Y187.074 E9.30698
G1 X217.579 Y187.638 E9.31966
G1 X217.678 Y188.14 E9.33089
G1 X217.767 Y188.652 E9.3423
G1 X217.835 Y189.094 E9.35212
G1 X217.927 Y189.78 E9.36731
G1 X217.982 Y190.276 E9.37827
G1 X218.034 Y190.852 E9.39096
G1 X218.066 Y191.307 E9.40097
G1 X218.095 Y191.88 E9.41357
G1 X218.109 Y192.34 E9.42367
G1 X218.115 Y192.904 E9.43605
G1 X218.111 Y193.375 E9.44639
G1 X218.092 Y194.004 E9.46021
G1 X218.066 Y194.506 E9.47124
G1 X218.019 Y195.142 E9.48524
G1 X217.975 Y195.606 E9.49547
G1 X217.885 Y196.391 E9.51282
G1 X217.754 Y197.247 E9.53182
G1 X217.584 Y198.135 E9.55167
G1 X217.466 Y198.681 E9.56393
G1 X217.311 Y199.321 E9.57839
G1 X217.199 Y199.748 E9.58808
G1 X217.045 Y200.292 E9.60049
G1 X216.906 Y200.745 E9.61089
G1 X216.722 Y201.306 E9.62385
G1 X216.548 Y201.799 E9.63533
G1 X216.329 Y202.377 E9.6489
G1 X216.162 Y202.793 E9.65874
G1 X215.933 Y203.333 E9.67161
G1 X215.748 Y203.747 E9.68157
G1 X215.511 Y204.25 E9.69377
G1 X215.298 Y204.679 E9.70429
G1 X215.002 Y205.245 E9.71831
G1 X214.755 Y205.692 E9.72952
G1 X214.442 Y206.231 E9.7432
G1 X214.233 Y206.578 E9.75209
G1 X213.979 Y206.982 E9.76257
G1 X213.686 Y207.424 E9.77421
G1 X213.274 Y208.017 E9.79006
G1 X213.004 Y208.39 E9.80017
G1 X212.664 Y208.84 E9.81255
G1 X212.377 Y209.205 E9.82274
G1 X211.873 Y209.819 E9.84018
G1 X211.277 Y210.49 E9.85988
G1 X210.577 Y211.219 E9.88207
G1 X210.214 Y211.58 E9.89331
G1 X209.853 Y211.924 E9.90425
G1 X209.486 Y212.259 E9.91516
G1 X208.986 Y212.696 E9.92974
G1 X208.642 Y212.986 E9.93961
G1 X208.211 Y213.334 E9.95177
G1 X207.813 Y213.64 E9.96279
G1 X207.313 Y214.009 E9.97644
G1 X206.939 Y214.274 E9.9865
G1 X206.426 Y214.622 E10.00011
G1 X206.023 Y214.884 E10.01066
G1 X205.595 Y215.149 E10.02171
G1 X205.197 Y215.384 E10.03185
G1 X204.636 Y215.701 E10.046
G1 X204.23 Y215.92 E10.05612
G1 X203.673 Y216.206 E10.06987
G1 X203.222 Y216.425 E10.08088
G1 X202.713 Y216.659 E10.09317
G1 X202.286 Y216.845 E10.1034
G1 X201.72 Y217.078 E10.11683
G1 X201.291 Y217.245 E10.12694
G1 X200.736 Y217.448 E10.13991
G1 X200.271 Y217.607 E10.1507
G1 X199.699 Y217.789 E10.16388
G1 X199.243 Y217.923 E10.17431
G1 X198.709 Y218.069 E10.18646
G1 X198.274 Y218.179 E10.19631
G1 X197.662 Y218.321 E10.2101
G1 X197.211 Y218.417 E10.22022
G1 X196.391 Y218.573 E10.23855
G1 X195.474 Y218.709 E10.2589
G1 X194.604 Y218.803 E10.27811
G1 X194.093 Y218.847 E10.28937
G1 X193.382 Y218.892 E10.305
G1 X192.913 Y218.912 E10.31531
G1 X192.424 Y218.923 E10.32605
G1 X191.929 Y218.924 E10.33691
G1 X191.241 Y218.91 E10.35202
G1 X190.773 Y218.891 E10.3623
G1 X190.216 Y218.857 E10.37455
G1 X189.764 Y218.82 E10.3845
G1 X189.237 Y218.767 E10.39613
G1 X188.742 Y218.706 E10.40708
G1 X188.036 Y218.604 E10.42274
G1 X187.589 Y218.531 E10.43268
G1 X187.102 Y218.441 E10.44355
G1 X186.638 Y218.345 E10.45395
G1 X186.036 Y218.208 E10.46751
G1 X185.571 Y218.092 E10.47803
G1 X184.949 Y217.923 E10.49218
G1 X184.497 Y217.79 E10.50252
G1 X184.013 Y217.637 E10.51366
G1 X183.559 Y217.484 E10.52418
G1 X182.905 Y217.247 E10.53945
G1 X182.48 Y217.083 E10.54945
G1 X182.014 Y216.893 E10.5605
G1 X181.553 Y216.693 E10.57153
G1 X180.948 Y216.415 E10.58614
G1 X180.553 Y216.224 E10.59577
G1 X180.083 Y215.986 E10.60734
G1 X179.637 Y215.748 E10.61844
G1 X179.047 Y215.416 E10.6333
G1 X178.638 Y215.175 E10.64372
G1 X177.957 Y214.754 E10.66129
G1 X177.223 Y214.26 E10.68072
G1 X176.509 Y213.739 E10.70012
G1 X176.098 Y213.425 E10.71147
G1 X175.606 Y213.031 E10.72531
G1 X175.231 Y212.717 E10.73604
G1 X174.728 Y212.278 E10.7507
G1 X174.402 Y211.983 E10.76035
G1 X173.847 Y211.46 E10.77709
G1 X173.551 Y211.17 E10.78619
G1 X172.586 Y210.193 E10.81633
G1 X172.529 Y210.136 E10.8181
G1 X171.663 Y209.247 E10.84535
G1 X169.867 Y207.507 E10.90024
G1 X168.023 Y205.818 E10.95513
G1 X166.153 Y204.199 E11.00943
G1 X164.196 Y202.601 E11.06489
G1 X162.206 Y201.066 E11.12006
G1 X160.195 Y199.604 E11.17464
G1 X158.132 Y198.191 E11.22953
G1 X156.032 Y196.84 E11.28434
G1 X153.875 Y195.537 E11.33966
G1 X151.724 Y194.318 E11.39394
G1 X149.473 Y193.127 E11.44984
G1 X147.271 Y192.038 E11.50376
G1 X144.983 Y190.988 E11.55903
G1 X142.672 Y190.004 E11.61416
G1 X140.326 Y189.082 E11.6695
G1 X138.006 Y188.249 E11.72361
G1 X135.596 Y187.457 E11.7793
G1 X133.208 Y186.747 E11.83398
G1 X130.817 Y186.109 E11.88831
G1 X128.363 Y185.528 E11.94367
G1 X125.888 Y185.014 E11.99915
G1 X123.453 Y184.583 E12.05344
G1 X121 Y184.218 E12.10788
G1 X118.478 Y183.915 E12.16364
G1 X116.01 Y183.69 E12.21804
G1 X113.505 Y183.532 E12.27314
G1 X111.022 Y183.447 E12.32768
G1 X108.487 Y183.431 E12.38333
G1 X106.004 Y183.485 E12.43784
G1 X103.501 Y183.612 E12.49286
G1 X101.022 Y183.807 E12.54745
G1 X98.528 Y184.075 E12.60251
G1 X96.027 Y184.415 E12.65792
G1 X93.601 Y184.815 E12.71189
G1 X91.104 Y185.3 E12.76773
G1 X88.674 Y185.843 E12.82238
G1 X86.267 Y186.454 E12.8769
G1 X83.849 Y187.139 E12.93207
G1 X81.458 Y187.891 E12.98709
G1 X79.097 Y188.709 E13.04194
G1 X76.749 Y189.597 E13.09704
G1 X74.452 Y190.54 E13.15155
