;FLAVOR:Marlin
;TIME:112
;Filament used: 0.0443436m
;Layer height: 0.12
;MINX:85.96
;MINY:85.96
;MINZ:0.12
;MAXX:134.04
;MAXY:134.04
;MAXZ:0.12
;Generated with Cura_SteamEngine 4.2.1
M140 S50
M105
M190 S50
M104 S210
M105
M109 S210
M82 ;absolute extrusion mode
M201 X500.00 Y500.00 Z100.00 E5000.00 ;Setup machine max acceleration
M203 X500.00 Y500.00 Z10.00 E50.00 ;Setup machine max feedrate
M204 P500.00 R1000.00 T500.00 ;Setup Print/Retract/Travel acceleration
M205 X8.00 Y8.00 Z0.40 E5.00 ;Setup Jerk
M220 S100 ;Reset Feedrate
M221 S100 ;Reset Flowrate

G28 ;Home

G92 E0 ;Reset Extruder
G1 Z2.0 F3000 ;Move Z Axis up
G1 X10.1 Y20 Z0.28 F5000.0 ;Move to start position
G1 X10.1 Y200.0 Z0.28 F1500.0 E15 ;Draw the first line
G1 X10.4 Y200.0 Z0.28 F5000.0 ;Move to side a little
G1 X10.4 Y20 Z0.28 F1500.0 E30 ;Draw the second line
G92 E0 ;Reset Extruder
G1 Z2.0 F3000 ;Move Z Axis up

M141 S28
G92 E0
G92 E0
G1 F2700 E-5
;LAYER_COUNT:1
;LAYER:0
M107
G0 F6000 X90.776 Y90.848 Z0.12
;TYPE:SKIRT
G1 F2700 E0
G1 F1200 X91.212 Y90.425 E0.01334
G1 X91.412 Y90.241 E0.0193
G1 X91.827 Y89.877 E0.03142
G1 X91.997 Y89.735 E0.03628
G1 X92.471 Y89.36 E0.04955
G1 X92.703 Y89.186 E0.05591
G1 X93.257 Y88.795 E0.0708
G1 X93.47 Y88.654 E0.07641
G1 X93.948 Y88.354 E0.0888
G1 X94.172 Y88.221 E0.09451
G1 X94.673 Y87.941 E0.10711
G1 X94.902 Y87.82 E0.1128
G1 X95.433 Y87.556 E0.12582
G1 X95.629 Y87.465 E0.13056
G1 X96.164 Y87.233 E0.14336
G1 X96.446 Y87.119 E0.15004
G1 X97.074 Y86.886 E0.16474
G1 X97.346 Y86.794 E0.17104
G1 X97.989 Y86.597 E0.18581
G1 X98.255 Y86.524 E0.19186
G1 X98.817 Y86.385 E0.20457
G1 X99.025 Y86.339 E0.20925
G1 X99.567 Y86.233 E0.22137
G1 X99.847 Y86.185 E0.22761
G1 X100.606 Y86.081 E0.24442
G1 X100.953 Y86.045 E0.25208
G1 X101.456 Y86.004 E0.26316
G1 X101.657 Y85.992 E0.26758
G1 X102.212 Y85.972 E0.27977
G1 X102.821 Y85.965 E0.29314
G1 X102.947 Y85.964 E0.29591
G1 X109.992 Y85.96 E0.45056
G1 X110.009 Y85.96 E0.45093
G1 X117.091 Y85.966 E0.60639
G1 X117.255 Y85.967 E0.60999
G1 X117.919 Y85.977 E0.62457
G1 X118.61 Y86.008 E0.63975
G1 X118.876 Y86.028 E0.64561
G1 X119.602 Y86.106 E0.66164
G1 X119.954 Y86.155 E0.66944
G1 X120.566 Y86.257 E0.68306
G1 X120.782 Y86.299 E0.68789
G1 X121.378 Y86.432 E0.70129
G1 X121.642 Y86.498 E0.70727
G1 X122.29 Y86.68 E0.72204
G1 X122.568 Y86.767 E0.72844
G1 X123.081 Y86.941 E0.74033
G1 X123.3 Y87.021 E0.74545
G1 X123.875 Y87.248 E0.75902
G1 X124.109 Y87.348 E0.7646
G1 X124.667 Y87.605 E0.77809
G1 X124.911 Y87.725 E0.78406
G1 X125.47 Y88.019 E0.79792
G1 X125.721 Y88.16 E0.80424
G1 X126.215 Y88.454 E0.81686
G1 X126.42 Y88.583 E0.82218
G1 X126.964 Y88.947 E0.83655
G1 X127.172 Y89.095 E0.84215
G1 X127.622 Y89.432 E0.85449
G1 X127.815 Y89.584 E0.85988
G1 X128.269 Y89.96 E0.87282
G1 X128.491 Y90.154 E0.8793
G1 X128.964 Y90.592 E0.89345
G1 X129.143 Y90.767 E0.89894
G1 X129.559 Y91.195 E0.91204
G1 X129.749 Y91.401 E0.9182
G1 X130.177 Y91.892 E0.93249
G1 X130.349 Y92.101 E0.93844
G1 X130.687 Y92.533 E0.95048
G1 X130.831 Y92.726 E0.95576
G1 X131.198 Y93.248 E0.96977
G1 X131.332 Y93.45 E0.97509
G1 X131.63 Y93.923 E0.98736
G1 X131.77 Y94.158 E0.99337
G1 X132.059 Y94.673 E1.00633
G1 X132.18 Y94.902 E1.01202
G1 X132.444 Y95.433 E1.02504
G1 X132.535 Y95.629 E1.02978
G1 X132.761 Y96.151 E1.04227
G1 X132.875 Y96.432 E1.04892
G1 X133.114 Y97.073 E1.06394
G1 X133.206 Y97.345 E1.07024
G1 X133.408 Y98.009 E1.08548
G1 X133.481 Y98.277 E1.09158
G1 X133.591 Y98.715 E1.10149
G1 X133.636 Y98.91 E1.10588
G1 X133.772 Y99.589 E1.12108
G1 X133.821 Y99.88 E1.12756
G1 X133.919 Y100.605 E1.14362
G1 X133.955 Y100.952 E1.15128
G1 X134.014 Y101.884 E1.17178
G1 X134.037 Y102.91 E1.19431
G1 X134.04 Y103.175 E1.20012
G1 X134.033 Y117.102 E1.50585
G1 X134.032 Y117.259 E1.50929
G1 X134.023 Y117.897 E1.5233
G1 X133.994 Y118.565 E1.53798
G1 X133.974 Y118.842 E1.54407
G1 X133.894 Y119.598 E1.56076
G1 X133.845 Y119.951 E1.56858
G1 X133.743 Y120.567 E1.58229
G1 X133.701 Y120.783 E1.58712
G1 X133.566 Y121.389 E1.60075
G1 X133.5 Y121.652 E1.6067
G1 X133.32 Y122.29 E1.62125
G1 X133.233 Y122.568 E1.62765
G1 X133.064 Y123.069 E1.63925
G1 X132.989 Y123.275 E1.64407
G1 X132.763 Y123.847 E1.65757
G1 X132.657 Y124.096 E1.66351
G1 X132.403 Y124.651 E1.67691
G1 X132.285 Y124.892 E1.6828
G1 X131.98 Y125.473 E1.6972
G1 X131.84 Y125.722 E1.70347
G1 X131.54 Y126.225 E1.71633
G1 X131.41 Y126.431 E1.72168
G1 X131.063 Y126.95 E1.73538
G1 X130.914 Y127.16 E1.74103
G1 X130.568 Y127.622 E1.7537
G1 X130.416 Y127.815 E1.7591
G1 X130.04 Y128.269 E1.77204
G1 X129.846 Y128.491 E1.77851
G1 X129.408 Y128.964 E1.79266
G1 X129.233 Y129.143 E1.79816
G1 X128.805 Y129.559 E1.81126
G1 X128.599 Y129.749 E1.81741
G1 X128.179 Y130.118 E1.82968
G1 X128.014 Y130.256 E1.8344
G1 X127.54 Y130.631 E1.84767
G1 X127.303 Y130.809 E1.85418
G1 X126.774 Y131.184 E1.86841
G1 X126.567 Y131.322 E1.87387
G1 X126.034 Y131.657 E1.88769
G1 X125.802 Y131.794 E1.89361
G1 X125.346 Y132.049 E1.90508
G1 X125.12 Y132.169 E1.91069
G1 X124.547 Y132.453 E1.92473
G1 X124.35 Y132.544 E1.9295
G1 X123.836 Y132.767 E1.94179
G1 X123.554 Y132.881 E1.94847
G1 X122.926 Y133.114 E1.96318
G1 X122.654 Y133.206 E1.96948
G1 X122.011 Y133.403 E1.98424
G1 X121.745 Y133.476 E1.9903
G1 X121.183 Y133.615 E2.003
G1 X120.975 Y133.661 E2.00768
G1 X120.433 Y133.767 E2.0198
G1 X120.153 Y133.815 E2.02604
G1 X119.394 Y133.919 E2.04286
G1 X119.047 Y133.955 E2.05052
G1 X118.115 Y134.014 E2.07102
G1 X117.09 Y134.037 E2.09352
G1 X116.825 Y134.04 E2.09934
G1 X102.898 Y134.033 E2.40506
G1 X102.741 Y134.032 E2.40851
G1 X102.103 Y134.023 E2.42251
G1 X101.435 Y133.994 E2.43719
G1 X101.158 Y133.974 E2.44329
G1 X100.402 Y133.894 E2.45998
G1 X100.049 Y133.845 E2.4678
G1 X99.433 Y133.743 E2.48151
G1 X99.217 Y133.701 E2.48634
G1 X98.611 Y133.566 E2.49996
G1 X98.348 Y133.5 E2.50592
G1 X97.71 Y133.32 E2.52047
G1 X97.432 Y133.233 E2.52686
G1 X96.892 Y133.049 E2.53939
G1 X96.672 Y132.968 E2.54453
G1 X96.163 Y132.767 E2.55655
G1 X95.929 Y132.668 E2.56212
G1 X95.314 Y132.387 E2.57697
G1 X95.067 Y132.265 E2.58301
G1 X94.536 Y131.985 E2.59619
G1 X94.288 Y131.846 E2.60243
G1 X93.775 Y131.541 E2.61553
G1 X93.572 Y131.413 E2.6208
G1 X93.028 Y131.048 E2.63518
G1 X92.819 Y130.899 E2.64082
G1 X92.378 Y130.568 E2.65292
G1 X92.185 Y130.416 E2.65831
G1 X91.731 Y130.039 E2.67127
G1 X91.501 Y129.838 E2.67797
G1 X91.008 Y129.381 E2.69273
G1 X90.837 Y129.213 E2.69799
G1 X90.441 Y128.805 E2.71047
G1 X90.251 Y128.599 E2.71662
G1 X89.877 Y128.173 E2.72907
G1 X89.735 Y128.003 E2.73393
G1 X89.365 Y127.535 E2.74703
G1 X89.19 Y127.302 E2.75342
G1 X88.794 Y126.741 E2.7685
G1 X88.655 Y126.531 E2.77403
G1 X88.352 Y126.049 E2.78652
G1 X88.215 Y125.818 E2.79242
G1 X87.931 Y125.309 E2.80521
G1 X87.813 Y125.085 E2.81077
G1 X87.538 Y124.528 E2.82441
G1 X87.435 Y124.304 E2.82982
G1 X87.211 Y123.783 E2.84227
G1 X87.109 Y123.529 E2.84828
G1 X86.886 Y122.926 E2.86239
G1 X86.794 Y122.654 E2.86869
G1 X86.595 Y122 E2.8837
G1 X86.522 Y121.733 E2.88978
G1 X86.399 Y121.245 E2.90082
G1 X86.352 Y121.038 E2.90548
G1 X86.224 Y120.387 E2.92005
G1 X86.177 Y120.106 E2.9263
G1 X86.081 Y119.396 E2.94203
G1 X86.045 Y119.05 E2.94967
G1 X85.986 Y118.114 E2.97025
G1 X85.963 Y117.085 E2.99285
G1 X85.96 Y116.821 E2.99864
G1 X85.967 Y102.853 E3.30526
G1 X85.968 Y102.684 E3.30897
G1 X85.977 Y102.09 E3.32201
G1 X86.007 Y101.426 E3.33661
G1 X86.028 Y101.138 E3.34294
G1 X86.11 Y100.368 E3.35994
G1 X86.158 Y100.027 E3.3675
G1 X86.257 Y99.433 E3.38072
G1 X86.299 Y99.217 E3.38555
G1 X86.441 Y98.583 E3.39981
G1 X86.511 Y98.307 E3.40606
G1 X86.685 Y97.695 E3.42003
G1 X86.768 Y97.43 E3.42613
G1 X86.951 Y96.892 E3.4386
G1 X87.032 Y96.672 E3.44375
G1 X87.233 Y96.163 E3.45576
G1 X87.332 Y95.929 E3.46134
G1 X87.613 Y95.315 E3.47616
G1 X87.733 Y95.072 E3.48211
G1 X88.019 Y94.53 E3.49556
G1 X88.16 Y94.279 E3.50188
G1 X88.446 Y93.798 E3.51417
G1 X88.574 Y93.594 E3.51945
G1 X88.941 Y93.044 E3.53397
G1 X89.093 Y92.83 E3.53973
G1 X89.449 Y92.355 E3.55276
G1 X89.604 Y92.159 E3.55825
G1 X89.986 Y91.701 E3.57134
G1 X90.174 Y91.487 E3.57759
G1 X90.595 Y91.033 E3.59118
G1 X90.776 Y90.848 E3.59686
G0 F6000 X91.091 Y91.155
G1 F1200 X91.51 Y90.749 E3.60967
G1 X91.71 Y90.565 E3.61564
G1 X92.109 Y90.215 E3.62729
G1 X92.279 Y90.073 E3.63215
G1 X92.735 Y89.712 E3.64492
G1 X92.967 Y89.538 E3.65128
G1 X93.5 Y89.162 E3.6656
G1 X93.713 Y89.021 E3.67121
G1 X94.173 Y88.733 E3.68312
G1 X94.397 Y88.6 E3.68884
G1 X94.878 Y88.33 E3.70095
G1 X95.107 Y88.209 E3.70664
G1 X95.619 Y87.955 E3.71918
G1 X95.815 Y87.864 E3.72393
G1 X96.329 Y87.641 E3.73622
G1 X96.611 Y87.527 E3.7429
G1 X97.215 Y87.303 E3.75704
G1 X97.487 Y87.211 E3.76335
G1 X98.105 Y87.022 E3.77753
G1 X98.371 Y86.949 E3.78359
G1 X98.912 Y86.815 E3.79582
G1 X99.12 Y86.769 E3.8005
G1 X99.642 Y86.667 E3.81217
G1 X99.922 Y86.619 E3.81841
G1 X100.652 Y86.518 E3.83459
G1 X100.999 Y86.482 E3.84225
G1 X101.482 Y86.443 E3.85288
G1 X101.683 Y86.431 E3.8573
G1 X102.217 Y86.412 E3.86903
G1 X102.826 Y86.405 E3.8824
G1 X102.948 Y86.404 E3.88508
G1 X109.993 Y86.4 E4.03973
G1 X110.008 Y86.4 E4.04006
G1 X117.09 Y86.406 E4.19552
G1 X117.248 Y86.407 E4.19899
G1 X117.912 Y86.417 E4.21357
G1 X118.577 Y86.447 E4.22818
G1 X118.843 Y86.467 E4.23404
G1 X119.541 Y86.542 E4.24945
G1 X119.893 Y86.591 E4.25725
G1 X120.482 Y86.689 E4.27035
G1 X120.698 Y86.731 E4.27519
G1 X121.271 Y86.858 E4.28807
G1 X121.535 Y86.924 E4.29404
G1 X122.158 Y87.1 E4.30825
G1 X122.436 Y87.187 E4.31465
G1 X122.93 Y87.354 E4.32609
G1 X123.149 Y87.434 E4.33121
G1 X123.702 Y87.653 E4.34427
G1 X123.936 Y87.753 E4.34986
G1 X124.473 Y87.999 E4.36282
G1 X124.717 Y88.119 E4.36879
G1 X125.254 Y88.402 E4.38212
G1 X125.505 Y88.543 E4.38844
G1 X125.981 Y88.826 E4.40059
G1 X126.186 Y88.955 E4.40591
G1 X126.709 Y89.306 E4.41974
G1 X126.917 Y89.454 E4.42534
G1 X127.35 Y89.778 E4.43721
G1 X127.543 Y89.93 E4.4426
G1 X127.979 Y90.292 E4.45504
G1 X128.201 Y90.486 E4.46151
G1 X128.657 Y90.907 E4.47514
G1 X128.836 Y91.082 E4.48063
G1 X129.235 Y91.493 E4.49321
G1 X129.425 Y91.699 E4.49936
G1 X129.837 Y92.172 E4.51313
G1 X130.009 Y92.381 E4.51907
G1 X130.335 Y92.796 E4.53066
G1 X130.479 Y92.989 E4.53594
G1 X130.832 Y93.491 E4.54941
G1 X130.966 Y93.693 E4.55473
G1 X131.252 Y94.148 E4.56653
G1 X131.392 Y94.383 E4.57254
G1 X131.67 Y94.878 E4.585
G1 X131.791 Y95.107 E4.59068
G1 X132.045 Y95.619 E4.60323
G1 X132.136 Y95.815 E4.60797
G1 X132.354 Y96.316 E4.61997
G1 X132.468 Y96.597 E4.62663
G1 X132.697 Y97.214 E4.64107
G1 X132.789 Y97.486 E4.64738
G1 X132.984 Y98.125 E4.66204
G1 X133.057 Y98.393 E4.66814
G1 X133.163 Y98.814 E4.67767
G1 X133.208 Y99.009 E4.68206
G1 X133.338 Y99.662 E4.69668
G1 X133.387 Y99.953 E4.70316
G1 X133.482 Y100.651 E4.71862
G1 X133.518 Y100.998 E4.72628
G1 X133.574 Y101.894 E4.74598
G1 X133.597 Y102.92 E4.76851
G1 X133.6 Y103.175 E4.77411
G1 X133.593 Y117.102 E5.07983
G1 X133.592 Y117.253 E5.08315
G1 X133.583 Y117.891 E5.09715
G1 X133.555 Y118.533 E5.11126
G1 X133.535 Y118.81 E5.11736
G1 X133.459 Y119.537 E5.1334
G1 X133.41 Y119.89 E5.14122
G1 X133.311 Y120.483 E5.15442
G1 X133.269 Y120.699 E5.15925
G1 X133.139 Y121.282 E5.17236
G1 X133.073 Y121.545 E5.17832
G1 X132.9 Y122.158 E5.1923
G1 X132.813 Y122.436 E5.19869
G1 X132.65 Y122.918 E5.20986
G1 X132.575 Y123.124 E5.21468
G1 X132.358 Y123.675 E5.22767
G1 X132.252 Y123.924 E5.23362
G1 X132.008 Y124.457 E5.24648
G1 X131.89 Y124.698 E5.25237
G1 X131.597 Y125.257 E5.26623
G1 X131.457 Y125.506 E5.2725
G1 X131.168 Y125.99 E5.28487
G1 X131.038 Y126.196 E5.29022
G1 X130.704 Y126.695 E5.3034
G1 X130.555 Y126.905 E5.30905
G1 X130.222 Y127.35 E5.32126
G1 X130.07 Y127.543 E5.32665
G1 X129.708 Y127.979 E5.33909
G1 X129.514 Y128.201 E5.34556
G1 X129.093 Y128.657 E5.35918
G1 X128.918 Y128.836 E5.36468
G1 X128.507 Y129.235 E5.37725
G1 X128.301 Y129.425 E5.3834
G1 X127.896 Y129.781 E5.39524
G1 X127.731 Y129.919 E5.39996
G1 X127.276 Y130.28 E5.41271
G1 X127.039 Y130.458 E5.41922
G1 X126.53 Y130.818 E5.43291
G1 X126.323 Y130.956 E5.43837
G1 X125.81 Y131.278 E5.45166
G1 X125.578 Y131.415 E5.45758
G1 X125.14 Y131.661 E5.4686
G1 X124.914 Y131.781 E5.47422
G1 X124.363 Y132.054 E5.48772
G1 X124.166 Y132.145 E5.49248
G1 X123.671 Y132.359 E5.50432
G1 X123.389 Y132.473 E5.511
G1 X122.785 Y132.697 E5.52514
G1 X122.513 Y132.789 E5.53144
G1 X121.895 Y132.978 E5.54563
G1 X121.629 Y133.051 E5.55168
G1 X121.088 Y133.185 E5.56392
G1 X120.88 Y133.231 E5.5686
G1 X120.358 Y133.333 E5.58027
G1 X120.078 Y133.381 E5.58651
G1 X119.348 Y133.482 E5.60268
G1 X119.001 Y133.518 E5.61034
G1 X118.105 Y133.574 E5.63005
G1 X117.08 Y133.597 E5.65256
G1 X116.825 Y133.6 E5.65815
G1 X102.898 Y133.593 E5.96388
G1 X102.747 Y133.592 E5.96719
G1 X102.109 Y133.583 E5.9812
G1 X101.467 Y133.555 E5.9953
G1 X101.19 Y133.535 E6.0014
G1 X100.463 Y133.459 E6.01745
G1 X100.11 Y133.41 E6.02527
G1 X99.517 Y133.311 E6.03847
G1 X99.301 Y133.269 E6.0433
G1 X98.718 Y133.139 E6.05641
G1 X98.455 Y133.073 E6.06236
G1 X97.842 Y132.9 E6.07634
G1 X97.564 Y132.813 E6.08274
G1 X97.044 Y132.636 E6.0948
G1 X96.824 Y132.555 E6.09994
G1 X96.334 Y132.362 E6.1115
G1 X96.1 Y132.263 E6.11708
G1 X95.509 Y131.992 E6.13135
G1 X95.262 Y131.87 E6.1374
G1 X94.751 Y131.601 E6.15008
G1 X94.503 Y131.462 E6.15632
G1 X94.01 Y131.168 E6.16892
G1 X93.807 Y131.04 E6.17419
G1 X93.283 Y130.689 E6.18803
G1 X93.074 Y130.54 E6.19366
G1 X92.65 Y130.222 E6.2053
G1 X92.457 Y130.07 E6.21069
G1 X92.021 Y129.708 E6.22313
G1 X91.791 Y129.507 E6.22984
G1 X91.316 Y129.067 E6.24405
G1 X91.145 Y128.899 E6.24931
G1 X90.765 Y128.507 E6.2613
G1 X90.575 Y128.301 E6.26745
G1 X90.215 Y127.891 E6.27943
G1 X90.073 Y127.721 E6.28429
G1 X89.717 Y127.271 E6.29688
G1 X89.542 Y127.038 E6.30328
G1 X89.161 Y126.499 E6.31777
G1 X89.022 Y126.289 E6.3233
G1 X88.731 Y125.824 E6.33534
G1 X88.594 Y125.593 E6.34124
G1 X88.32 Y125.104 E6.35354
G1 X88.202 Y124.88 E6.3591
G1 X87.938 Y124.344 E6.37221
G1 X87.835 Y124.12 E6.37763
G1 X87.62 Y123.619 E6.38959
G1 X87.518 Y123.365 E6.3956
G1 X87.303 Y122.785 E6.40918
G1 X87.211 Y122.513 E6.41548
G1 X87.019 Y121.884 E6.42992
G1 X86.946 Y121.617 E6.436
G1 X86.829 Y121.148 E6.44661
G1 X86.782 Y120.941 E6.45127
G1 X86.658 Y120.314 E6.4653
G1 X86.611 Y120.033 E6.47155
G1 X86.519 Y119.351 E6.48666
G1 X86.483 Y119.005 E6.49429
G1 X86.426 Y118.104 E6.51411
G1 X86.403 Y117.075 E6.53671
G1 X86.4 Y116.821 E6.54228
G1 X86.407 Y102.853 E6.8489
G1 X86.408 Y102.691 E6.85246
G1 X86.417 Y102.097 E6.8655
G1 X86.445 Y101.458 E6.87954
G1 X86.466 Y101.17 E6.88588
G1 X86.545 Y100.43 E6.90222
G1 X86.593 Y100.089 E6.90978
G1 X86.689 Y99.517 E6.92251
G1 X86.731 Y99.301 E6.92734
G1 X86.868 Y98.691 E6.94106
G1 X86.938 Y98.415 E6.94731
G1 X87.104 Y97.826 E6.96075
G1 X87.187 Y97.561 E6.96684
G1 X87.364 Y97.044 E6.97884
G1 X87.445 Y96.824 E6.98398
G1 X87.638 Y96.334 E6.99555
G1 X87.737 Y96.1 E7.00112
G1 X88.007 Y95.51 E7.01537
G1 X88.127 Y95.267 E7.02132
G1 X88.402 Y94.746 E7.03425
G1 X88.543 Y94.495 E7.04057
G1 X88.819 Y94.031 E7.05242
G1 X88.947 Y93.827 E7.05771
G1 X89.299 Y93.299 E7.07164
G1 X89.451 Y93.085 E7.0774
G1 X89.794 Y92.628 E7.08994
G1 X89.949 Y92.432 E7.09543
G1 X90.317 Y91.991 E7.10803
G1 X90.505 Y91.777 E7.11429
G1 X90.91 Y91.34 E7.12737
G1 X91.091 Y91.155 E7.13305
G0 F6000 X91.405 Y91.463
G1 F1200 X91.808 Y91.073 E7.14536
G1 X92.008 Y90.889 E7.15132
G1 X92.391 Y90.553 E7.16251
G1 X92.561 Y90.411 E7.16737
G1 X92.999 Y90.064 E7.17964
G1 X93.231 Y89.89 E7.186
G1 X93.743 Y89.529 E7.19976
G1 X93.956 Y89.388 E7.20536
G1 X94.398 Y89.111 E7.21681
G1 X94.622 Y88.978 E7.22253
G1 X95.084 Y88.719 E7.23416
G1 X95.313 Y88.598 E7.23984
G1 X95.804 Y88.354 E7.25188
G1 X96 Y88.263 E7.25662
G1 X96.494 Y88.049 E7.26844
G1 X96.776 Y87.935 E7.27512
G1 X97.355 Y87.72 E7.28868
G1 X97.627 Y87.628 E7.29498
G1 X98.222 Y87.446 E7.30864
G1 X98.488 Y87.373 E7.31469
G1 X99.007 Y87.244 E7.32643
G1 X99.215 Y87.198 E7.33111
G1 X99.716 Y87.1 E7.34232
G1 X99.996 Y87.052 E7.34855
G1 X100.697 Y86.956 E7.36408
G1 X101.044 Y86.92 E7.37174
G1 X101.509 Y86.882 E7.38198
G1 X101.71 Y86.87 E7.3864
G1 X102.222 Y86.852 E7.39765
G1 X102.831 Y86.845 E7.41102
G1 X102.948 Y86.844 E7.41359
G1 X109.993 Y86.84 E7.56824
