;FLAVOR:Marlin
;TIME:180
;Filament used: 0.0746662m
;Layer height: 0.12
;MINX:85.96
;MINY:85.96
;MINZ:0.12
;MAXX:134.04
;MAXY:134.04
;MAXZ:0.24
;Generated with Cura_SteamEngine 4.2.1
M140 S50
M105
M190 S50
M104 S210
M105
M109 S210
M82 ;absolute extrusion mode
M201 X500.00 Y500.00 Z100.00 E5000.00 ;Setup machine max acceleration
M203 X500.00 Y500.00 Z10.00 E50.00 ;Setup machine max feedrate
M204 P500.00 R1000.00 T500.00 ;Setup Print/Retract/Travel acceleration
M205 X8.00 Y8.00 Z0.40 E5.00 ;Setup Jerk
M220 S100 ;Reset Feedrate
M221 S100 ;Reset Flowrate

G28 ;Home

G92 E0 ;Reset Extruder
G1 Z2.0 F3000 ;Move Z Axis up
G1 X10.1 Y20 Z0.28 F5000.0 ;Move to start position
G1 X10.1 Y200.0 Z0.28 F1500.0 E15 ;Draw the first line
G1 X10.4 Y200.0 Z0.28 F5000.0 ;Move to side a little
G1 X10.4 Y20 Z0.28 F1500.0 E30 ;Draw the second line
G92 E0 ;Reset Extruder
G1 Z2.0 F3000 ;Move Z Axis up

M141 S28
G92 E0
G92 E0
G1 F2700 E-5
;LAYER_COUNT:2
;LAYER:0
M107
G0 F6000 X90.724 Y90.908 Z0.12
;TYPE:SKIRT
G1 F2700 E0
G1 F1200 X91.122 Y90.516 E0.01226
G1 X91.827 Y89.877 E0.03315
G1 X92.002 Y89.731 E0.03815
G1 X92.471 Y89.36 E0.05128
G1 X92.703 Y89.186 E0.05765
G1 X93.226 Y88.816 E0.07171
G1 X93.433 Y88.678 E0.07717
G1 X93.966 Y88.343 E0.09099
G1 X94.198 Y88.206 E0.0969
G1 X94.654 Y87.951 E0.10837
G1 X94.88 Y87.831 E0.11399
G1 X95.453 Y87.547 E0.12803
G1 X95.65 Y87.456 E0.13279
G1 X96.164 Y87.233 E0.14509
G1 X96.446 Y87.119 E0.15177
G1 X97.074 Y86.886 E0.16647
G1 X97.346 Y86.794 E0.17278
G1 X97.989 Y86.597 E0.18754
G1 X98.255 Y86.524 E0.19359
G1 X98.817 Y86.385 E0.2063
G1 X99.025 Y86.339 E0.21098
G1 X99.567 Y86.233 E0.2231
G1 X99.847 Y86.185 E0.22934
G1 X100.606 Y86.081 E0.24615
G1 X100.953 Y86.045 E0.25381
G1 X101.673 Y85.993 E0.26966
G1 X102.04 Y85.978 E0.27772
G1 X102.389 Y85.969 E0.28539
G1 X102.863 Y85.964 E0.29579
G1 X102.982 Y85.963 E0.2984
G1 X113.746 Y85.96 E0.53469
G1 X113.77 Y85.96 E0.53522
G1 X117.109 Y85.966 E0.60852
G1 X117.26 Y85.967 E0.61183
G1 X117.929 Y85.977 E0.62652
G1 X118.663 Y86.012 E0.64265
G1 X118.917 Y86.032 E0.64824
G1 X119.602 Y86.106 E0.66337
G1 X119.954 Y86.155 E0.67117
G1 X120.566 Y86.257 E0.68479
G1 X120.782 Y86.299 E0.68962
G1 X121.378 Y86.432 E0.70302
G1 X121.642 Y86.498 E0.709
G1 X122.29 Y86.68 E0.72377
G1 X122.568 Y86.767 E0.73017
G1 X123.108 Y86.951 E0.74269
G1 X123.328 Y87.032 E0.74783
G1 X123.837 Y87.233 E0.75985
G1 X124.071 Y87.332 E0.76543
G1 X124.685 Y87.613 E0.78025
G1 X124.928 Y87.733 E0.7862
G1 X125.47 Y88.019 E0.79965
G1 X125.721 Y88.16 E0.80597
G1 X126.215 Y88.454 E0.81859
G1 X126.42 Y88.583 E0.82391
G1 X126.964 Y88.947 E0.83827
G1 X127.172 Y89.095 E0.84388
G1 X127.867 Y89.631 E0.86314
G1 X128.256 Y89.955 E0.87426
G1 X129.103 Y90.735 E0.89953
G1 X129.494 Y91.133 E0.91178
G1 X130.118 Y91.821 E0.93217
G1 X130.25 Y91.979 E0.93669
G1 X130.604 Y92.424 E0.94917
G1 X130.792 Y92.673 E0.95602
G1 X131.198 Y93.248 E0.97147
G1 X131.332 Y93.45 E0.97679
G1 X131.63 Y93.923 E0.98907
G1 X131.77 Y94.158 E0.99507
G1 X132.059 Y94.673 E1.00803
G1 X132.18 Y94.902 E1.01372
G1 X132.444 Y95.433 E1.02674
G1 X132.535 Y95.629 E1.03148
G1 X132.761 Y96.151 E1.04397
G1 X132.875 Y96.432 E1.05062
G1 X133.114 Y97.073 E1.06564
G1 X133.206 Y97.345 E1.07195
G1 X133.408 Y98.009 E1.08718
G1 X133.481 Y98.277 E1.09328
G1 X133.591 Y98.715 E1.10319
G1 X133.636 Y98.91 E1.10758
G1 X133.772 Y99.589 E1.12279
G1 X133.821 Y99.88 E1.12926
G1 X133.919 Y100.605 E1.14532
G1 X133.955 Y100.952 E1.15298
G1 X134.014 Y101.884 E1.17348
G1 X134.037 Y102.91 E1.19601
G1 X134.04 Y103.175 E1.20183
G1 X134.033 Y117.102 E1.50755
G1 X134.032 Y117.259 E1.51099
G1 X134.023 Y117.897 E1.525
G1 X133.994 Y118.565 E1.53968
G1 X133.974 Y118.842 E1.54578
G1 X133.894 Y119.598 E1.56246
G1 X133.845 Y119.951 E1.57029
G1 X133.743 Y120.567 E1.58399
G1 X133.701 Y120.783 E1.58882
G1 X133.566 Y121.389 E1.60245
G1 X133.5 Y121.652 E1.6084
G1 X133.32 Y122.29 E1.62296
G1 X133.233 Y122.568 E1.62935
G1 X133.064 Y123.069 E1.64096
G1 X132.989 Y123.275 E1.64577
G1 X132.763 Y123.847 E1.65927
G1 X132.657 Y124.096 E1.66521
G1 X132.403 Y124.651 E1.67861
G1 X132.285 Y124.892 E1.6845
G1 X131.98 Y125.473 E1.6989
G1 X131.84 Y125.722 E1.70518
G1 X131.554 Y126.203 E1.71746
G1 X131.424 Y126.41 E1.72283
G1 X131.048 Y126.972 E1.73767
G1 X130.899 Y127.181 E1.7433
G1 X130.369 Y127.867 E1.76233
G1 X130.045 Y128.256 E1.77345
G1 X129.265 Y129.103 E1.79872
G1 X128.867 Y129.494 E1.81097
G1 X128.178 Y130.119 E1.83139
G1 X128.008 Y130.261 E1.83625
G1 X127.54 Y130.631 E1.84935
G1 X127.303 Y130.809 E1.85586
G1 X126.774 Y131.184 E1.87009
G1 X126.567 Y131.322 E1.87555
G1 X126.034 Y131.657 E1.88937
G1 X125.802 Y131.794 E1.89528
G1 X125.346 Y132.049 E1.90675
G1 X125.12 Y132.169 E1.91237
G1 X124.547 Y132.453 E1.92641
G1 X124.35 Y132.544 E1.93117
G1 X123.836 Y132.767 E1.94347
G1 X123.554 Y132.881 E1.95015
G1 X122.926 Y133.114 E1.96485
G1 X122.654 Y133.206 E1.97116
G1 X122.011 Y133.403 E1.98592
G1 X121.745 Y133.476 E1.99197
G1 X121.183 Y133.615 E2.00468
G1 X120.975 Y133.661 E2.00936
G1 X120.433 Y133.767 E2.02148
G1 X120.153 Y133.815 E2.02772
G1 X119.394 Y133.919 E2.04453
G1 X119.047 Y133.955 E2.05219
G1 X118.115 Y134.014 E2.07269
G1 X117.09 Y134.037 E2.0952
G1 X116.825 Y134.04 E2.10102
G1 X102.898 Y134.033 E2.40674
G1 X102.741 Y134.032 E2.41018
G1 X102.103 Y134.023 E2.42419
G1 X101.435 Y133.994 E2.43887
G1 X101.158 Y133.974 E2.44496
G1 X100.402 Y133.894 E2.46165
G1 X100.049 Y133.845 E2.46948
G1 X99.433 Y133.743 E2.48318
G1 X99.217 Y133.701 E2.48801
G1 X98.611 Y133.566 E2.50164
G1 X98.348 Y133.5 E2.50759
G1 X97.71 Y133.32 E2.52215
G1 X97.432 Y133.233 E2.52854
G1 X96.892 Y133.049 E2.54106
G1 X96.672 Y132.968 E2.54621
G1 X96.163 Y132.767 E2.55822
G1 X95.929 Y132.668 E2.5638
G1 X95.315 Y132.387 E2.57862
G1 X95.072 Y132.267 E2.58457
G1 X94.53 Y131.981 E2.59802
G1 X94.279 Y131.84 E2.60434
G1 X93.785 Y131.546 E2.61696
G1 X93.58 Y131.417 E2.62228
G1 X93.036 Y131.053 E2.63665
G1 X92.828 Y130.905 E2.64225
G1 X92.13 Y130.367 E2.6616
G1 X91.74 Y130.042 E2.67274
G1 X90.896 Y129.264 E2.69794
G1 X90.505 Y128.866 E2.71019
G1 X89.872 Y128.167 E2.73089
G1 X89.727 Y127.993 E2.73586
G1 X89.365 Y127.535 E2.74868
G1 X89.19 Y127.302 E2.75507
G1 X88.794 Y126.741 E2.77015
G1 X88.655 Y126.531 E2.77567
G1 X88.353 Y126.05 E2.78814
G1 X88.213 Y125.814 E2.79417
G1 X87.921 Y125.291 E2.80731
G1 X87.806 Y125.072 E2.81274
G1 X87.538 Y124.528 E2.82606
G1 X87.435 Y124.304 E2.83147
G1 X87.211 Y123.783 E2.84392
G1 X87.109 Y123.529 E2.84993
G1 X86.886 Y122.926 E2.86404
G1 X86.794 Y122.654 E2.87034
G1 X86.595 Y122 E2.88535
G1 X86.522 Y121.733 E2.89143
G1 X86.399 Y121.245 E2.90247
G1 X86.352 Y121.038 E2.90713
G1 X86.224 Y120.387 E2.9217
G1 X86.177 Y120.106 E2.92795
G1 X86.081 Y119.396 E2.94368
G1 X86.045 Y119.05 E2.95131
G1 X85.986 Y118.114 E2.9719
G1 X85.963 Y117.085 E2.9945
G1 X85.96 Y116.821 E3.00029
G1 X85.967 Y102.853 E3.30691
G1 X85.968 Y102.684 E3.31062
G1 X85.977 Y102.09 E3.32366
G1 X86.007 Y101.426 E3.33825
G1 X86.028 Y101.138 E3.34459
G1 X86.11 Y100.368 E3.36159
G1 X86.158 Y100.027 E3.36915
G1 X86.257 Y99.433 E3.38237
G1 X86.299 Y99.217 E3.3872
G1 X86.441 Y98.583 E3.40146
G1 X86.511 Y98.307 E3.40771
G1 X86.685 Y97.695 E3.42168
G1 X86.768 Y97.43 E3.42778
G1 X86.951 Y96.892 E3.44025
G1 X87.032 Y96.672 E3.4454
G1 X87.233 Y96.163 E3.45741
G1 X87.332 Y95.929 E3.46299
G1 X87.613 Y95.315 E3.47781
G1 X87.733 Y95.072 E3.48376
G1 X88.019 Y94.53 E3.49721
G1 X88.16 Y94.279 E3.50353
G1 X88.446 Y93.798 E3.51582
G1 X88.574 Y93.594 E3.5211
G1 X88.941 Y93.044 E3.53562
G1 X89.093 Y92.83 E3.54138
G1 X89.657 Y92.1 E3.56163
G1 X89.978 Y91.717 E3.5726
G1 X90.724 Y90.908 E3.59676
G0 F6000 X91.033 Y91.222
G1 F1200 X91.431 Y90.83 E3.60902
G1 X92.109 Y90.215 E3.62911
G1 X92.284 Y90.069 E3.63412
G1 X92.735 Y89.712 E3.64674
G1 X92.967 Y89.538 E3.65311
G1 X93.47 Y89.182 E3.66664
G1 X93.677 Y89.044 E3.6721
G1 X94.19 Y88.722 E3.68539
G1 X94.422 Y88.585 E3.69131
G1 X94.86 Y88.339 E3.70233
G1 X95.086 Y88.219 E3.70795
G1 X95.637 Y87.946 E3.72145
G1 X95.834 Y87.855 E3.72621
G1 X96.329 Y87.641 E3.73805
G1 X96.611 Y87.527 E3.74473
G1 X97.215 Y87.303 E3.75887
G1 X97.487 Y87.211 E3.76517
G1 X98.105 Y87.022 E3.77936
G1 X98.371 Y86.949 E3.78542
G1 X98.912 Y86.815 E3.79765
G1 X99.12 Y86.769 E3.80233
G1 X99.642 Y86.667 E3.814
G1 X99.922 Y86.619 E3.82024
G1 X100.652 Y86.518 E3.83642
G1 X100.999 Y86.482 E3.84407
G1 X101.691 Y86.432 E3.8593
G1 X102.058 Y86.417 E3.86737
G1 X102.394 Y86.409 E3.87474
G1 X102.868 Y86.404 E3.88515
G1 X102.982 Y86.403 E3.88765
G1 X113.746 Y86.4 E4.12394
G1 X113.769 Y86.4 E4.12445
G1 X117.108 Y86.406 E4.19774
G1 X117.254 Y86.407 E4.20095
G1 X117.923 Y86.417 E4.21563
G1 X118.628 Y86.45 E4.23113
G1 X118.882 Y86.47 E4.23672
G1 X119.541 Y86.542 E4.25127
G1 X119.893 Y86.591 E4.25907
G1 X120.482 Y86.689 E4.27218
G1 X120.698 Y86.731 E4.27701
G1 X121.271 Y86.858 E4.2899
G1 X121.535 Y86.924 E4.29587
G1 X122.158 Y87.1 E4.31008
G1 X122.436 Y87.187 E4.31647
G1 X122.956 Y87.364 E4.32853
G1 X123.176 Y87.445 E4.33368
G1 X123.666 Y87.638 E4.34524
G1 X123.9 Y87.737 E4.35082
G1 X124.49 Y88.007 E4.36506
G1 X124.733 Y88.127 E4.37101
G1 X125.254 Y88.402 E4.38394
G1 X125.505 Y88.543 E4.39026
G1 X125.981 Y88.826 E4.40242
G1 X126.186 Y88.955 E4.40773
G1 X126.709 Y89.306 E4.42156
G1 X126.917 Y89.454 E4.42717
G1 X127.586 Y89.969 E4.4457
G1 X127.975 Y90.293 E4.45681
G1 X128.789 Y91.043 E4.48111
G1 X129.18 Y91.441 E4.49336
G1 X129.78 Y92.103 E4.51297
G1 X129.912 Y92.261 E4.51749
G1 X130.253 Y92.69 E4.52952
G1 X130.441 Y92.939 E4.53637
G1 X130.832 Y93.491 E4.55122
G1 X130.966 Y93.693 E4.55654
G1 X131.252 Y94.148 E4.56833
G1 X131.392 Y94.383 E4.57434
G1 X131.67 Y94.878 E4.5868
G1 X131.791 Y95.107 E4.59249
G1 X132.045 Y95.619 E4.60503
G1 X132.136 Y95.815 E4.60978
G1 X132.354 Y96.316 E4.62177
G1 X132.468 Y96.597 E4.62843
G1 X132.697 Y97.214 E4.64287
G1 X132.789 Y97.486 E4.64918
G1 X132.984 Y98.125 E4.66384
G1 X133.057 Y98.393 E4.66994
G1 X133.163 Y98.814 E4.67947
G1 X133.208 Y99.009 E4.68386
G1 X133.338 Y99.662 E4.69848
G1 X133.387 Y99.953 E4.70496
G1 X133.482 Y100.651 E4.72042
G1 X133.518 Y100.998 E4.72808
G1 X133.574 Y101.894 E4.74779
G1 X133.597 Y102.92 E4.77031
G1 X133.6 Y103.175 E4.77591
G1 X133.593 Y117.102 E5.08163
G1 X133.592 Y117.253 E5.08495
G1 X133.583 Y117.891 E5.09896
G1 X133.555 Y118.533 E5.11306
G1 X133.535 Y118.81 E5.11916
G1 X133.459 Y119.537 E5.1352
G1 X133.41 Y119.89 E5.14303
G1 X133.311 Y120.483 E5.15622
G1 X133.269 Y120.699 E5.16106
G1 X133.139 Y121.282 E5.17417
G1 X133.073 Y121.545 E5.18012
G1 X132.9 Y122.158 E5.1941
G1 X132.813 Y122.436 E5.2005
G1 X132.65 Y122.918 E5.21167
G1 X132.575 Y123.124 E5.21648
G1 X132.358 Y123.675 E5.22948
G1 X132.252 Y123.924 E5.23542
G1 X132.008 Y124.457 E5.24829
G1 X131.89 Y124.698 E5.25418
G1 X131.597 Y125.257 E5.26803
G1 X131.457 Y125.506 E5.2743
G1 X131.181 Y125.969 E5.28613
G1 X131.051 Y126.176 E5.2915
G1 X130.689 Y126.717 E5.30579
G1 X130.54 Y126.926 E5.31142
G1 X130.031 Y127.586 E5.32972
G1 X129.707 Y127.975 E5.34083
G1 X128.957 Y128.789 E5.36513
G1 X128.559 Y129.18 E5.37738
G1 X127.896 Y129.781 E5.39702
G1 X127.726 Y129.923 E5.40188
G1 X127.276 Y130.28 E5.41449
G1 X127.039 Y130.458 E5.421
G1 X126.53 Y130.818 E5.43468
G1 X126.323 Y130.956 E5.44015
G1 X125.81 Y131.278 E5.45344
G1 X125.578 Y131.415 E5.45936
G1 X125.14 Y131.661 E5.47038
G1 X124.914 Y131.781 E5.476
G1 X124.363 Y132.054 E5.4895
G1 X124.166 Y132.145 E5.49426
G1 X123.671 Y132.359 E5.5061
G1 X123.389 Y132.473 E5.51278
G1 X122.785 Y132.697 E5.52692
G1 X122.513 Y132.789 E5.53322
G1 X121.895 Y132.978 E5.54741
G1 X121.629 Y133.051 E5.55346
G1 X121.088 Y133.185 E5.5657
G1 X120.88 Y133.231 E5.57038
G1 X120.358 Y133.333 E5.58205
G1 X120.078 Y133.381 E5.58829
G1 X119.348 Y133.482 E5.60446
G1 X119.001 Y133.518 E5.61212
G1 X118.105 Y133.574 E5.63183
G1 X117.08 Y133.597 E5.65434
G1 X116.825 Y133.6 E5.65993
G1 X102.898 Y133.593 E5.96565
G1 X102.747 Y133.592 E5.96897
G1 X102.109 Y133.583 E5.98298
G1 X101.467 Y133.555 E5.99708
G1 X101.19 Y133.535 E6.00318
G1 X100.463 Y133.459 E6.01922
G1 X100.11 Y133.41 E6.02705
G1 X99.517 Y133.311 E6.04025
G1 X99.301 Y133.269 E6.04508
G1 X98.718 Y133.139 E6.05819
G1 X98.455 Y133.073 E6.06414
G1 X97.842 Y132.9 E6.07812
G1 X97.564 Y132.813 E6.08452
G1 X97.044 Y132.636 E6.09657
G1 X96.824 Y132.555 E6.10172
G1 X96.334 Y132.362 E6.11328
G1 X96.1 Y132.263 E6.11886
G1 X95.51 Y131.993 E6.1331
G1 X95.267 Y131.873 E6.13905
G1 X94.746 Y131.598 E6.15198
G1 X94.495 Y131.457 E6.1583
G1 X94.019 Y131.174 E6.17046
G1 X93.814 Y131.045 E6.17578
G1 X93.291 Y130.694 E6.1896
G1 X93.083 Y130.546 E6.19521
G1 X92.412 Y130.029 E6.2138
G1 X92.022 Y129.704 E6.22495
G1 X91.21 Y128.956 E6.24918
G1 X90.819 Y128.558 E6.26143
G1 X90.21 Y127.885 E6.28135
G1 X90.065 Y127.711 E6.28632
G1 X89.717 Y127.271 E6.29864
G1 X89.542 Y127.038 E6.30504
G1 X89.161 Y126.499 E6.31953
G1 X89.022 Y126.289 E6.32505
G1 X88.731 Y125.825 E6.33708
G1 X88.591 Y125.589 E6.3431
G1 X88.311 Y125.087 E6.35572
G1 X88.196 Y124.868 E6.36115
G1 X87.938 Y124.344 E6.37397
G1 X87.835 Y124.12 E6.37938
G1 X87.62 Y123.619 E6.39135
G1 X87.518 Y123.365 E6.39736
G1 X87.303 Y122.785 E6.41094
G1 X87.211 Y122.513 E6.41724
G1 X87.019 Y121.884 E6.43168
G1 X86.946 Y121.617 E6.43775
G1 X86.829 Y121.148 E6.44836
G1 X86.782 Y120.941 E6.45302
G1 X86.658 Y120.314 E6.46705
G1 X86.611 Y120.033 E6.47331
G1 X86.519 Y119.351 E6.48841
G1 X86.483 Y119.005 E6.49605
G1 X86.426 Y118.104 E6.51587
G1 X86.403 Y117.075 E6.53846
G1 X86.4 Y116.821 E6.54404
G1 X86.407 Y102.853 E6.85066
G1 X86.408 Y102.691 E6.85422
G1 X86.417 Y102.097 E6.86726
G1 X86.445 Y101.458 E6.8813
G1 X86.466 Y101.17 E6.88764
G1 X86.545 Y100.43 E6.90397
G1 X86.593 Y100.089 E6.91153
G1 X86.689 Y99.517 E6.92426
G1 X86.731 Y99.301 E6.92909
G1 X86.868 Y98.691 E6.94282
G1 X86.938 Y98.415 E6.94907
G1 X87.104 Y97.826 E6.9625
G1 X87.187 Y97.561 E6.9686
G1 X87.364 Y97.044 E6.98059
G1 X87.445 Y96.824 E6.98574
G1 X87.638 Y96.334 E6.9973
G1 X87.737 Y96.1 E7.00288
G1 X88.007 Y95.51 E7.01712
G1 X88.127 Y95.267 E7.02307
G1 X88.402 Y94.746 E7.036
G1 X88.543 Y94.495 E7.04232
G1 X88.819 Y94.031 E7.05417
G1 X88.947 Y93.827 E7.05946
G1 X89.299 Y93.299 E7.07339
G1 X89.451 Y93.085 E7.07915
G1 X89.994 Y92.383 E7.09863
G1 X90.315 Y92 E7.1096
G1 X91.033 Y91.222 E7.13284
G0 F6000 X91.342 Y91.535
G1 F1200 X91.74 Y91.143 E7.14511
G1 X92.391 Y90.553 E7.16439
G1 X92.566 Y90.407 E7.1694
G1 X92.999 Y90.064 E7.18152
G1 X93.231 Y89.89 E7.18789
G1 X93.714 Y89.548 E7.20088
G1 X93.921 Y89.41 E7.20634
G1 X94.414 Y89.101 E7.21911
G1 X94.646 Y88.964 E7.22503
G1 X95.067 Y88.728 E7.23562
G1 X95.293 Y88.608 E7.24124
G1 X95.822 Y88.346 E7.2542
G1 X96.019 Y88.255 E7.25896
G1 X96.494 Y88.049 E7.27033
G1 X96.776 Y87.935 E7.277
G1 X97.355 Y87.72 E7.29056
G1 X97.627 Y87.628 E7.29687
G1 X98.222 Y87.446 E7.31052
G1 X98.488 Y87.373 E7.31658
G1 X99.007 Y87.244 E7.32832
G1 X99.215 Y87.198 E7.333
G1 X99.716 Y87.1 E7.3442
G1 X99.996 Y87.052 E7.35044
G1 X100.697 Y86.956 E7.36597
G1 X101.044 Y86.92 E7.37363
G1 X101.709 Y86.872 E7.38826
G1 X102.076 Y86.857 E7.39633
G1 X102.399 Y86.849 E7.40342
G1 X102.873 Y86.844 E7.41382
G1 X102.982 Y86.843 E7.41622
G1 X113.746 Y86.84 E7.65251
G1 X113.768 Y86.84 E7.65299
G1 X117.107 Y86.846 E7.72628
G1 X117.247 Y86.847 E7.72936
G1 X117.916 Y86.857 E7.74405
G1 X118.594 Y86.889 E7.75895
G1 X118.848 Y86.909 E7.76454
G1 X119.481 Y86.978 E7.77852
G1 X119.833 Y87.027 E7.78632
G1 X120.398 Y87.121 E7.79889
G1 X120.614 Y87.163 E7.80372
G1 X121.164 Y87.285 E7.81609
G1 X121.428 Y87.351 E7.82206
G1 X122.027 Y87.52 E7.83572
G1 X122.305 Y87.607 E7.84212
G1 X122.804 Y87.776 E7.85368
G1 X123.024 Y87.857 E7.85883
G1 X123.495 Y88.043 E7.86995
G1 X123.729 Y88.142 E7.87552
G1 X124.295 Y88.402 E7.8892
G1 X124.538 Y88.522 E7.89515
G1 X125.039 Y88.786 E7.90758
G1 X125.29 Y88.927 E7.9139
G1 X125.746 Y89.199 E7.92555
G1 X125.951 Y89.328 E7.93087
G1 X126.454 Y89.664 E7.94415
G1 X126.662 Y89.812 E7.94975
G1 X127.304 Y90.307 E7.96755
G1 X127.693 Y90.631 E7.97866
G1 X128.475 Y91.351 E8.00199
G1 X128.866 Y91.749 E8.01424
G1 X129.443 Y92.385 E8.03309
G1 X129.575 Y92.543 E8.03761
G1 X129.901 Y92.955 E8.04915
