;FLAVOR:Marlin
;TIME:6713
;Filament used: 5.80865m
;Layer height: 0.15
;Generated with Cura_SteamEngine 3.6.0
M140 S85
M105
M190 S85
M104 S250
M105
M109 S250
M82 ;absolute extrusion mode
; Ender 3 Custom Start G-code
G28 ; Home all axes
G92 E0 ; Reset Extruder
G1 Z2.0 F3000 ; Move Z Axis up little to prevent scratching of Heat Bed
G1 X0.1 Y20 Z0.3 F5000.0 ; Move to start position
G1 X0.1 Y200.0 Z0.3 F1500.0 E15 ; Draw the first line
G1 X0.4 Y200.0 Z0.3 F5000.0 ; Move to side a little
G1 X0.4 Y20 Z0.3 F1500.0 E30 ; Draw the second line
G92 E0 ; Reset Extruder
G1 Z2.0 F3000 ; Move Z Axis up little to prevent scratching of Heat Bed
; End of custom start GCode
G92 E0
G1 F2400 E-6
;LAYER_COUNT:54
;LAYER:0
M107
M204 S5000
M205 X30 Y30
G0 F1800 X84.252 Y68.943 Z0.2
M204 S500
M205 X20 Y20
;TYPE:SKIRT
G1 F2400 E0
G1 F900 X84.627 Y68.594 E0.02343
G1 X85.443 Y67.893 E0.07263
G1 X86.026 Y67.445 E0.10625
G1 X86.654 Y67.064 E0.13984
G1 X87.319 Y66.752 E0.17344
G1 X87.812 Y66.576 E0.19738
G1 X88.072 Y66.494 E0.20984
G1 X88.783 Y66.311 E0.24342
G1 X89.51 Y66.207 E0.27701
G1 X90.095 Y66.181 E0.30379
G1 X110.476 Y66.159 E1.23586
G1 X110.72 Y66.163 E1.24702
G1 X116.193 Y66.355 E1.49747
G1 X121.551 Y66.279 E1.74253
G1 X124.023 Y66.159 E1.85572
G1 X124.35 Y66.151 E1.87068
G1 X144.037 Y66.152 E2.77102
G1 X144.535 Y66.17 E2.79381
G1 X145.575 Y66.247 E2.8415
G1 X146.304 Y66.341 E2.87511
G1 X147.018 Y66.514 E2.90871
G1 X147.709 Y66.763 E2.9423
G1 X148.369 Y67.086 E2.97591
G1 X148.694 Y67.28 E2.99322
G1 X149.11 Y67.544 E3.01575
G1 X149.708 Y67.971 E3.04935
G1 X150.264 Y68.469 E3.08349
G1 X166.057 Y84.252 E4.10459
G1 X166.406 Y84.627 E4.12802
G1 X167.107 Y85.443 E4.17721
G1 X167.555 Y86.026 E4.21084
G1 X167.936 Y86.654 E4.24443
G1 X168.248 Y87.319 E4.27802
G1 X168.424 Y87.812 E4.30196
G1 X168.506 Y88.072 E4.31443
G1 X168.689 Y88.783 E4.34801
G1 X168.793 Y89.51 E4.38159
G1 X168.819 Y90.095 E4.40837
G1 X168.841 Y110.476 E5.34045
G1 X168.837 Y110.72 E5.35161
G1 X168.645 Y116.193 E5.60206
G1 X168.721 Y121.551 E5.84712
G1 X168.841 Y124.023 E5.96031
G1 X168.849 Y124.353 E5.9754
G1 X168.839 Y144.653 E6.90378
G1 X168.799 Y145.387 E6.93739
G1 X168.672 Y146.142 E6.97241
G1 X168.546 Y146.698 E6.99848
G1 X168.345 Y147.404 E7.03205
G1 X168.068 Y148.085 E7.06567
G1 X167.719 Y148.731 E7.09925
G1 X167.302 Y149.336 E7.13285
G1 X167.043 Y149.651 E7.1515
G1 X166.392 Y150.395 E7.19672
G1 X166.083 Y150.725 E7.21739
G1 X150.294 Y166.499 E8.23807
G1 X149.747 Y166.989 E8.27166
G1 X149.059 Y167.473 E8.31013
G1 X148.529 Y167.799 E8.33858
G1 X147.884 Y168.15 E8.37217
G1 X147.204 Y168.428 E8.40576
G1 X146.498 Y168.63 E8.43935
G1 X145.774 Y168.755 E8.47295
G1 X145.003 Y168.8 E8.50827
G1 X123.855 Y168.832 E9.47542
G1 X123.497 Y168.823 E9.4918
G1 X121.484 Y168.719 E9.58398
G1 X116.147 Y168.645 E9.82808
G1 X110.952 Y168.844 E10.06584
G1 X110.69 Y168.849 E10.07782
G1 X90.347 Y168.839 E11.00816
G1 X89.613 Y168.799 E11.04178
G1 X88.861 Y168.673 E11.07665
G1 X88.304 Y168.547 E11.10277
G1 X87.597 Y168.346 E11.13638
G1 X86.917 Y168.069 E11.16996
G1 X86.27 Y167.721 E11.20356
G1 X85.665 Y167.304 E11.23716
G1 X85.343 Y167.038 E11.25626
G1 X84.596 Y166.383 E11.3017
G1 X84.271 Y166.079 E11.32205
G1 X68.499 Y150.292 E12.3426
G1 X68.009 Y149.745 E12.37618
G1 X67.521 Y149.051 E12.41498
G1 X67.197 Y148.523 E12.44332
G1 X66.847 Y147.877 E12.47692
G1 X66.57 Y147.197 E12.5105
G1 X66.368 Y146.491 E12.54408
G1 X66.244 Y145.767 E12.57767
G1 X66.2 Y145.003 E12.61267
G1 X66.168 Y123.855 E13.57982
G1 X66.177 Y123.497 E13.5962
G1 X66.281 Y121.484 E13.68838
G1 X66.355 Y116.147 E13.93248
G1 X66.156 Y110.968 E14.16951
G1 X66.151 Y110.708 E14.1814
G1 X66.152 Y90.927 E15.08604
G1 X66.172 Y90.405 E15.10993
G1 X66.25 Y89.399 E15.15607
G1 X66.347 Y88.671 E15.18966
G1 X66.522 Y87.958 E15.22324
G1 X66.773 Y87.267 E15.25686
G1 X67.282 Y86.302 E15.30675
G1 X67.545 Y85.888 E15.32918
G1 X67.972 Y85.29 E15.36279
G1 X68.469 Y84.736 E15.39683
G1 X84.252 Y68.943 E16.41793
M204 S5000
M205 X30 Y30
G0 F1800 X84.605 Y69.296
M204 S500
M205 X20 Y20
G1 F900 X84.953 Y68.973 E16.43964
G1 X85.769 Y68.272 E16.48884
G1 X86.331 Y67.843 E16.52117
G1 X86.937 Y67.479 E16.5535
G1 X87.58 Y67.187 E16.5858
G1 X87.962 Y67.052 E16.60433
G1 X88.222 Y66.97 E16.61679
G1 X88.907 Y66.796 E16.64912
G1 X89.607 Y66.701 E16.68142
G1 X90.095 Y66.681 E16.70376
G1 X110.476 Y66.659 E17.63584
G1 X110.703 Y66.663 E17.64622
G1 X116.183 Y66.856 E17.89699
G1 X121.553 Y66.779 E18.1426
G1 X124.048 Y66.658 E18.25684
G1 X124.35 Y66.651 E18.27065
G1 X144.037 Y66.652 E19.17099
G1 X144.498 Y66.669 E19.19209
G1 X145.538 Y66.746 E19.23978
G1 X146.239 Y66.838 E19.27211
G1 X146.925 Y67.009 E19.30445
G1 X147.588 Y67.255 E19.33679
G1 X148.426 Y67.702 E19.38022
G1 X148.842 Y67.966 E19.40276
G1 X149.416 Y68.378 E19.43507
G1 X149.911 Y68.822 E19.46548
G1 X165.704 Y84.605 E20.48658
G1 X166.027 Y84.953 E20.50829
G1 X166.728 Y85.769 E20.55749
G1 X167.157 Y86.331 E20.58982
G1 X167.521 Y86.937 E20.62215
G1 X167.813 Y87.58 E20.65445
G1 X167.948 Y87.962 E20.67298
G1 X168.03 Y88.222 E20.68545
G1 X168.204 Y88.907 E20.71777
G1 X168.299 Y89.607 E20.75007
G1 X168.319 Y90.095 E20.77241
G1 X168.341 Y110.476 E21.70449
G1 X168.337 Y110.703 E21.71487
G1 X168.144 Y116.183 E21.96564
G1 X168.221 Y121.553 E22.21125
G1 X168.342 Y124.048 E22.32549
G1 X168.349 Y124.353 E22.33944
G1 X168.339 Y144.653 E23.26782
G1 X168.299 Y145.359 E23.30015
G1 X168.184 Y146.031 E23.33133
G1 X168.058 Y146.587 E23.35741
G1 X167.863 Y147.267 E23.38976
G1 X167.593 Y147.92 E23.42207
G1 X167.251 Y148.538 E23.45437
G1 X166.667 Y149.322 E23.49908
G1 X166.016 Y150.066 E23.54429
G1 X165.729 Y150.372 E23.56348
G1 X149.94 Y166.146 E24.58416
G1 X149.413 Y166.616 E24.61646
G1 X148.797 Y167.048 E24.65086
G1 X148.267 Y167.374 E24.67932
G1 X147.645 Y167.709 E24.71163
G1 X146.99 Y167.973 E24.74393
G1 X146.308 Y168.16 E24.77627
G1 X145.61 Y168.269 E24.80858
G1 X145.002 Y168.3 E24.83642
G1 X123.854 Y168.332 E25.80357
G1 X123.523 Y168.324 E25.81871
G1 X121.491 Y168.219 E25.91177
G1 X116.135 Y168.144 E26.15674
G1 X110.933 Y168.344 E26.39481
G1 X110.69 Y168.349 E26.40593
G1 X90.347 Y168.339 E27.33627
G1 X89.641 Y168.299 E27.36861
G1 X88.971 Y168.185 E27.39969
G1 X88.414 Y168.059 E27.42581
G1 X87.735 Y167.864 E27.45811
G1 X87.081 Y167.594 E27.49047
G1 X86.463 Y167.252 E27.52277
G1 X85.672 Y166.662 E27.5679
G1 X84.925 Y166.007 E27.61334
G1 X84.624 Y165.725 E27.6322
G1 X68.852 Y149.938 E28.65275
G1 X68.382 Y149.411 E28.68505
G1 X67.947 Y148.79 E28.71972
G1 X67.623 Y148.262 E28.74805
G1 X67.288 Y147.639 E28.7804
G1 X67.025 Y146.983 E28.81272
G1 X66.839 Y146.302 E28.84501
G1 X66.73 Y145.603 E28.87736
G1 X66.7 Y145.002 E28.90488
G1 X66.668 Y123.854 E29.87204
G1 X66.676 Y123.523 E29.88718
G1 X66.781 Y121.491 E29.98023
G1 X66.856 Y116.134 E30.22524
G1 X66.656 Y110.949 E30.46254
G1 X66.651 Y110.708 E30.47357
G1 X66.652 Y90.927 E31.37821
G1 X66.671 Y90.444 E31.40031
G1 X66.749 Y89.438 E31.44646
G1 X66.843 Y88.737 E31.4788
G1 X67.016 Y88.052 E31.51111
G1 X67.265 Y87.391 E31.54342
G1 X67.704 Y86.57 E31.58599
G1 X67.967 Y86.156 E31.60842
G1 X68.38 Y85.581 E31.6408
G1 X68.822 Y85.089 E31.67105
G1 X84.605 Y69.296 E32.69215
M204 S5000
M205 X30 Y30
G0 F1800 X84.959 Y69.649
M204 S500
M205 X20 Y20
G1 F900 X85.279 Y69.352 E32.71212
G1 X86.095 Y68.651 E32.76131
G1 X86.634 Y68.241 E32.79228
G1 X87.218 Y67.896 E32.8233
G1 X88.113 Y67.529 E32.86754
G1 X88.373 Y67.447 E32.88001
G1 X89.03 Y67.282 E32.91099
G1 X89.702 Y67.195 E32.94198
G1 X90.096 Y67.181 E32.96001
G1 X110.477 Y67.159 E33.89209
G1 X110.685 Y67.163 E33.9016
G1 X116.172 Y67.356 E34.15269
G1 X121.585 Y67.278 E34.40027
G1 X124.072 Y67.158 E34.51414
G1 X124.35 Y67.151 E34.52686
G1 X144.037 Y67.152 E35.4272
G1 X144.462 Y67.168 E35.44665
G1 X145.502 Y67.245 E35.49434
G1 X146.174 Y67.335 E35.52534
G1 X146.83 Y67.503 E35.55631
G1 X147.463 Y67.747 E35.58734
G1 X148.158 Y68.124 E35.6235
G1 X148.574 Y68.388 E35.64603
G1 X149.124 Y68.784 E35.67702
G1 X149.558 Y69.176 E35.70377
G1 X165.351 Y84.959 E36.72487
G1 X165.648 Y85.279 E36.74484
G1 X166.349 Y86.095 E36.79403
G1 X166.759 Y86.634 E36.82501
G1 X167.104 Y87.218 E36.85603
G1 X167.471 Y88.113 E36.90026
G1 X167.553 Y88.373 E36.91273
G1 X167.718 Y89.03 E36.94371
G1 X167.805 Y89.702 E36.9747
G1 X167.819 Y90.096 E36.99273
G1 X167.841 Y110.477 E37.92481
G1 X167.837 Y110.685 E37.93432
G1 X167.644 Y116.172 E38.18541
G1 X167.722 Y121.585 E38.43299
G1 X167.842 Y124.072 E38.54686
G1 X167.849 Y124.353 E38.55971
G1 X167.839 Y144.653 E39.48809
G1 X167.799 Y145.33 E39.5191
G1 X167.697 Y145.921 E39.54653
G1 X167.571 Y146.477 E39.5726
G1 X167.382 Y147.128 E39.6036
G1 X167.118 Y147.752 E39.63459
G1 X166.783 Y148.342 E39.66562
G1 X166.29 Y148.992 E39.70293
G1 X165.639 Y149.736 E39.74814
G1 X165.376 Y150.018 E39.76577
G1 X149.587 Y165.792 E40.78646
G1 X149.08 Y166.242 E40.81746
G1 X148.536 Y166.622 E40.8478
G1 X148.006 Y166.948 E40.87626
G1 X147.408 Y167.268 E40.90728
G1 X146.777 Y167.516 E40.93828
G1 X146.121 Y167.688 E40.9693
G1 X145.45 Y167.782 E41.00029
G1 X145.002 Y167.8 E41.02079
G1 X123.854 Y167.832 E41.98795
G1 X123.549 Y167.824 E42.0019
G1 X121.524 Y167.719 E42.09463
G1 X116.142 Y167.644 E42.34079
G1 X110.914 Y167.845 E42.58006
G1 X110.69 Y167.849 E42.5903
G1 X90.347 Y167.839 E43.52064
G1 X89.67 Y167.799 E43.55166
G1 X89.081 Y167.697 E43.579
G1 X88.524 Y167.571 E43.60511
G1 X87.873 Y167.383 E43.6361
G1 X87.248 Y167.119 E43.66713
G1 X86.659 Y166.784 E43.69812
G1 X86.002 Y166.286 E43.73582
G1 X85.255 Y165.631 E43.78126
G1 X84.978 Y165.372 E43.7986
G1 X69.206 Y149.585 E44.81915
G1 X68.756 Y149.078 E44.85015
G1 X68.373 Y148.528 E44.8808
G1 X68.049 Y148 E44.90913
G1 X67.729 Y147.403 E44.94011
G1 X67.482 Y146.771 E44.97114
G1 X67.311 Y146.115 E45.00215
G1 X67.218 Y145.444 E45.03313
G1 X67.2 Y145.002 E45.05336
G1 X67.168 Y123.854 E46.02051
G1 X67.176 Y123.549 E46.03447
G1 X67.281 Y121.524 E46.1272
G1 X67.356 Y116.141 E46.3734
G1 X67.155 Y110.929 E46.61194
G1 X67.151 Y110.708 E46.62205
G1 X67.152 Y90.927 E47.52668
G1 X67.169 Y90.483 E47.547
G1 X67.247 Y89.477 E47.59315
G1 X67.339 Y88.805 E47.62417
G1 X67.51 Y88.149 E47.65517
G1 X67.757 Y87.517 E47.6862
G1 X68.127 Y86.838 E47.72157
G1 X68.39 Y86.424 E47.744
G1 X68.786 Y85.874 E47.77499
G1 X69.176 Y85.442 E47.80161
G1 X84.959 Y69.649 E48.82271
M204 S5000
M205 X30 Y30
G0 F1800 X85.313 Y70.003
M204 S500
M205 X20 Y20
G1 F900 X85.605 Y69.732 E48.84093
G1 X86.421 Y69.031 E48.89013
G1 X86.937 Y68.64 E48.91973
G1 X87.498 Y68.315 E48.94938
G1 X88.263 Y68.006 E48.98712
G1 X88.523 Y67.924 E48.99958
G1 X89.152 Y67.768 E49.02922
G1 X90.096 Y67.681 E49.07258
G1 X110.477 Y67.659 E50.00465
G1 X110.668 Y67.662 E50.01339
G1 X116.182 Y67.856 E50.26572
G1 X121.586 Y67.779 E50.51288
G1 X124.096 Y67.657 E50.62781
G1 X124.35 Y67.651 E50.63943
G1 X144.037 Y67.652 E51.53976
G1 X144.425 Y67.666 E51.55752
G1 X145.465 Y67.743 E51.60521
G1 X146.106 Y67.831 E51.6348
G1 X146.733 Y67.997 E51.66446
G1 X147.334 Y68.239 E51.69409
G1 X147.89 Y68.546 E51.72314
G1 X148.306 Y68.81 E51.74567
G1 X148.831 Y69.19 E51.77531
G1 X149.204 Y69.53 E51.79839
G1 X164.997 Y85.313 E52.81949
G1 X165.268 Y85.605 E52.83771
G1 X165.969 Y86.421 E52.88691
G1 X166.36 Y86.937 E52.91652
G1 X166.685 Y87.498 E52.94617
G1 X166.994 Y88.263 E52.9839
G1 X167.076 Y88.523 E52.99637
G1 X167.232 Y89.152 E53.02601
G1 X167.319 Y90.096 E53.06936
G1 X167.341 Y110.477 E54.00144
G1 X167.338 Y110.668 E54.01018
G1 X167.144 Y116.182 E54.2625
G1 X167.221 Y121.586 E54.50967
G1 X167.343 Y124.096 E54.62459
G1 X167.349 Y124.353 E54.63635
G1 X167.339 Y144.653 E55.56472
G1 X167.299 Y145.299 E55.59432
G1 X167.209 Y145.81 E55.61805
G1 X167.083 Y146.366 E55.64412
G1 X166.901 Y146.988 E55.67376
G1 X166.644 Y147.583 E55.7034
G1 X166.316 Y148.141 E55.733
G1 X165.914 Y148.663 E55.76313
G1 X165.263 Y149.407 E55.80834
G1 X165.023 Y149.664 E55.82443
G1 X149.234 Y165.438 E56.84511
G1 X148.748 Y165.867 E56.87475
G1 X148.274 Y166.196 E56.90114
G1 X147.744 Y166.522 E56.9296
G1 X147.172 Y166.826 E56.95922
G1 X146.567 Y167.058 E56.98885
G1 X145.938 Y167.214 E57.01849
G1 X145.001 Y167.3 E57.06152
G1 X123.853 Y167.332 E58.02868
G1 X123.574 Y167.325 E58.04144
G1 X121.529 Y167.219 E58.13509
G1 X116.13 Y167.144 E58.38203
G1 X110.894 Y167.345 E58.62166
G1 X110.69 Y167.349 E58.63099
G1 X90.347 Y167.339 E59.56133
G1 X89.701 Y167.299 E59.59093
G1 X89.192 Y167.21 E59.61456
G1 X88.635 Y167.084 E59.64068
G1 X88.013 Y166.902 E59.67032
G1 X87.418 Y166.645 E59.69996
G1 X86.86 Y166.317 E59.72956
G1 X86.332 Y165.91 E59.76005
G1 X85.585 Y165.255 E59.80548
G1 X85.332 Y165.019 E59.8213
G1 X69.56 Y149.232 E60.84186
G1 X69.131 Y148.746 E60.8715
G1 X68.799 Y148.267 E60.89816
G1 X68.475 Y147.739 E60.92649
G1 X68.171 Y147.167 E60.95611
G1 X67.94 Y146.562 E60.98573
G1 X67.785 Y145.933 E61.01535
G1 X67.7 Y145.001 E61.05815
G1 X67.668 Y123.853 E62.02531
G1 X67.675 Y123.574 E62.03807
G1 X67.781 Y121.515 E62.13236
G1 X67.856 Y116.129 E62.3787
G1 X67.655 Y110.91 E62.61756
G1 X67.651 Y110.708 E62.6268
G1 X67.652 Y90.927 E63.53143
G1 X67.668 Y90.521 E63.55002
G1 X67.746 Y89.515 E63.59616
G1 X67.836 Y88.874 E63.62576
G1 X68.004 Y88.248 E63.65541
G1 X68.248 Y87.648 E63.68503
G1 X68.549 Y87.106 E63.71338
G1 X68.812 Y86.692 E63.73581
G1 X69.192 Y86.168 E63.76541
G1 X69.53 Y85.796 E63.7884
G1 X85.313 Y70.003 E64.8095
M204 S5000
M205 X30 Y30
G1 F2400 E58.8095
;MESH:6eaffbfa-3d0b-4df5-abb1-d56ecaba0aa4.stl
G0 F1800 X89.106 Y72.694
G0 X90.174 Y73.694
G0 X104.163 Y79.319
G0 X104.9 Y79.831
G0 X105.49 Y80.514
G0 X105.89 Y81.321
G0 X106.041 Y82.035
G0 X106.1 Y83.107
G0 X106.002 Y83.091
M204 S500
M205 X20 Y20
;TYPE:WALL-INNER
G1 F2400 E64.8095
G1 F900 X106.038 Y82.793 E64.82323
G1 X106.049 Y82.5 E64.83664
G1 X106.038 Y82.207 E64.85005
G1 X106.002 Y81.909 E64.86377
G1 X105.938 Y81.618 E64.8774
G1 X105.853 Y81.334 E64.89096
G1 X105.744 Y81.056 E64.90461
G1 X105.61 Y80.789 E64.91828
G1 X105.457 Y80.536 E64.9318
G1 X105.283 Y80.297 E64.94532
G1 X105.089 Y80.07 E64.95897
G1 X104.874 Y79.86 E64.97272
G1 X104.645 Y79.672 E64.98627
G1 X104.403 Y79.503 E64.99977
G1 X104.145 Y79.354 E65.01339
G1 X103.875 Y79.227 E65.02704
G1 X103.597 Y79.123 E65.04061
G1 X103.309 Y79.043 E65.05428
G1 X103.017 Y78.987 E65.06788
G1 X102.722 Y78.957 E65.08144
G1 X102.426 Y78.951 E65.09498
G1 X102.13 Y78.969 E65.10854
G1 X101.836 Y79.012 E65.12213
G1 X101.546 Y79.08 E65.13575
G1 X101.263 Y79.173 E65.14937
G1 X100.99 Y79.288 E65.16292
G1 X100.726 Y79.424 E65.1765
G1 X100.473 Y79.585 E65.19022
G1 X100.239 Y79.764 E65.20369
G1 X100.016 Y79.962 E65.21733
G1 X99.811 Y80.182 E65.23108
G1 X99.628 Y80.413 E65.24456
G1 X99.463 Y80.66 E65.25814
G1 X99.32 Y80.922 E65.27179
G1 X99.199 Y81.193 E65.28537
G1 X99.1 Y81.473 E65.29895
G1 X99.026 Y81.764 E65.31268
G1 X98.977 Y82.057 E65.32627
G1 X98.953 Y82.352 E65.3398
G1 X98.953 Y82.648 E65.35334
G1 X98.977 Y82.943 E65.36688
G1 X99.026 Y83.236 E65.38046
G1 X99.1 Y83.527 E65.39419
G1 X99.199 Y83.807 E65.40777
G1 X99.32 Y84.078 E65.42135
G1 X99.463 Y84.34 E65.435
G1 X99.628 Y84.587 E65.44858
G1 X99.811 Y84.818 E65.46206
G1 X100.016 Y85.038 E65.47581
G1 X100.239 Y85.236 E65.48945
G1 X100.473 Y85.415 E65.50292
G1 X100.726 Y85.576 E65.51664
G1 X100.99 Y85.712 E65.53022
G1 X101.263 Y85.827 E65.54377
G1 X101.546 Y85.92 E65.55739
G1 X101.836 Y85.988 E65.57101
G1 X102.13 Y86.031 E65.5846
G1 X102.426 Y86.049 E65.59816
G1 X102.722 Y86.043 E65.6117
G1 X103.017 Y86.013 E65.62526
G1 X103.309 Y85.957 E65.63886
G1 X103.597 Y85.877 E65.65253
G1 X103.875 Y85.773 E65.6661
G1 X104.145 Y85.646 E65.67975
G1 X104.403 Y85.497 E65.69338
G1 X104.645 Y85.328 E65.70687
G1 X104.874 Y85.14 E65.72042
G1 X105.089 Y84.93 E65.73417
G1 X105.283 Y84.703 E65.74782
G1 X105.457 Y84.464 E65.76134
G1 X105.61 Y84.211 E65.77487
G1 X105.744 Y83.944 E65.78853
G1 X105.853 Y83.666 E65.80218
G1 X105.938 Y83.382 E65.81574
G1 X106.002 Y83.091 E65.82937
M204 S5000
M205 X30 Y30
G0 F1800 X106.1 Y83.107
G0 X105.645 Y84.23
G0 X105.219 Y84.818
G0 X86.1 Y103.107
G0 X86.002 Y103.091
M204 S500
M205 X20 Y20
G1 F900 X86.038 Y102.793 E65.8431
G1 X86.049 Y102.5 E65.8565
G1 X86.038 Y102.207 E65.86991
