;FLAVOR:Marlin
;TIME:2053
;Filament used: 1.34142m
;Layer height: 0.15
;Generated with Cura_SteamEngine 3.6.0
M140 S90
M105
M190 S90
M104 S245
M105
M109 S245
M82 ;absolute extrusion mode
; Ender 3 Custom Start G-code
G28 ; Home all axes
G92 E0 ; Reset Extruder
G1 Z2.0 F3000 ; Move Z Axis up little to prevent scratching of Heat Bed
G1 X0.1 Y20 Z0.3 F5000.0 ; Move to start position
G1 X0.1 Y200.0 Z0.3 F1500.0 E15 ; Draw the first line
G1 X0.4 Y200.0 Z0.3 F5000.0 ; Move to side a little
G1 X0.4 Y20 Z0.3 F1500.0 E30 ; Draw the second line
G92 E0 ; Reset Extruder
G1 Z2.0 F3000 ; Move Z Axis up little to prevent scratching of Heat Bed
; End of custom start GCode
G92 E0
G1 F2400 E-5
;LAYER_COUNT:134
;LAYER:0
M107
M204 S5000
M205 X30 Y30
G0 F1800 X103.886 Y103.982 Z0.2
M204 S500
M205 X20 Y20
;TYPE:SKIRT
G1 F2400 E0
G1 F900 X103.981 Y103.887 E0.00614
G1 X104.528 Y103.397 E0.03973
G1 X105.125 Y102.969 E0.07332
G1 X105.765 Y102.608 E0.10693
G1 X106.44 Y102.319 E0.14051
G1 X107.143 Y102.105 E0.17411
G1 X107.865 Y101.969 E0.20771
G1 X108.754 Y101.91 E0.24846
G1 X127.491 Y101.91 E1.10535
G1 X128.224 Y101.95 E1.13892
G1 X128.949 Y102.069 E1.17252
G1 X129.657 Y102.267 E1.20615
G1 X130.339 Y102.54 E1.23974
G1 X130.987 Y102.886 E1.27334
G1 X131.594 Y103.3 E1.30694
G1 X132.152 Y103.777 E1.34051
G1 X132.655 Y104.313 E1.37413
G1 X133.097 Y104.9 E1.40773
G1 X133.472 Y105.531 E1.4413
G1 X133.777 Y106.199 E1.47488
G1 X134.007 Y106.897 E1.50849
G1 X134.16 Y107.616 E1.54211
G1 X134.241 Y108.658 E1.58991
G1 X134.245 Y125.443 E2.35753
G1 X134.228 Y125.922 E2.37945
G1 X134.158 Y126.911 E2.42479
G1 X134.066 Y127.639 E2.45835
G1 X133.896 Y128.354 E2.49196
G1 X133.616 Y129.123 E2.52939
G1 X133.487 Y129.42 E2.5442
G1 X133.158 Y130.077 E2.5778
G1 X132.76 Y130.694 E2.61138
G1 X132.285 Y131.278 E2.64581
G1 X131.843 Y131.763 E2.67581
G1 X131.319 Y132.278 E2.70941
G1 X130.743 Y132.733 E2.74298
G1 X130.12 Y133.123 E2.7766
G1 X129.496 Y133.427 E2.80834
G1 X128.913 Y133.675 E2.83732
G1 X128.223 Y133.926 E2.87089
G1 X127.509 Y134.1 E2.9045
G1 X126.781 Y134.195 E2.93808
G1 X126.274 Y134.214 E2.96128
G1 X108.662 Y134.221 E3.76673
G1 X107.928 Y134.181 E3.80034
G1 X107.203 Y134.062 E3.83394
G1 X106.496 Y133.865 E3.86751
G1 X105.814 Y133.592 E3.9011
G1 X105.165 Y133.247 E3.93472
G1 X104.559 Y132.833 E3.96828
G1 X104 Y132.355 E4.00192
G1 X103.497 Y131.82 E4.0355
G1 X103.055 Y131.234 E4.06907
G1 X102.679 Y130.602 E4.1027
G1 X102.374 Y129.934 E4.13628
G1 X102.144 Y129.237 E4.16985
G1 X101.991 Y128.518 E4.20347
G1 X101.909 Y127.471 E4.2515
G1 X101.909 Y108.755 E5.10743
G1 X101.949 Y108.022 E5.141
G1 X102.068 Y107.297 E5.1746
G1 X102.266 Y106.589 E5.20822
G1 X102.539 Y105.907 E5.24182
G1 X102.885 Y105.259 E5.27541
G1 X103.299 Y104.652 E5.30901
G1 X103.886 Y103.982 E5.34975
M204 S5000
M205 X30 Y30
G0 F1800 X104.24 Y104.336
M204 S500
M205 X20 Y20
G1 F900 X104.335 Y104.241 E5.35589
G1 X104.862 Y103.77 E5.38822
G1 X105.439 Y103.362 E5.42054
G1 X106.058 Y103.021 E5.45286
G1 X106.712 Y102.753 E5.48518
G1 X107.392 Y102.56 E5.51751
G1 X108.09 Y102.445 E5.54986
G1 X108.754 Y102.41 E5.58027
G1 X127.491 Y102.41 E6.43716
G1 X128.197 Y102.45 E6.4695
G1 X128.893 Y102.569 E6.50179
G1 X129.572 Y102.767 E6.53414
G1 X130.224 Y103.039 E6.56645
G1 X130.841 Y103.384 E6.59877
G1 X131.416 Y103.796 E6.63112
G1 X131.94 Y104.27 E6.66344
G1 X132.407 Y104.801 E6.69578
G1 X132.811 Y105.38 E6.72807
G1 X133.148 Y106.002 E6.76042
G1 X133.412 Y106.658 E6.79276
G1 X133.6 Y107.339 E6.82507
G1 X133.71 Y108.037 E6.85738
G1 X133.741 Y108.659 E6.88586
G1 X133.745 Y125.444 E7.65349
G1 X133.729 Y125.886 E7.67371
G1 X133.659 Y126.875 E7.71905
G1 X133.57 Y127.576 E7.75137
G1 X133.401 Y128.263 E7.78373
G1 X133.158 Y128.924 E7.81593
G1 X133.029 Y129.221 E7.83074
G1 X132.711 Y129.852 E7.86306
G1 X132.324 Y130.444 E7.8954
G1 X131.915 Y130.941 E7.92484
G1 X131.473 Y131.426 E7.95485
G1 X130.969 Y131.921 E7.98715
G1 X130.411 Y132.355 E8.01948
G1 X129.808 Y132.724 E8.05181
G1 X129.301 Y132.967 E8.07753
G1 X128.718 Y133.215 E8.1065
G1 X128.052 Y133.455 E8.13888
G1 X127.365 Y133.618 E8.17117
G1 X126.663 Y133.702 E8.2035
G1 X126.273 Y133.714 E8.22134
G1 X108.661 Y133.721 E9.02679
G1 X107.956 Y133.681 E9.05908
G1 X107.259 Y133.562 E9.09142
G1 X106.58 Y133.365 E9.12375
G1 X105.928 Y133.093 E9.15606
G1 X105.311 Y132.748 E9.18839
G1 X104.736 Y132.337 E9.22071
G1 X104.212 Y131.863 E9.25302
G1 X103.745 Y131.332 E9.28536
G1 X103.34 Y130.753 E9.31768
G1 X103.003 Y130.131 E9.35003
G1 X102.739 Y129.476 E9.38233
G1 X102.551 Y128.794 E9.41468
G1 X102.44 Y128.096 E9.447
G1 X102.409 Y127.471 E9.47562
G1 X102.409 Y108.755 E10.33155
G1 X102.449 Y108.049 E10.36389
G1 X102.568 Y107.353 E10.39618
G1 X102.766 Y106.674 E10.42853
G1 X103.038 Y106.022 E10.46084
G1 X103.383 Y105.405 E10.49317
G1 X103.795 Y104.83 E10.52552
G1 X104.24 Y104.336 E10.55592
M204 S5000
M205 X30 Y30
G0 F1800 X104.593 Y104.689
M204 S500
M205 X20 Y20
G1 F900 X104.688 Y104.594 E10.56207
G1 X105.195 Y104.144 E10.59307
G1 X105.751 Y103.756 E10.62408
G1 X106.349 Y103.437 E10.65507
G1 X106.981 Y103.19 E10.68611
G1 X107.637 Y103.02 E10.7171
G1 X108.308 Y102.927 E10.74808
G1 X108.754 Y102.91 E10.76849
G1 X127.491 Y102.91 E11.62538
G1 X128.168 Y102.95 E11.6564
G1 X128.835 Y103.069 E11.68738
G1 X129.484 Y103.266 E11.7184
G1 X130.105 Y103.538 E11.7494
G1 X130.689 Y103.882 E11.7804
G1 X131.23 Y104.291 E11.81142
G1 X131.718 Y104.762 E11.84243
G1 X132.147 Y105.286 E11.87341
G1 X132.512 Y105.858 E11.90444
G1 X132.807 Y106.468 E11.93542
G1 X133.028 Y107.109 E11.96643
G1 X133.172 Y107.771 E11.99742
G1 X133.241 Y108.659 E12.03815
G1 X133.245 Y125.444 E12.80577
G1 X133.231 Y125.851 E12.8244
G1 X133.161 Y126.84 E12.86974
G1 X133.073 Y127.512 E12.90073
G1 X132.907 Y128.169 E12.93172
G1 X132.699 Y128.725 E12.95887
G1 X132.57 Y129.022 E12.97368
G1 X132.264 Y129.627 E13.00469
G1 X131.888 Y130.191 E13.03569
G1 X131.546 Y130.604 E13.06021
G1 X131.104 Y131.089 E13.09022
G1 X130.619 Y131.562 E13.1212
G1 X130.081 Y131.975 E13.15222
G1 X129.498 Y132.322 E13.18325
G1 X129.105 Y132.507 E13.20311
G1 X128.522 Y132.755 E13.23209
G1 X127.883 Y132.983 E13.26311
G1 X127.223 Y133.135 E13.29409
G1 X126.273 Y133.214 E13.33768
G1 X108.661 Y133.221 E14.14313
G1 X107.985 Y133.181 E14.1741
G1 X107.317 Y133.062 E14.20513
G1 X106.668 Y132.865 E14.23614
G1 X106.047 Y132.594 E14.26713
G1 X105.463 Y132.251 E14.2981
G1 X104.922 Y131.841 E14.32915
G1 X104.434 Y131.371 E14.36013
G1 X104.004 Y130.847 E14.39113
G1 X103.639 Y130.275 E14.42216
G1 X103.344 Y129.665 E14.45315
G1 X103.123 Y129.024 E14.48416
G1 X102.978 Y128.362 E14.51515
G1 X102.909 Y127.471 E14.55602
G1 X102.909 Y108.755 E15.41196
G1 X102.949 Y108.078 E15.44297
G1 X103.068 Y107.411 E15.47396
G1 X103.265 Y106.762 E15.50497
G1 X103.537 Y106.141 E15.53598
G1 X103.881 Y105.557 E15.56698
G1 X104.29 Y105.016 E15.59799
G1 X104.593 Y104.689 E15.61838
M204 S5000
M205 X30 Y30
G0 F1800 X104.947 Y105.043
M204 S500
M205 X20 Y20
G1 F900 X105.042 Y104.948 E15.62452
G1 X105.527 Y104.519 E15.65414
G1 X106.062 Y104.153 E15.68378
G1 X106.637 Y103.856 E15.71338
G1 X107.245 Y103.632 E15.74301
G1 X107.876 Y103.484 E15.77265
G1 X108.754 Y103.41 E15.81295
G1 X127.491 Y103.41 E16.66984
G1 X128.138 Y103.45 E16.69948
G1 X128.774 Y103.569 E16.72908
G1 X129.391 Y103.766 E16.7587
G1 X129.98 Y104.037 E16.78835
G1 X130.53 Y104.379 E16.81797
G1 X131.034 Y104.786 E16.84759
G1 X131.484 Y105.252 E16.87722
G1 X131.873 Y105.769 E16.90681
G1 X132.196 Y106.331 E16.93645
G1 X132.447 Y106.928 E16.96607
G1 X132.623 Y107.552 E16.99572
G1 X132.72 Y108.192 E17.02532
G1 X132.741 Y108.659 E17.0467
G1 X132.745 Y125.444 E17.81432
G1 X132.732 Y125.816 E17.83135
G1 X132.662 Y126.805 E17.87669
G1 X132.576 Y127.447 E17.90631
G1 X132.412 Y128.073 E17.93591
G1 X132.24 Y128.526 E17.95807
G1 X132.111 Y128.823 E17.97288
G1 X131.817 Y129.4 E18.00249
G1 X131.454 Y129.936 E18.0321
G1 X131.176 Y130.267 E18.05187
G1 X130.734 Y130.752 E18.08188
G1 X130.269 Y131.203 E18.1115
G1 X129.752 Y131.593 E18.14112
G1 X128.909 Y132.047 E18.1849
G1 X128.326 Y132.295 E18.21388
G1 X127.715 Y132.511 E18.24352
G1 X127.083 Y132.651 E18.27312
G1 X126.273 Y132.714 E18.31028
G1 X108.661 Y132.721 E19.11572
G1 X108.015 Y132.681 E19.14532
G1 X107.378 Y132.562 E19.17496
G1 X106.761 Y132.366 E19.20456
G1 X106.172 Y132.095 E19.23421
G1 X105.622 Y131.753 E19.26383
G1 X105.118 Y131.347 E19.29343
G1 X104.667 Y130.881 E19.32309
G1 X104.278 Y130.363 E19.35271
G1 X103.955 Y129.802 E19.38232
G1 X103.704 Y129.205 E19.41193
G1 X103.528 Y128.581 E19.44159
G1 X103.43 Y127.941 E19.4712
G1 X103.409 Y127.471 E19.49271
G1 X103.409 Y108.755 E20.34864
G1 X103.449 Y108.108 E20.37829
G1 X103.568 Y107.472 E20.40788
G1 X103.765 Y106.855 E20.4375
G1 X104.036 Y106.266 E20.46715
G1 X104.378 Y105.716 E20.49677
G1 X104.947 Y105.043 E20.53708
M204 S5000
M205 X30 Y30
G1 F2400 E15.53708
;MESH:48d04be7-7157-40dd-8de3-85a9ec08bb76.stl
G0 F1800 X107.985 Y109.415
G0 X109.413 Y109.414
G0 X114.172 Y119.607
G0 X114.798 Y120.45
G0 X114.865 Y120.377
M204 S500
M205 X20 Y20
;TYPE:WALL-INNER
G1 F2400 E20.53708
G1 F900 X115.062 Y120.543 E20.54886
G1 X115.266 Y120.698 E20.56057
G1 X115.484 Y120.838 E20.57242
G1 X115.708 Y120.964 E20.58418
G1 X115.941 Y121.076 E20.596
G1 X116.183 Y121.171 E20.60789
G1 X116.427 Y121.249 E20.6196
G1 X116.675 Y121.312 E20.63131
G1 X116.932 Y121.359 E20.64325
G1 X117.187 Y121.387 E20.65499
G1 X117.442 Y121.4 E20.66666
G1 X117.703 Y121.396 E20.6786
G1 X117.959 Y121.373 E20.69035
G1 X118.214 Y121.335 E20.70215
G1 X118.466 Y121.279 E20.71395
G1 X118.714 Y121.207 E20.72576
G1 X118.956 Y121.118 E20.73755
G1 X119.19 Y121.015 E20.74925
G1 X119.42 Y120.896 E20.76109
G1 X119.642 Y120.76 E20.77299
G1 X119.852 Y120.612 E20.78474
G1 X120.051 Y120.449 E20.79651
G1 X120.241 Y120.276 E20.80826
G1 X120.419 Y120.087 E20.82013
G1 X120.583 Y119.888 E20.83193
G1 X120.735 Y119.679 E20.84374
G1 X120.87 Y119.461 E20.85547
G1 X120.993 Y119.236 E20.8672
G1 X121.101 Y118.999 E20.87911
G1 X121.191 Y118.759 E20.89083
G1 X121.267 Y118.511 E20.90269
G1 X121.325 Y118.26 E20.91448
G1 X121.367 Y118.006 E20.92625
G1 X121.392 Y117.749 E20.93806
G1 X121.4 Y117.491 E20.94986
G1 X121.391 Y117.233 E20.96167
G1 X121.365 Y116.978 E20.97339
G1 X121.322 Y116.722 E20.98526
G1 X121.261 Y116.471 E20.99708
G1 X121.186 Y116.224 E21.00888
G1 X121.093 Y115.986 E21.02057
G1 X120.987 Y115.752 E21.03231
G1 X120.862 Y115.523 E21.04425
G1 X120.725 Y115.307 E21.05594
G1 X120.573 Y115.098 E21.06776
G1 X120.406 Y114.899 E21.07964
G1 X120.229 Y114.714 E21.09135
G1 X120.038 Y114.539 E21.1032
G1 X119.838 Y114.379 E21.11491
G1 X119.627 Y114.23 E21.12673
G1 X119.405 Y114.097 E21.13856
G1 X119.177 Y113.978 E21.15032
G1 X118.939 Y113.876 E21.16216
G1 X118.699 Y113.789 E21.17384
G1 X118.449 Y113.716 E21.18575
G1 X118.197 Y113.663 E21.19753
G1 X117.942 Y113.624 E21.20932
G1 X117.684 Y113.604 E21.22116
G1 X117.426 Y113.6 E21.23296
G1 X117.167 Y113.615 E21.24482
G1 X116.914 Y113.644 E21.25647
G1 X116.659 Y113.691 E21.26833
G1 X116.41 Y113.756 E21.2801
G1 X116.165 Y113.835 E21.29187
G1 X115.926 Y113.931 E21.30365
G1 X115.694 Y114.042 E21.31541
G1 X115.468 Y114.17 E21.32729
G1 X115.252 Y114.312 E21.33911
G1 X115.047 Y114.468 E21.35089
G1 X114.853 Y114.636 E21.36263
G1 X114.668 Y114.818 E21.3745
G1 X114.498 Y115.01 E21.38622
G1 X114.34 Y115.214 E21.39802
G1 X114.195 Y115.429 E21.40988
G1 X114.067 Y115.651 E21.4216
G1 X113.951 Y115.881 E21.43338
G1 X113.852 Y116.12 E21.44522
G1 X113.768 Y116.364 E21.45702
G1 X113.702 Y116.615 E21.46889
G1 X113.652 Y116.866 E21.48059
G1 X113.617 Y117.123 E21.49245
G1 X113.602 Y117.382 E21.50432
G1 X113.602 Y117.636 E21.51593
G1 X113.619 Y117.894 E21.52776
G1 X113.654 Y118.151 E21.53962
G1 X113.706 Y118.404 E21.55143
G1 X113.773 Y118.653 E21.56322
G1 X113.859 Y118.897 E21.57506
G1 X113.958 Y119.133 E21.58676
G1 X114.074 Y119.363 E21.59854
G1 X114.205 Y119.586 E21.61037
G1 X114.35 Y119.801 E21.62223
G1 X114.51 Y120.004 E21.63405
G1 X114.679 Y120.193 E21.64564
G1 X114.865 Y120.377 E21.65761
M204 S5000
M205 X30 Y30
G0 F1800 X114.798 Y120.45
G0 X115.926 Y121.112
G0 X116.927 Y121.398
G0 X117.963 Y121.412
G0 X118.97 Y121.155
G0 X119.876 Y120.643
G0 X120.614 Y119.912
G0 X126.65 Y109.65
G0 X126.75 Y109.65
M204 S500
M205 X20 Y20
G1 F900 X126.745 Y126.074 E22.40872
G1 X126.721 Y126.203 E22.41472
G1 X126.67 Y126.333 E22.42111
G1 X126.595 Y126.455 E22.42766
G1 X126.5 Y126.558 E22.43407
G1 X126.397 Y126.636 E22.43998
G1 X126.273 Y126.697 E22.4463
G1 X126.085 Y126.744 E22.45516
G1 X125.82 Y126.75 E22.46728
G1 X109.4 Y126.75 E23.21821
G1 X109.399 Y109.65 E24.00024
G1 X109.399 Y109.4 E24.01167
G1 X109.649 Y109.4 E24.01907
G1 X126.5 Y109.4 E24.78971
G1 X126.75 Y109.4 E24.80114
G1 X126.75 Y109.65 E24.80854
M204 S5000
M205 X30 Y30
G0 F1800 X127.25 Y109.15
M204 S500
M205 X20 Y20
;TYPE:WALL-OUTER
G1 F900 X127.245 Y126.119 E25.58458
G1 X127.203 Y126.342 E25.59496
G1 X127.119 Y126.558 E25.60556
G1 X127.005 Y126.743 E25.61549
G1 X126.927 Y126.839 E25.62115
G1 X126.842 Y126.924 E25.62665
G1 X126.754 Y126.997 E25.63188
G1 X126.663 Y127.06 E25.63694
G1 X126.564 Y127.115 E25.64212
G1 X126.456 Y127.163 E25.64752
G1 X126.343 Y127.201 E25.65298
G1 X126.223 Y127.229 E25.65861
G1 X126.123 Y127.243 E25.66323
G1 X125.832 Y127.25 E25.67654
G1 X108.9 Y127.25 E26.45089
G1 X108.899 Y109.15 E27.27865
G1 X108.899 Y108.9 E27.29008
G1 X109.149 Y108.9 E27.29748
G1 X127 Y108.9 E28.11385
G1 X127.25 Y108.9 E28.12529
G1 X127.25 Y109.15 E28.13268
M204 S5000
M205 X30 Y30
G0 F1800 X127.25 Y109.35
G0 X126.68 Y109.47
G0 X120.614 Y119.912
G0 X119.876 Y120.643
G0 X118.97 Y121.155
G0 X117.963 Y121.412
G0 X116.927 Y121.398
G0 X115.926 Y121.112
G0 X114.816 Y120.465
G0 X115.203 Y120.008
M204 S500
M205 X20 Y20
G1 F900 X115.374 Y120.152 E28.14291
G1 X115.553 Y120.288 E28.15319
G1 X115.742 Y120.41 E28.16348
G1 X115.938 Y120.52 E28.17375
G1 X116.141 Y120.617 E28.18404
G1 X116.351 Y120.7 E28.19437
G1 X116.564 Y120.768 E28.2046
G1 X116.782 Y120.823 E28.21488
G1 X117.004 Y120.864 E28.2252
G1 X117.227 Y120.888 E28.23546
G1 X117.451 Y120.9 E28.24572
G1 X117.676 Y120.896 E28.25601
G1 X117.9 Y120.876 E28.2663
G1 X118.123 Y120.843 E28.2766
G1 X118.342 Y120.794 E28.28687
G1 X118.558 Y120.732 E28.29714
G1 X118.769 Y120.654 E28.30743
G1 X118.974 Y120.564 E28.31767
G1 X119.174 Y120.46 E28.32798
G1 X119.367 Y120.342 E28.33833
G1 X119.55 Y120.213 E28.34857
G1 X119.724 Y120.071 E28.35884
G1 X119.89 Y119.919 E28.36913
G1 X120.044 Y119.756 E28.37939
G1 X120.188 Y119.582 E28.38971
G1 X120.32 Y119.4 E28.4
G1 X120.438 Y119.21 E28.41023
G1 X120.545 Y119.013 E28.42048
G1 X120.639 Y118.807 E28.43083
G1 X120.718 Y118.597 E28.44109
G1 X120.784 Y118.382 E28.45138
G1 X120.834 Y118.163 E28.46165
G1 X120.871 Y117.94 E28.47199
G1 X120.893 Y117.717 E28.48224
G1 X120.9 Y117.492 E28.49253
G1 X120.892 Y117.268 E28.50278
G1 X120.869 Y117.045 E28.51304
G1 X120.832 Y116.822 E28.52337
G1 X120.779 Y116.603 E28.53368
G1 X120.713 Y116.388 E28.54396
G1 X120.632 Y116.18 E28.55417
G1 X120.539 Y115.975 E28.56447
G1 X120.431 Y115.777 E28.57478
G1 X120.311 Y115.588 E28.58502
G1 X120.179 Y115.406 E28.5953
G1 X120.033 Y115.233 E28.60565
G1 X119.879 Y115.071 E28.61588
G1 X119.713 Y114.919 E28.62617
G1 X119.537 Y114.779 E28.63646
G1 X119.354 Y114.649 E28.64672
G1 X119.161 Y114.534 E28.657
G1 X118.962 Y114.43 E28.66726
G1 X118.755 Y114.341 E28.67757
G1 X118.543 Y114.264 E28.68788
G1 X118.327 Y114.201 E28.69817
G1 X118.108 Y114.155 E28.70841
G1 X117.885 Y114.121 E28.71872
G1 X117.661 Y114.104 E28.729
G1 X117.436 Y114.1 E28.73929
G1 X117.211 Y114.113 E28.7496
G1 X116.989 Y114.139 E28.75982
G1 X116.767 Y114.18 E28.77014
G1 X116.549 Y114.236 E28.78044
G1 X116.336 Y114.305 E28.79068
G1 X116.128 Y114.389 E28.80093
G1 X115.925 Y114.486 E28.81122
G1 X115.729 Y114.597 E28.82152
G1 X115.541 Y114.721 E28.83182
G1 X115.361 Y114.857 E28.84214
G1 X115.192 Y115.003 E28.85235
G1 X115.031 Y115.162 E28.8627
G1 X114.883 Y115.329 E28.87291
G1 X114.745 Y115.507 E28.88321
G1 X114.619 Y115.694 E28.89352
G1 X114.507 Y115.888 E28.90377
G1 X114.406 Y116.089 E28.91405
G1 X114.32 Y116.297 E28.92435
