;FLAVOR:Marlin
;TIME:1346
;Filament used: 0.94047m
;Layer height: 0.15
;Generated with Cura_SteamEngine 3.6.0
M140 S90
M105
M190 S90
M104 S250
M105
M109 S250
M82 ;absolute extrusion mode
; Ender 3 Custom Start G-code
G28 ; Home all axes
G92 E0 ; Reset Extruder
G1 Z2.0 F3000 ; Move Z Axis up little to prevent scratching of Heat Bed
G1 X0.1 Y20 Z0.3 F5000.0 ; Move to start position
G1 X0.1 Y200.0 Z0.3 F1500.0 E15 ; Draw the first line
G1 X0.4 Y200.0 Z0.3 F5000.0 ; Move to side a little
G1 X0.4 Y20 Z0.3 F1500.0 E30 ; Draw the second line
G92 E0 ; Reset Extruder
G1 Z2.0 F3000 ; Move Z Axis up little to prevent scratching of Heat Bed
; End of custom start GCode
G92 E0
G1 F2400 E-6
;LAYER_COUNT:109
;LAYER:0
M107
M204 S5000
M205 X30 Y30
G0 F1800 X103.628 Y100.805 Z0.2
M204 S500
M205 X20 Y20
;TYPE:SKIRT
G1 F2400 E0
G1 F900 X104.163 Y100.302 E0.03358
G1 X104.75 Y99.86 E0.06719
G1 X105.381 Y99.485 E0.10076
G1 X106.05 Y99.18 E0.13438
G1 X106.747 Y98.95 E0.16795
G1 X107.466 Y98.797 E0.20156
G1 X108.511 Y98.716 E0.2495
G1 X126.491 Y98.718 E1.07177
G1 X127.224 Y98.758 E1.10534
G1 X127.949 Y98.878 E1.13895
G1 X128.657 Y99.075 E1.17256
G1 X129.338 Y99.348 E1.20611
G1 X129.986 Y99.694 E1.23971
G1 X130.593 Y100.108 E1.27331
G1 X131.151 Y100.586 E1.30691
G1 X131.654 Y101.121 E1.34049
G1 X132.096 Y101.708 E1.3741
G1 X132.471 Y102.34 E1.40771
G1 X132.776 Y103.008 E1.44129
G1 X133.006 Y103.706 E1.4749
G1 X133.159 Y104.424 E1.50847
G1 X133.24 Y105.468 E1.55636
G1 X133.241 Y129.533 E2.65692
G1 X133.201 Y130.266 E2.69049
G1 X133.082 Y130.991 E2.72409
G1 X132.884 Y131.699 E2.75771
G1 X132.611 Y132.38 E2.79127
G1 X132.265 Y133.029 E2.8249
G1 X131.851 Y133.635 E2.85846
G1 X131.374 Y134.194 E2.89207
G1 X130.838 Y134.697 E2.92569
G1 X130.252 Y135.138 E2.95923
G1 X129.62 Y135.514 E2.99286
G1 X128.952 Y135.818 E3.02642
G1 X128.254 Y136.049 E3.06005
G1 X127.536 Y136.202 E3.09362
G1 X126.483 Y136.283 E3.14192
G1 X108.501 Y136.261 E3.96428
G1 X107.767 Y136.22 E3.99791
G1 X107.043 Y136.1 E4.03147
G1 X106.335 Y135.901 E4.0651
G1 X105.654 Y135.627 E4.09867
G1 X105.006 Y135.281 E4.13227
G1 X104.4 Y134.866 E4.16586
G1 X103.842 Y134.388 E4.19946
G1 X103.34 Y133.852 E4.23304
G1 X102.899 Y133.265 E4.26662
G1 X102.524 Y132.633 E4.30023
G1 X102.22 Y131.964 E4.33383
G1 X101.991 Y131.266 E4.36743
G1 X101.839 Y130.547 E4.40104
G1 X101.759 Y129.511 E4.44856
G1 X101.76 Y105.466 E5.5482
G1 X101.8 Y104.732 E5.58182
G1 X101.919 Y104.007 E5.61542
G1 X102.117 Y103.3 E5.64899
G1 X102.39 Y102.618 E5.68259
G1 X102.736 Y101.97 E5.71618
G1 X103.15 Y101.363 E5.74979
G1 X103.628 Y100.805 E5.78339
M204 S5000
M205 X30 Y30
G0 F1800 X104.12 Y101.017
M204 S500
M205 X20 Y20
G1 F900 X104.651 Y100.55 E5.81573
G1 X105.231 Y100.146 E5.84805
G1 X105.852 Y99.809 E5.88037
G1 X106.508 Y99.545 E5.9127
G1 X107.189 Y99.357 E5.94501
G1 X107.887 Y99.247 E5.97733
G1 X108.511 Y99.216 E6.0059
G1 X126.491 Y99.218 E6.82817
G1 X127.196 Y99.258 E6.86047
G1 X127.893 Y99.378 E6.89281
G1 X128.572 Y99.575 E6.92515
G1 X129.224 Y99.848 E6.95747
G1 X129.841 Y100.192 E6.98978
G1 X130.415 Y100.604 E7.02209
G1 X130.939 Y101.079 E7.05443
G1 X131.406 Y101.609 E7.08674
G1 X131.811 Y102.189 E7.11909
G1 X132.147 Y102.811 E7.15142
G1 X132.411 Y103.466 E7.18372
G1 X132.599 Y104.148 E7.21607
G1 X132.709 Y104.846 E7.24839
G1 X132.74 Y105.468 E7.27687
G1 X132.741 Y129.533 E8.37743
G1 X132.701 Y130.238 E8.40972
G1 X132.582 Y130.935 E8.44206
G1 X132.384 Y131.614 E8.4744
G1 X132.112 Y132.266 E8.50671
G1 X131.767 Y132.883 E8.53904
G1 X131.355 Y133.457 E8.57135
G1 X130.881 Y133.982 E8.6037
G1 X130.351 Y134.449 E8.636
G1 X129.771 Y134.853 E8.66833
G1 X129.149 Y135.19 E8.70068
G1 X128.494 Y135.453 E8.73296
G1 X127.812 Y135.642 E8.76533
G1 X127.114 Y135.752 E8.79764
G1 X126.483 Y135.783 E8.82653
G1 X108.501 Y135.761 E9.6489
G1 X107.796 Y135.72 E9.6812
G1 X107.099 Y135.6 E9.71354
G1 X106.421 Y135.402 E9.74584
G1 X105.769 Y135.128 E9.77819
G1 X105.152 Y134.783 E9.81051
G1 X104.578 Y134.37 E9.84285
G1 X104.055 Y133.895 E9.87516
G1 X103.588 Y133.364 E9.9075
G1 X103.185 Y132.784 E9.9398
G1 X102.849 Y132.162 E9.97213
G1 X102.586 Y131.506 E10.00446
G1 X102.399 Y130.825 E10.03675
G1 X102.289 Y130.126 E10.06911
G1 X102.259 Y129.511 E10.09727
G1 X102.26 Y105.466 E11.19692
G1 X102.3 Y104.76 E11.22925
G1 X102.419 Y104.063 E11.26159
G1 X102.617 Y103.385 E11.29389
G1 X102.889 Y102.733 E11.3262
G1 X103.234 Y102.115 E11.35857
G1 X103.646 Y101.541 E11.39088
G1 X104.12 Y101.017 E11.4232
M204 S5000
M205 X30 Y30
G0 F1800 X104.141 Y101.727
M204 S500
M205 X20 Y20
G1 F900 X104.612 Y101.239 E11.45421
G1 X105.136 Y100.81 E11.48518
G1 X105.708 Y100.445 E11.51622
G1 X106.318 Y100.15 E11.5472
G1 X106.959 Y99.929 E11.57821
G1 X107.622 Y99.785 E11.60924
G1 X108.511 Y99.716 E11.65002
G1 X126.491 Y99.718 E12.47229
G1 X127.167 Y99.758 E12.50326
G1 X127.835 Y99.877 E12.53429
G1 X128.483 Y100.075 E12.56528
G1 X129.104 Y100.347 E12.59628
G1 X129.689 Y100.69 E12.6273
G1 X130.229 Y101.1 E12.6583
G1 X130.717 Y101.57 E12.68929
G1 X131.147 Y102.095 E12.72032
G1 X131.511 Y102.666 E12.75129
G1 X131.806 Y103.277 E12.78232
G1 X132.027 Y103.918 E12.81333
G1 X132.171 Y104.58 E12.84431
G1 X132.24 Y105.468 E12.88505
G1 X132.241 Y129.533 E13.9856
G1 X132.201 Y130.21 E14.01662
G1 X132.082 Y130.877 E14.0476
G1 X131.885 Y131.526 E14.07862
G1 X131.613 Y132.147 E14.10963
G1 X131.27 Y132.731 E14.1406
G1 X130.86 Y133.271 E14.17161
G1 X130.39 Y133.76 E14.20262
G1 X129.865 Y134.189 E14.23363
G1 X129.294 Y134.554 E14.26462
G1 X128.683 Y134.849 E14.29565
G1 X128.042 Y135.07 E14.32666
G1 X127.38 Y135.214 E14.35764
G1 X126.484 Y135.283 E14.39874
G1 X108.502 Y135.261 E15.22111
G1 X107.825 Y135.22 E15.25212
G1 X107.158 Y135.1 E15.28312
G1 X106.51 Y134.902 E15.31411
G1 X105.889 Y134.629 E15.34513
G1 X105.305 Y134.285 E15.37613
G1 X104.765 Y133.875 E15.40713
G1 X104.277 Y133.404 E15.43815
G1 X103.849 Y132.879 E15.46913
G1 X103.485 Y132.307 E15.50013
G1 X103.19 Y131.696 E15.53116
G1 X102.97 Y131.055 E15.56216
G1 X102.827 Y130.393 E15.59313
G1 X102.759 Y129.511 E15.63358
G1 X102.76 Y105.466 E16.73323
G1 X102.8 Y104.789 E16.76424
G1 X102.919 Y104.122 E16.79523
G1 X103.116 Y103.473 E16.82625
G1 X103.389 Y102.852 E16.85727
G1 X103.732 Y102.267 E16.88828
G1 X104.141 Y101.727 E16.91926
M204 S5000
M205 X30 Y30
G0 F1800 X104.636 Y101.923
M204 S500
M205 X20 Y20
G1 F900 X105.102 Y101.473 E16.94889
G1 X105.619 Y101.083 E16.9785
G1 X106.181 Y100.761 E17.00813
G1 X106.778 Y100.51 E17.03774
G1 X107.402 Y100.334 E17.06739
G1 X108.042 Y100.237 E17.097
G1 X108.511 Y100.216 E17.11847
G1 X126.491 Y100.218 E17.94074
G1 X127.137 Y100.258 E17.97034
G1 X127.774 Y100.377 E17.99998
G1 X128.391 Y100.574 E18.0296
G1 X128.979 Y100.846 E18.05923
G1 X129.529 Y101.187 E18.08882
G1 X130.033 Y101.594 E18.11845
G1 X130.484 Y102.06 E18.1481
G1 X130.873 Y102.578 E18.17773
G1 X131.195 Y103.14 E18.20735
G1 X131.446 Y103.737 E18.23697
G1 X131.622 Y104.36 E18.26658
G1 X131.719 Y105.001 E18.29622
G1 X131.74 Y105.468 E18.3176
G1 X131.741 Y129.533 E19.41816
G1 X131.701 Y130.179 E19.44776
G1 X131.582 Y130.816 E19.4774
G1 X131.385 Y131.433 E19.50702
G1 X131.114 Y132.021 E19.53663
G1 X130.772 Y132.572 E19.56628
G1 X130.365 Y133.076 E19.59591
G1 X129.9 Y133.526 E19.6255
G1 X129.382 Y133.915 E19.65513
G1 X128.82 Y134.238 E19.68477
G1 X128.223 Y134.489 E19.71439
G1 X127.6 Y134.665 E19.744
G1 X126.959 Y134.762 E19.77364
G1 X126.485 Y134.783 E19.79534
G1 X108.503 Y134.761 E20.61771
G1 X107.856 Y134.72 E20.64736
G1 X107.22 Y134.6 E20.67696
G1 X106.603 Y134.403 E20.70658
G1 X106.015 Y134.131 E20.73621
G1 X105.465 Y133.788 E20.76585
G1 X104.961 Y133.381 E20.79548
G1 X104.512 Y132.915 E20.82507
G1 X104.123 Y132.396 E20.85473
G1 X103.801 Y131.834 E20.88435
G1 X103.551 Y131.237 E20.91395
G1 X103.376 Y130.613 E20.94359
G1 X103.279 Y129.973 E20.97319
G1 X103.259 Y129.511 E20.99434
G1 X103.26 Y105.466 E22.09399
G1 X103.3 Y104.819 E22.12363
G1 X103.419 Y104.183 E22.15322
G1 X103.616 Y103.565 E22.18289
G1 X103.887 Y102.977 E22.2125
G1 X104.229 Y102.427 E22.24211
G1 X104.636 Y101.923 E22.27174
M204 S5000
M205 X30 Y30
G1 F2400 E16.27174
;MESH:e9067568-f14c-4a8f-b552-33027f8b0736.stl
G0 F1800 X107.835 Y106.221
G0 X109.264 Y106.221
G0 X115.368 Y106.307
G0 X115.368 Y106.207
M204 S500
M205 X20 Y20
;TYPE:WALL-INNER
G1 F2400 E22.27174
G1 F900 X115.713 Y106.207 E22.28752
G1 X116.095 Y106.207 E22.30499
G1 X116.318 Y106.207 E22.31519
G1 X116.704 Y106.207 E22.33284
G1 X117.101 Y106.207 E22.351
G1 X117.499 Y106.207 E22.3692
G1 X117.9 Y106.207 E22.38754
G1 X118.298 Y106.207 E22.40574
G1 X118.709 Y106.207 E22.42453
G1 X119.096 Y106.207 E22.44223
G1 X119.478 Y106.207 E22.4597
G1 X119.622 Y106.207 E22.46629
G1 X125.75 Y106.208 E22.74654
G1 X125.75 Y128.792 E23.77936
G1 X119.634 Y128.792 E24.05907
G1 X119.278 Y128.792 E24.07535
G1 X118.894 Y128.792 E24.09291
G1 X118.504 Y128.792 E24.11074
G1 X118.106 Y128.792 E24.12895
G1 X117.714 Y128.792 E24.14687
G1 X117.482 Y128.792 E24.15748
G1 X117.092 Y128.792 E24.17532
G1 X116.695 Y128.792 E24.19347
G1 X116.302 Y128.792 E24.21145
G1 X115.913 Y128.792 E24.22924
G1 X115.53 Y128.792 E24.24675
G1 X115.375 Y128.792 E24.25384
G1 X109.25 Y128.791 E24.53395
G1 X109.25 Y106.207 E25.56678
G1 X115.368 Y106.207 E25.84657
M204 S5000
M205 X30 Y30
G0 F1800 X115.368 Y106.307
G0 X113.413 Y108.059
G0 X112.543 Y109.122
G0 X111.753 Y110.526
G0 X111.294 Y111.698
G0 X110.883 Y113.397
G0 X110.714 Y115.191
G0 X110.754 Y120.578
G0 X111.031 Y122.352
G0 X111.531 Y123.959
G0 X112.182 Y125.305
G0 X113.103 Y126.604
G0 X113.897 Y127.395
G0 X114.935 Y128.115
G0 X115.901 Y128.54
G0 X117.089 Y128.779
G0 X118.524 Y128.753
G0 X118.504 Y128.656
M204 S500
M205 X20 Y20
G1 F900 X118.894 Y128.558 E25.85364
G1 X119.278 Y128.434 E25.86483
G1 X119.607 Y128.298 E25.87885
G1 X119.656 Y128.277 E25.88129
G1 X120.018 Y128.096 E25.89979
G1 X120.223 Y127.979 E25.91059
G1 X120.571 Y127.755 E25.92952
G1 X120.913 Y127.501 E25.949
G1 X121.239 Y127.221 E25.96865
G1 X121.552 Y126.921 E25.98848
G1 X121.845 Y126.602 E26.00829
G1 X122.008 Y126.411 E26.01977
G1 X122.279 Y126.06 E26.04005
G1 X122.533 Y125.689 E26.06061
G1 X122.787 Y125.279 E26.08267
G1 X122.914 Y125.053 E26.09453
G1 X123.124 Y124.647 E26.11543
G1 X123.413 Y123.991 E26.14821
G1 X123.665 Y123.298 E26.18194
G1 X123.789 Y122.886 E26.20161
G1 X123.927 Y122.353 E26.22679
G1 X123.988 Y122.081 E26.23954
G1 X124.081 Y121.589 E26.26244
G1 X124.153 Y121.086 E26.28568
G1 X124.204 Y120.581 E26.30889
G1 X124.238 Y120.073 E26.33217
G1 X124.249 Y119.563 E26.3555
G1 X124.242 Y119.053 E26.37883
G1 X124.214 Y118.539 E26.40237
G1 X124.162 Y118.025 E26.426
G1 X124.085 Y117.5 E26.45026
G1 X124.155 Y117.021 E26.4724
G1 X124.21 Y116.486 E26.497
G1 X124.24 Y115.966 E26.52082
G1 X124.25 Y115.45 E26.54442
G1 X124.24 Y114.939 E26.5678
G1 X124.207 Y114.425 E26.59135
G1 X124.119 Y113.654 E26.62684
G1 X124.034 Y113.153 E26.65008
G1 X123.932 Y112.663 E26.67297
G1 X123.825 Y112.238 E26.69301
G1 X123.646 Y111.648 E26.72121
G1 X123.411 Y111.003 E26.7526
G1 X123.223 Y110.565 E26.7744
G1 X123.024 Y110.154 E26.79528
G1 X122.781 Y109.709 E26.81847
G1 X122.413 Y109.127 E26.84996
G1 X122.151 Y108.769 E26.87025
G1 X121.999 Y108.577 E26.88145
G1 X121.711 Y108.247 E26.90148
G1 X121.407 Y107.932 E26.9215
G1 X121.09 Y107.645 E26.94106
G1 X120.901 Y107.49 E26.95224
G1 X120.563 Y107.24 E26.97146
G1 X120.212 Y107.014 E26.99055
G1 X119.85 Y106.815 E27.00945
G1 X119.608 Y106.704 E27.02162
G1 X119.478 Y106.644 E27.02777
G1 X119.096 Y106.503 E27.04165
G1 X118.709 Y106.391 E27.05075
G1 X118.298 Y106.306 E27.05638
G1 X117.9 Y106.259 E27.05921
G1 X117.499 Y106.243 E27.06082
G1 X117.101 Y106.26 E27.06245
G1 X116.704 Y106.307 E27.0653
G1 X116.318 Y106.386 E27.07053
G1 X116.095 Y106.444 E27.07506
G1 X115.713 Y106.568 E27.08631
G1 X115.395 Y106.701 E27.09992
G1 X115.334 Y106.727 E27.10295
G1 X114.967 Y106.912 E27.12175
G1 X114.61 Y107.126 E27.14078
G1 X114.265 Y107.364 E27.15995
G1 X113.938 Y107.624 E27.17905
G1 X113.752 Y107.784 E27.19028
G1 X113.441 Y108.086 E27.2101
G1 X113.14 Y108.413 E27.23043
G1 X112.723 Y108.937 E27.26105
G1 X112.576 Y109.144 E27.27266
G1 X112.336 Y109.514 E27.29283
G1 X112.208 Y109.73 E27.30431
G1 X111.988 Y110.13 E27.32519
G1 X111.789 Y110.542 E27.34612
G1 X111.584 Y111.014 E27.36965
G1 X111.48 Y111.286 E27.38297
G1 X111.332 Y111.71 E27.40351
G1 X111.129 Y112.416 E27.4371
G1 X111.015 Y112.908 E27.4602
G1 X110.922 Y113.403 E27.48323
G1 X110.849 Y113.899 E27.50616
G1 X110.816 Y114.177 E27.51896
G1 X110.775 Y114.682 E27.54213
G1 X110.753 Y115.191 E27.56543
G1 X110.752 Y115.706 E27.58899
G1 X110.772 Y116.223 E27.61265
G1 X110.813 Y116.748 E27.63673
G1 X110.914 Y117.503 E27.67157
G1 X110.845 Y117.979 E27.69356
G1 X110.79 Y118.514 E27.71816
G1 X110.76 Y119.034 E27.74198
G1 X110.75 Y119.55 E27.76558
G1 X110.76 Y120.061 E27.78895
G1 X110.793 Y120.575 E27.81251
G1 X110.881 Y121.346 E27.848
G1 X110.966 Y121.847 E27.87124
G1 X111.069 Y122.343 E27.89441
G1 X111.262 Y123.064 E27.92854
G1 X111.413 Y123.525 E27.95072
G1 X111.568 Y123.945 E27.9712
G1 X111.778 Y124.439 E27.99575
G1 X111.894 Y124.68 E28.00798
G1 X112.216 Y125.286 E28.03936
G1 X112.455 Y125.674 E28.0602
G1 X112.592 Y125.879 E28.07148
G1 X112.852 Y126.236 E28.09168
G1 X113.133 Y126.579 E28.11195
G1 X113.299 Y126.765 E28.12336
G1 X113.601 Y127.075 E28.14315
G1 X113.922 Y127.365 E28.16293
G1 X114.256 Y127.632 E28.18249
G1 X114.602 Y127.871 E28.20172
G1 X114.954 Y128.081 E28.22046
G1 X115.163 Y128.191 E28.23127
G1 X115.39 Y128.296 E28.2427
G1 X115.53 Y128.36 E28.24927
G1 X115.913 Y128.502 E28.263
G1 X116.302 Y128.612 E28.27196
G1 X116.695 Y128.692 E28.2773
G1 X117.092 Y128.74 E28.28014
G1 X117.482 Y128.756 E28.28171
G1 X117.714 Y128.753 E28.2825
G1 X118.106 Y128.72 E28.28454
G1 X118.504 Y128.656 E28.28852
M204 S5000
M205 X30 Y30
G0 F1800 X118.403 Y128.166
M204 S500
M205 X20 Y20
;TYPE:WALL-OUTER
G1 F900 X118.756 Y128.077 E28.30517
G1 X119.105 Y127.964 E28.32194
G1 X119.448 Y127.822 E28.33892
G1 X119.782 Y127.655 E28.356
G1 X119.964 Y127.551 E28.36559
G1 X120.286 Y127.344 E28.38309
G1 X120.601 Y127.11 E28.40104
G1 X120.903 Y126.851 E28.41923
G1 X121.194 Y126.571 E28.4377
G1 X121.471 Y126.27 E28.45641
G1 X121.62 Y126.096 E28.46688
G1 X121.874 Y125.766 E28.48593
G1 X122.114 Y125.416 E28.50534
G1 X122.356 Y125.025 E28.52637
G1 X122.474 Y124.815 E28.53738
G1 X122.673 Y124.431 E28.55716
G1 X122.949 Y123.805 E28.58845
G1 X123.19 Y123.141 E28.62075
G1 X123.307 Y122.751 E28.63938
G1 X123.441 Y122.236 E28.66371
G1 X123.498 Y121.98 E28.67571
G1 X123.588 Y121.507 E28.69773
G1 X123.657 Y121.025 E28.71999
G1 X123.706 Y120.54 E28.74229
G1 X123.738 Y120.051 E28.7647
G1 X123.749 Y119.561 E28.78711
G1 X123.742 Y119.07 E28.80957
G1 X123.715 Y118.578 E28.8321
G1 X123.666 Y118.087 E28.85467
G1 X123.579 Y117.5 E28.88181
G1 X123.659 Y116.959 E28.90682
G1 X123.711 Y116.446 E28.9304
G1 X123.74 Y115.946 E28.95331
G1 X123.75 Y115.45 E28.97599
G1 X123.74 Y114.96 E28.99841
G1 X123.709 Y114.469 E29.02091
G1 X123.624 Y113.724 E29.0552
G1 X123.543 Y113.246 E29.07737
G1 X123.445 Y112.775 E29.09937
G1 X123.343 Y112.372 E29.11838
G1 X123.172 Y111.806 E29.14542
G1 X122.946 Y111.188 E29.17552
G1 X122.768 Y110.773 E29.19617
G1 X122.579 Y110.383 E29.21599
G1 X122.35 Y109.962 E29.23791
G1 X122 Y109.409 E29.26784
G1 X121.753 Y109.072 E29.28694
G1 X121.614 Y108.896 E29.2972
G1 X121.343 Y108.585 E29.31606
G1 X121.059 Y108.292 E29.33473
G1 X120.763 Y108.024 E29.35299
G1 X120.593 Y107.884 E29.36306
G1 X120.279 Y107.652 E29.38091
G1 X119.956 Y107.444 E29.39848
G1 X119.625 Y107.262 E29.41576
G1 X119.286 Y107.106 E29.43282
G1 X118.94 Y106.978 E29.4497
G1 X118.589 Y106.877 E29.4664
G1 X118.218 Y106.8 E29.48373
G1 X117.86 Y106.758 E29.50021
G1 X117.5 Y106.743 E29.51669
G1 X117.141 Y106.759 E29.53312
G1 X116.783 Y106.801 E29.54961
G1 X116.431 Y106.873 E29.56604
G1 X116.235 Y106.924 E29.5753
G1 X115.887 Y107.037 E29.59204
G1 X115.543 Y107.181 E29.60909
G1 X115.208 Y107.35 E29.62625
G1 X114.881 Y107.546 E29.64368
G1 X114.563 Y107.766 E29.66137
G1 X114.256 Y108.01 E29.6793
G1 X114.089 Y108.153 E29.68936
G1 X113.799 Y108.435 E29.70786
