;FLAVOR:Marlin
;TIME:2752
;Filament used: 1.75246m
;Layer height: 0.15
;Generated with Cura_SteamEngine 3.6.0
M140 S90
M105
M190 S90
M104 S245
M105
M109 S245
M82 ;absolute extrusion mode
; Ender 3 Custom Start G-code
G28 ; Home all axes
G92 E0 ; Reset Extruder
G1 Z2.0 F3000 ; Move Z Axis up little to prevent scratching of Heat Bed
G1 X0.1 Y20 Z0.3 F5000.0 ; Move to start position
G1 X0.1 Y200.0 Z0.3 F1500.0 E15 ; Draw the first line
G1 X0.4 Y200.0 Z0.3 F5000.0 ; Move to side a little
G1 X0.4 Y20 Z0.3 F1500.0 E30 ; Draw the second line
G92 E0 ; Reset Extruder
G1 Z2.0 F3000 ; Move Z Axis up little to prevent scratching of Heat Bed
; End of custom start GCode
G92 E0
G1 F2400 E-5
;LAYER_COUNT:221
;LAYER:0
M107
M204 S5000
M205 X30 Y30
G0 F1800 X105.226 Y101.856 Z0.2
M204 S500
M205 X20 Y20
;TYPE:SKIRT
G1 F2400 E0
G1 F900 X105.784 Y101.378 E0.0336
G1 X106.28 Y101.031 E0.06129
G1 X118.274 Y93.424 E0.71082
G1 X118.915 Y93.065 E0.74442
G1 X119.505 Y92.809 E0.77383
G1 X119.913 Y92.655 E0.79378
G1 X120.614 Y92.433 E0.82741
G1 X121.693 Y92.247 E0.87748
G1 X122.528 Y92.172 E0.91582
G1 X123.262 Y92.146 E0.94941
G1 X123.995 Y92.2 E0.98302
G1 X124.643 Y92.316 E1.01313
G1 X125.296 Y92.466 E1.04377
G1 X126.002 Y92.67 E1.07738
G1 X126.909 Y93.061 E1.12255
G1 X139.498 Y99.634 E1.77203
G1 X140.13 Y100.009 E1.80563
G1 X140.717 Y100.451 E1.83924
G1 X141.253 Y100.953 E1.87282
G1 X141.731 Y101.511 E1.90643
G1 X142.077 Y102.007 E1.93408
G1 X143.021 Y103.498 E2.01479
G1 X143.38 Y104.139 E2.04839
G1 X143.666 Y104.816 E2.082
G1 X143.878 Y105.519 E2.11558
G1 X144.012 Y106.241 E2.14916
G1 X144.062 Y106.834 E2.17638
G1 X144.645 Y121.119 E2.83021
G1 X144.635 Y121.853 E2.86378
G1 X144.53 Y122.665 E2.90123
G1 X144.465 Y123.004 E2.91701
G1 X144.288 Y123.717 E2.95061
G1 X144.034 Y124.406 E2.98419
G1 X143.716 Y125.049 E3.017
G1 X143.125 Y126.097 E3.07202
G1 X142.729 Y126.716 E3.10563
G1 X142.269 Y127.289 E3.13923
G1 X141.75 Y127.808 E3.1728
G1 X141.284 Y128.189 E3.20033
G1 X140.636 Y128.673 E3.23731
G1 X140.21 Y128.967 E3.26099
G1 X128.642 Y136.297 E3.88729
G1 X128.001 Y136.656 E3.92089
G1 X127.325 Y136.943 E3.95447
G1 X126.621 Y137.154 E3.98808
G1 X125.899 Y137.289 E4.02167
G1 X125.31 Y137.339 E4.04871
G1 X123.561 Y137.412 E4.12876
G1 X122.827 Y137.403 E4.16233
G1 X122.098 Y137.314 E4.19592
G1 X121.383 Y137.146 E4.22951
G1 X120.69 Y136.901 E4.26312
G1 X120.135 Y136.64 E4.29117
G1 X107.348 Y129.906 E4.95209
G1 X106.717 Y129.529 E4.98571
G1 X106.132 Y129.086 E5.01927
G1 X105.598 Y128.581 E5.05288
G1 X105.277 Y128.218 E5.07504
G1 X104.748 Y127.574 E5.11315
G1 X104.313 Y126.982 E5.14675
G1 X103.834 Y126.116 E5.19201
G1 X103.645 Y125.706 E5.21266
G1 X103.374 Y125.023 E5.24626
G1 X103.179 Y124.315 E5.27984
G1 X103.077 Y123.716 E5.30763
G1 X102.946 Y122.666 E5.35602
G1 X102.9 Y122.112 E5.38145
G1 X102.334 Y108.581 E6.0008
G1 X102.343 Y107.847 E6.03437
G1 X102.432 Y107.117 E6.068
G1 X102.6 Y106.402 E6.10159
G1 X102.844 Y105.71 E6.13515
G1 X103.092 Y105.18 E6.16191
G1 X103.909 Y103.612 E6.24277
G1 X104.283 Y102.98 E6.27635
G1 X104.724 Y102.392 E6.30996
G1 X105.226 Y101.856 E6.34355
M204 S5000
M205 X30 Y30
G0 F1800 X105.63 Y102.162
M204 S500
M205 X20 Y20
G1 F900 X106.173 Y101.71 E6.37586
G1 X106.548 Y101.453 E6.39665
G1 X118.542 Y93.846 E7.04619
G1 X119.159 Y93.502 E7.07849
G1 X119.682 Y93.277 E7.10453
G1 X120.09 Y93.123 E7.12447
G1 X120.764 Y92.911 E7.15679
G1 X121.738 Y92.745 E7.20197
G1 X122.573 Y92.67 E7.24031
G1 X123.279 Y92.647 E7.27262
G1 X123.984 Y92.703 E7.30496
G1 X124.531 Y92.804 E7.3304
G1 X125.184 Y92.954 E7.36104
G1 X125.863 Y93.151 E7.39337
G1 X126.678 Y93.505 E7.43401
G1 X139.267 Y100.078 E8.08349
G1 X139.874 Y100.44 E8.11581
G1 X140.436 Y100.868 E8.14812
G1 X140.946 Y101.357 E8.18043
G1 X141.398 Y101.901 E8.21278
G1 X141.655 Y102.275 E8.23353
G1 X142.599 Y103.766 E8.31424
G1 X142.942 Y104.383 E8.34652
G1 X143.214 Y105.036 E8.37887
G1 X143.411 Y105.715 E8.4112
G1 X143.529 Y106.412 E8.44353
G1 X143.563 Y106.854 E8.46381
G1 X144.146 Y121.139 E9.11764
G1 X144.135 Y121.846 E9.14998
G1 X144.039 Y122.571 E9.18342
G1 X143.974 Y122.91 E9.19921
G1 X143.802 Y123.595 E9.23151
G1 X143.554 Y124.257 E9.26384
G1 X143.28 Y124.803 E9.29178
G1 X142.689 Y125.851 E9.3468
G1 X142.308 Y126.446 E9.37911
G1 X141.861 Y126.994 E9.41145
G1 X141.356 Y127.489 E9.44379
G1 X140.985 Y127.788 E9.46558
G1 X140.337 Y128.272 E9.50257
G1 X139.942 Y128.544 E9.52451
G1 X128.374 Y135.874 E10.15081
G1 X127.757 Y136.218 E10.18311
G1 X127.104 Y136.49 E10.21546
G1 X126.425 Y136.687 E10.2478
G1 X125.729 Y136.806 E10.28009
G1 X125.29 Y136.84 E10.30022
G1 X123.541 Y136.913 E10.38028
G1 X122.834 Y136.902 E10.41262
G1 X122.133 Y136.812 E10.44494
G1 X121.446 Y136.643 E10.47729
G1 X120.784 Y136.398 E10.50958
G1 X120.368 Y136.198 E10.53068
G1 X107.581 Y129.464 E11.1916
G1 X106.975 Y129.1 E11.22393
G1 X106.414 Y128.67 E11.25626
G1 X105.906 Y128.179 E11.28857
G1 X105.663 Y127.901 E11.30545
G1 X105.134 Y127.257 E11.34357
G1 X104.717 Y126.686 E11.3759
G1 X104.288 Y125.906 E11.41662
G1 X104.099 Y125.496 E11.43726
G1 X103.84 Y124.839 E11.46956
G1 X103.657 Y124.156 E11.5019
G1 X103.573 Y123.654 E11.52517
G1 X103.442 Y122.604 E11.57356
G1 X103.399 Y122.091 E11.59711
G1 X102.833 Y108.56 E12.21646
G1 X102.844 Y107.853 E12.2488
G1 X102.934 Y107.152 E12.28112
G1 X103.103 Y106.466 E12.31343
G1 X103.348 Y105.803 E12.34575
G1 X103.535 Y105.411 E12.36561
G1 X104.352 Y103.843 E12.44647
G1 X104.714 Y103.236 E12.4788
G1 X105.142 Y102.673 E12.51114
G1 X105.63 Y102.162 E12.54345
M204 S5000
M205 X30 Y30
G0 F1800 X106.033 Y102.471
M204 S500
M205 X20 Y20
G1 F900 X106.815 Y101.875 E12.58842
G1 X118.809 Y94.268 E13.23796
G1 X119.402 Y93.94 E13.26895
G1 X119.858 Y93.744 E13.29165
G1 X120.266 Y93.59 E13.31159
G1 X120.914 Y93.389 E13.34262
G1 X121.783 Y93.243 E13.38292
G1 X122.618 Y93.168 E13.42126
G1 X123.295 Y93.147 E13.45223
G1 X123.971 Y93.206 E13.48326
G1 X124.419 Y93.291 E13.50412
G1 X125.072 Y93.441 E13.53476
G1 X125.723 Y93.631 E13.56577
G1 X126.446 Y93.948 E13.60188
G1 X139.035 Y100.521 E14.25136
G1 X139.617 Y100.87 E14.28239
G1 X140.153 Y101.284 E14.31337
G1 X140.637 Y101.759 E14.34438
G1 X141.232 Y102.542 E14.38935
G1 X142.176 Y104.033 E14.47006
G1 X142.504 Y104.626 E14.50105
G1 X142.761 Y105.254 E14.53208
G1 X142.941 Y105.907 E14.56306
G1 X143.063 Y106.875 E14.60768
G1 X143.646 Y121.16 E15.26151
G1 X143.634 Y121.837 E15.29248
G1 X143.548 Y122.477 E15.32201
G1 X143.483 Y122.816 E15.3378
G1 X143.316 Y123.473 E15.3688
G1 X143.074 Y124.106 E15.39979
G1 X142.844 Y124.557 E15.42294
G1 X142.253 Y125.605 E15.47797
G1 X141.886 Y126.175 E15.50897
G1 X141.454 Y126.698 E15.53999
G1 X140.964 Y127.166 E15.57098
G1 X140.686 Y127.388 E15.58725
G1 X140.038 Y127.872 E15.62424
G1 X139.675 Y128.122 E15.6444
G1 X128.107 Y135.452 E16.2707
G1 X127.514 Y135.78 E16.30169
G1 X126.886 Y136.037 E16.33272
G1 X126.233 Y136.218 E16.36371
G1 X125.269 Y136.34 E16.40815
G1 X123.52 Y136.413 E16.48821
G1 X122.842 Y136.401 E16.51922
G1 X122.17 Y136.31 E16.55023
G1 X121.514 Y136.14 E16.58122
G1 X120.601 Y135.756 E16.62652
G1 X107.814 Y129.022 E17.28744
G1 X107.234 Y128.671 E17.31844
G1 X106.699 Y128.254 E17.34946
G1 X106.05 Y127.584 E17.39212
G1 X105.521 Y126.94 E17.43024
G1 X105.122 Y126.391 E17.46127
G1 X104.742 Y125.697 E17.49746
G1 X104.553 Y125.287 E17.5181
G1 X104.306 Y124.656 E17.54909
G1 X104.135 Y124 E17.5801
G1 X104.069 Y123.592 E17.599
G1 X103.938 Y122.542 E17.64739
G1 X103.899 Y122.07 E17.66905
G1 X103.333 Y108.539 E18.2884
G1 X103.345 Y107.861 E18.31941
G1 X103.436 Y107.19 E18.35038
G1 X103.606 Y106.533 E18.38142
G1 X103.979 Y105.642 E18.42559
G1 X104.796 Y104.074 E18.50645
G1 X105.144 Y103.492 E18.53746
G1 X105.558 Y102.956 E18.56843
G1 X106.033 Y102.471 E18.59948
M204 S5000
M205 X30 Y30
G0 F1800 X106.433 Y102.784
M204 S500
M205 X20 Y20
G1 F900 X107.083 Y102.298 E18.6366
G1 X119.077 Y94.691 E19.28613
G1 X119.645 Y94.378 E19.31579
G1 X120.035 Y94.212 E19.33518
G1 X120.443 Y94.058 E19.35512
G1 X121.062 Y93.867 E19.38475
G1 X121.827 Y93.741 E19.4202
G1 X122.662 Y93.666 E19.45854
G1 X123.31 Y93.648 E19.48819
G1 X123.955 Y93.71 E19.51782
G1 X124.307 Y93.778 E19.53422
G1 X124.96 Y93.928 E19.56486
G1 X125.582 Y94.112 E19.59452
G1 X126.215 Y94.391 E19.62616
G1 X138.804 Y100.964 E20.27564
G1 X139.358 Y101.299 E20.30525
G1 X139.868 Y101.699 E20.33489
G1 X140.324 Y102.159 E20.36451
G1 X140.81 Y102.81 E20.40166
G1 X141.754 Y104.301 E20.48237
G1 X142.066 Y104.868 E20.51197
G1 X142.306 Y105.47 E20.54161
G1 X142.469 Y106.097 E20.57123
G1 X142.564 Y106.895 E20.60799
G1 X143.147 Y121.18 E21.26182
G1 X143.133 Y121.828 E21.29146
G1 X143.057 Y122.383 E21.31708
G1 X142.992 Y122.722 E21.33287
G1 X142.831 Y123.349 E21.36247
G1 X142.594 Y123.952 E21.3921
G1 X142.409 Y124.312 E21.41061
G1 X141.818 Y125.36 E21.46564
G1 X141.466 Y125.903 E21.49523
G1 X141.049 Y126.399 E21.52486
G1 X140.387 Y126.987 E21.56536
G1 X139.739 Y127.471 E21.60235
G1 X139.407 Y127.7 E21.62079
G1 X127.839 Y135.03 E22.24709
G1 X127.271 Y135.342 E22.27673
G1 X126.67 Y135.582 E22.30632
G1 X126.043 Y135.746 E22.33596
G1 X125.248 Y135.84 E22.37257
G1 X123.499 Y135.913 E22.45263
G1 X122.851 Y135.9 E22.48227
G1 X122.21 Y135.808 E22.51189
G1 X121.585 Y135.637 E22.54152
G1 X120.834 Y135.313 E22.57892
G1 X108.047 Y128.579 E23.23984
G1 X107.493 Y128.243 E23.26947
G1 X106.985 Y127.84 E23.29913
G1 X106.436 Y127.266 E23.33545
G1 X105.907 Y126.622 E23.37357
G1 X105.528 Y126.097 E23.40318
G1 X105.196 Y125.488 E23.4349
G1 X105.007 Y125.078 E23.45555
G1 X104.773 Y124.474 E23.48517
G1 X104.565 Y123.53 E23.52938
G1 X104.434 Y122.48 E23.57777
G1 X104.399 Y122.049 E23.59755
G1 X103.833 Y108.518 E24.2169
G1 X103.845 Y107.871 E24.24649
G1 X103.938 Y107.23 E24.27611
G1 X104.109 Y106.605 E24.30574
G1 X104.422 Y105.873 E24.34215
G1 X105.239 Y104.305 E24.42301
G1 X105.573 Y103.75 E24.45264
G1 X105.973 Y103.241 E24.48224
G1 X106.433 Y102.784 E24.5119
M204 S5000
M205 X30 Y30
G1 F2400 E19.5119
;MESH:1b250f0e-b81a-44d7-8a41-ffb17f555880.stl
G0 F1800 X109.706 Y106.053
G0 X110.473 Y107.262
G0 X123.154 Y99.741
G0 X123.167 Y99.642
M204 S500
M205 X20 Y20
;TYPE:WALL-INNER
G1 F2400 E24.5119
G1 F900 X123.343 Y99.676 E24.52009
G1 X123.491 Y99.726 E24.52724
G1 X135.855 Y106.183 E25.16514
G1 X136.587 Y107.335 E25.22756
G1 X137.167 Y121.271 E25.86544
G1 X137.15 Y121.426 E25.87257
G1 X137.105 Y121.602 E25.88088
G1 X137.036 Y121.78 E25.88961
G1 X136.931 Y121.982 E25.90002
G1 X136.774 Y122.205 E25.9125
G1 X136.636 Y122.344 E25.92145
G1 X136.519 Y122.432 E25.92815
G1 X124.813 Y129.863 E26.56225
G1 X123.447 Y129.919 E26.62478
G1 X111.095 Y123.458 E27.26228
G1 X110.972 Y123.368 E27.26925
G1 X110.835 Y123.237 E27.27792
G1 X110.776 Y123.17 E27.282
G1 X110.647 Y122.992 E27.29205
G1 X110.605 Y122.922 E27.29579
G1 X110.513 Y122.732 E27.30544
G1 X110.476 Y122.639 E27.31002
G1 X110.425 Y122.456 E27.31871
G1 X110.411 Y122.341 E27.324
G1 X109.827 Y108.459 E27.95943
G1 X110.459 Y107.249 E28.02186
G1 X122.238 Y99.778 E28.65976
G1 X122.376 Y99.718 E28.66664
G1 X122.556 Y99.667 E28.6752
G1 X122.751 Y99.636 E28.68423
G1 X122.968 Y99.627 E28.69416
G1 X123.167 Y99.642 E28.70329
M204 S5000
M205 X30 Y30
G0 F1800 X123.154 Y99.741
G0 X123.468 Y129.822
G0 X123.335 Y130.425
M204 S500
M205 X20 Y20
;TYPE:WALL-OUTER
G1 F900 X110.83 Y123.884 E29.34868
G1 X110.65 Y123.752 E29.35889
G1 X110.474 Y123.583 E29.37005
G1 X110.387 Y123.485 E29.37604
G1 X110.231 Y123.269 E29.38823
G1 X110.167 Y123.163 E29.39389
G1 X110.051 Y122.925 E29.406
G1 X110.004 Y122.805 E29.41189
G1 X109.937 Y122.567 E29.4232
G1 X109.92 Y122.469 E29.42775
G1 X109.911 Y122.362 E29.43266
G1 X109.321 Y108.347 E30.07417
G1 X110.078 Y106.899 E30.1489
G1 X122.005 Y99.334 E30.79482
G1 X122.208 Y99.246 E30.80494
G1 X122.445 Y99.178 E30.81621
G1 X122.704 Y99.137 E30.8282
G1 X122.976 Y99.126 E30.84065
G1 X123.233 Y99.145 E30.85244
G1 X123.469 Y99.191 E30.86344
G1 X123.686 Y99.264 E30.87391
G1 X136.205 Y105.802 E31.51981
G1 X137.081 Y107.181 E31.59452
G1 X137.669 Y121.288 E32.24023
G1 X137.643 Y121.515 E32.25068
G1 X137.583 Y121.753 E32.26191
G1 X137.49 Y121.992 E32.27364
G1 X137.362 Y122.238 E32.28632
G1 X137.214 Y122.456 E32.29837
G1 X137.142 Y122.545 E32.3036
G1 X136.972 Y122.716 E32.31463
G1 X136.802 Y122.845 E32.32439
G1 X124.967 Y130.357 E32.96546
G1 X123.335 Y130.425 E33.04016
M204 S5000
M205 X30 Y30
G0 F1800 X123.158 Y130.333
G0 X123.437 Y129.802
G0 X123.558 Y129.423
M204 S500
M205 X20 Y20
;TYPE:SKIN
G1 F900 X111.351 Y123.039 E33.67015
G1 X111.29 Y122.994 E33.67362
G1 X111.152 Y122.855 E33.68258
G1 X111.037 Y122.689 E33.69181
G1 X110.942 Y122.484 E33.70215
G1 X110.905 Y122.356 E33.70824
G1 X110.323 Y108.57 E34.33927
G1 X110.833 Y107.593 E34.38967
G1 X122.472 Y100.21 E35.02001
G1 X122.538 Y100.181 E35.02331
G1 X122.664 Y100.146 E35.02929
G1 X122.798 Y100.124 E35.0355
G1 X122.968 Y100.117 E35.04328
G1 X123.098 Y100.128 E35.04925
G1 X123.22 Y100.151 E35.05493
G1 X123.291 Y100.175 E35.05835
G1 X135.512 Y106.557 E35.68887
G1 X136.103 Y107.487 E35.73927
G1 X136.675 Y121.251 E36.36927
G1 X136.664 Y121.346 E36.37365
G1 X136.638 Y121.452 E36.37864
G1 X136.589 Y121.577 E36.38478
G1 X136.509 Y121.732 E36.39276
G1 X136.4 Y121.886 E36.40138
G1 X136.314 Y121.972 E36.40695
G1 X136.239 Y122.029 E36.41125
G1 X124.661 Y129.379 E37.03843
G1 X123.558 Y129.423 E37.08891
M204 S5000
M205 X30 Y30
G0 F1800 X111.588 Y122.902
M204 S500
M205 X20 Y20
G1 F900 X111.219 Y122.533 E37.11278
M204 S5000
M205 X30 Y30
G0 F1800 X111.107 Y121.714
M204 S500
M205 X20 Y20
G1 F900 X113.071 Y123.677 E37.23977
G1 X113.141 Y123.747
M204 S5000
M205 X30 Y30
G0 F1800 X114.553 Y124.452
M204 S500
M205 X20 Y20
G1 F900 X111.076 Y120.976 E37.46462
M204 S5000
M205 X30 Y30
G0 F1800 X111.045 Y120.237
M204 S500
M205 X20 Y20
G1 F900 X116.035 Y125.227 E37.78735
G1 X116.105 Y125.297
M204 S5000
M205 X30 Y30
G0 F1800 X117.517 Y126.002
M204 S500
M205 X20 Y20
G1 F900 X111.014 Y119.499 E38.20793
M204 S5000
M205 X30 Y30
G0 F1800 X110.983 Y118.761
M204 S500
M205 X20 Y20
G1 F900 X118.999 Y126.777 E38.72638
G1 X119.069 Y126.847
M204 S5000
M205 X30 Y30
G0 F1800 X120.482 Y127.553
M204 S500
M205 X20 Y20
G1 F900 X110.952 Y118.023 E39.34274
M204 S5000
M205 X30 Y30
G0 F1800 X110.921 Y117.284
M204 S500
M205 X20 Y20
G1 F900 X121.964 Y128.328 E40.05698
G1 X122.034 Y128.398
M204 S5000
M205 X30 Y30
G0 F1800 X123.446 Y129.103
M204 S500
M205 X20 Y20
G1 F900 X110.889 Y116.546 E40.86912
M204 S5000
M205 X30 Y30
G0 F1800 X110.858 Y115.808
M204 S500
M205 X20 Y20
G1 F900 X124.215 Y129.165 E41.73299
M204 S5000
M205 X30 Y30
G0 F1800 X124.784 Y129.027
M204 S500
M205 X20 Y20
G1 F900 X110.827 Y115.07 E42.63567
M204 S5000
M205 X30 Y30
G0 F1800 X110.795 Y114.331
M204 S500
M205 X20 Y20
G1 F900 X125.216 Y128.752 E43.56836
M204 S5000
M205 X30 Y30
G0 F1800 X125.649 Y128.477
M204 S500
M205 X20 Y20
G1 F900 X110.764 Y113.593 E44.53103
M204 S5000
M205 X30 Y30
G0 F1800 X110.733 Y112.854
M204 S500
M205 X20 Y20
G1 F900 X126.082 Y128.203 E45.52374
M204 S5000
M205 X30 Y30
G0 F1800 X126.514 Y127.928
M204 S500
M205 X20 Y20
G1 F900 X110.702 Y112.116 E46.54639
M204 S5000
M205 X30 Y30
G0 F1800 X110.671 Y111.378
M204 S500
M205 X20 Y20
G1 F900 X126.946 Y127.653 E47.59899
M204 S5000
M205 X30 Y30
G0 F1800 X127.379 Y127.379
M204 S500
M205 X20 Y20
G1 F900 X110.64 Y110.64 E48.6816
M204 S5000
M205 X30 Y30
G0 F1800 X110.609 Y109.902
M204 S500
M205 X20 Y20
G1 F900 X127.812 Y127.105 E49.79421
M204 S5000
M205 X30 Y30
G0 F1800 X128.244 Y126.83
M204 S500
M205 X20 Y20
G1 F900 X110.578 Y109.163 E50.93681
M204 S5000
M205 X30 Y30
G0 F1800 X110.619 Y108.498
M204 S500
M205 X20 Y20
G1 F900 X128.677 Y126.555 E52.10469
M204 S5000
M205 X30 Y30
G0 F1800 X129.109 Y126.281
M204 S500
M205 X20 Y20
G1 F900 X110.861 Y108.033 E53.28489
M204 S5000
M205 X30 Y30
G0 F1800 X111.18 Y107.644
M204 S500
M205 X20 Y20
G1 F900 X129.541 Y126.006 E54.47244
M204 S5000
M205 X30 Y30
G0 F1800 X129.974 Y125.732
M204 S500
M205 X20 Y20
G1 F900 X111.613 Y107.37 E55.65998
M204 S5000
M205 X30 Y30
G0 F1800 X112.046 Y107.096
M204 S500
M205 X20 Y20
G1 F900 X130.407 Y125.457 E56.8475
M204 S5000
M205 X30 Y30
G0 F1800 X130.839 Y125.182
M204 S500
